AlexandreBanks6/MedImaging_Project/Dataset1_Code/Trial3/Registration/data.csv
Sample_no,Frame_no,Time,Time_stamp,mip Index (PSM1), pos x, pos y, pos z, o0, o1, o2, o3, o4, o5, o6, o7, o8,mip Index (PSM2), pos x, pos y, pos z, o0, o1, o2, o3, o4, o5, o6, o7, o8,mip Index (ECM), pos x, pos y, pos z, o0, o1, o2, o3, o4, o5, o6, o7, o8,Manip Index (PSM1), Num Joints, J1, J2, J3, J4, J5, J6, J7,Manip Index (PSM2), Num Joints, J1, J2, J3, J4, J5, J6, J7,Manip Index (ECM), Num Joints, J1, J2, J3, J4,Manip Index (MTM1), Num Joints, J1, J2, J3, J4, J5, J6, J7, J8,Manip Index (MTM2), Num Joints, J1, J2, J3, J4, J5, J6, J7, J8,Motor Axial Pos, Motor Rotation Angle
13330,8, 0: 0: 0:277,
,,,1668223944375201,0,0.13038,1.01074,0.33828,-0.92815,0.08105,0.36327,0.04892,0.99410,-0.09682,-0.36898,-0.07209,-0.92664,1,0.31242,1.09876,0.43188,0.88600,-0.29210,0.36012,-0.42503,-0.82207,0.37889,0.18537,-0.48875,-0.85250,2,0.16381,1.12069,0.47420,0.70230,-0.71007,-0.05077,-0.69723,-0.67170,-0.25038,0.14368,0.21124,-0.96682,0,7,0.54900,-0.78692,0.05902,-0.00003,0.00001,-0.00001,-0.00042,1,7,-0.74451,-0.94478,0.00000,3.00004,0.50336,-0.78760,0.78758,2,4,-0.07801,-0.96572,0.04467,0.70182,3,8,-0.00021,-0.00154,-0.00270,-0.00275,0.01342,0.00345,-0.00004,0.54856,4,8,0.00103,-0.10585,-0.08542,0.55620,1.07347,-0.15144,-0.25464,0.538870.00000,-13.88545
,,,1668223944227201,0,0.13038,1.01074,0.33828,-0.92815,0.08105,0.36327,0.04892,0.99410,-0.09682,-0.36898,-0.07209,-0.92664,1,0.31242,1.09876,0.43188,0.88600,-0.29210,0.36012,-0.42503,-0.82207,0.37889,0.18537,-0.48875,-0.85250,2,0.16381,1.12069,0.47420,0.70230,-0.71007,-0.05077,-0.69723,-0.67170,-0.25038,0.14368,0.21124,-0.96682,0,7,0.54900,-0.78692,0.05902,-0.00003,0.00001,-0.00001,-0.00042,1,7,-0.74451,-0.94478,0.00000,3.00004,0.50336,-0.78760,0.78758,2,4,-0.07801,-0.96572,0.04467,0.70182,3,8,-0.00021,-0.00154,-0.00270,-0.00275,0.01342,0.00345,-0.00004,0.54854,4,8,0.00103,-0.10585,-0.08542,0.55620,1.07347,-0.15144,-0.25464,0.538870.00000,-13.88545
,,,1668223944294201,0,0.13038,1.01074,0.33828,-0.92815,0.08105,0.36327,0.04892,0.99410,-0.09682,-0.36898,-0.07209,-0.92664,1,0.31242,1.09876,0.43188,0.88600,-0.29210,0.36012,-0.42503,-0.82207,0.37889,0.18537,-0.48875,-0.85250,2,0.16381,1.12069,0.47420,0.70230,-0.71007,-0.05077,-0.69723,-0.67170,-0.25038,0.14368,0.21124,-0.96682,0,7,0.54900,-0.78692,0.05902,-0.00003,0.00001,-0.00001,-0.00042,1,7,-0.74451,-0.94478,0.00000,3.00004,0.50336,-0.78760,0.78758,2,4,-0.07801,-0.96572,0.04467,0.70182,3,8,-0.00021,-0.00154,-0.00270,-0.00275,0.01342,0.00345,-0.00004,0.54874,4,8,0.00103,-0.10585,-0.08542,0.55620,1.07347,-0.15144,-0.25464,0.538920.00000,-13.88545
,,,1668223944358201,0,0.13038,1.01074,0.33828,-0.92815,0.08105,0.36327,0.04892,0.99410,-0.09682,-0.36898,-0.07209,-0.92664,1,0.31242,1.09876,0.43188,0.88600,-0.29210,0.36012,-0.42503,-0.82207,0.37889,0.18537,-0.48875,-0.85250,2,0.16381,1.12069,0.47420,0.70230,-0.71007,-0.05077,-0.69723,-0.67170,-0.25038,0.14368,0.21124,-0.96682,0,7,0.54900,-0.78692,0.05902,-0.00003,0.00001,-0.00001,-0.00042,1,7,-0.74451,-0.94478,0.00000,3.00004,0.50336,-0.78760,0.78758,2,4,-0.07801,-0.96572,0.04467,0.70182,3,8,-0.00021,-0.00154,-0.00270,-0.00275,0.01342,0.00345,-0.00004,0.54883,4,8,0.00103,-0.10581,-0.08542,0.55622,1.07347,-0.15144,-0.25464,0.538800.00000,-13.88545
,,,1668223944275201,0,0.13038,1.01074,0.33828,-0.92815,0.08105,0.36327,0.04892,0.99410,-0.09682,-0.36898,-0.07209,-0.92664,1,0.31242,1.09876,0.43188,0.88600,-0.29210,0.36012,-0.42503,-0.82207,0.37889,0.18537,-0.48875,-0.85250,2,0.16381,1.12069,0.47420,0.70230,-0.71007,-0.05077,-0.69723,-0.67170,-0.25038,0.14368,0.21124,-0.96682,0,7,0.54900,-0.78692,0.05902,-0.00003,0.00001,-0.00001,-0.00042,1,7,-0.74451,-0.94478,0.00000,3.00004,0.50336,-0.78760,0.78758,2,4,-0.07801,-0.96572,0.04467,0.70182,3,8,-0.00021,-0.00154,-0.00270,-0.00275,0.01342,0.00345,-0.00004,0.54881,4,8,0.00103,-0.10585,-0.08542,0.55620,1.07347,-0.15144,-0.25464,0.539020.00000,-13.88545
,,,1668223944344201,0,0.13038,1.01074,0.33828,-0.92815,0.08105,0.36327,0.04892,0.99410,-0.09682,-0.36898,-0.07209,-0.92664,1,0.31242,1.09876,0.43188,0.88600,-0.29210,0.36012,-0.42503,-0.82207,0.37889,0.18537,-0.48875,-0.85250,2,0.16381,1.12069,0.47420,0.70230,-0.71007,-0.05077,-0.69723,-0.67170,-0.25038,0.14368,0.21124,-0.96682,0,7,0.54900,-0.78692,0.05902,-0.00003,0.00001,-0.00001,-0.00042,1,7,-0.74451,-0.94478,0.00000,3.00004,0.50336,-0.78760,0.78758,2,4,-0.07801,-0.96572,0.04467,0.70182,3,8,-0.00021,-0.00154,-0.00270,-0.00275,0.01342,0.00345,-0.00004,0.54848,4,8,0.00103,-0.10585,-0.08542,0.55620,1.07347,-0.15144,-0.25464,0.538860.00000,-13.88545
,,,1668223944259201,0,0.13038,1.01074,0.33828,-0.92815,0.08105,0.36327,0.04892,0.99410,-0.09682,-0.36898,-0.07209,-0.92664,1,0.31242,1.09876,0.43188,0.88600,-0.29210,0.36012,-0.42503,-0.82207,0.37889,0.18537,-0.48875,-0.85250,2,0.16381,1.12069,0.47420,0.70230,-0.71007,-0.05077,-0.69723,-0.67170,-0.25038,0.14368,0.21124,-0.96682,0,7,0.54900,-0.78692,0.05902,-0.00003,0.00001,-0.00001,-0.00042,1,7,-0.74451,-0.94478,0.00000,3.00004,0.50336,-0.78760,0.78758,2,4,-0.07801,-0.96572,0.04467,0.70182,3,8,-0.00021,-0.00154,-0.00270,-0.00275,0.01342,0.00345,-0.00004,0.54862,4,8,0.00103,-0.10581,-0.08542,0.55622,1.07347,-0.15144,-0.25464,0.538980.00000,-13.88545
,,,1668223944324201,0,0.13038,1.01074,0.33828,-0.92815,0.08105,0.36327,0.04892,0.99410,-0.09682,-0.36898,-0.07209,-0.92664,1,0.31242,1.09876,0.43188,0.88600,-0.29210,0.36012,-0.42503,-0.82207,0.37889,0.18537,-0.48875,-0.85250,2,0.16381,1.12069,0.47420,0.70230,-0.71007,-0.05077,-0.69723,-0.67170,-0.25038,0.14368,0.21124,-0.96682,0,7,0.54900,-0.78692,0.05902,-0.00003,0.00001,-0.00001,-0.00042,1,7,-0.74451,-0.94478,0.00000,3.00004,0.50336,-0.78760,0.78758,2,4,-0.07801,-0.96572,0.04467,0.70182,3,8,-0.00021,-0.00154,-0.00270,-0.00275,0.01342,0.00345,-0.00004,0.54814,4,8,0.00103,-0.10585,-0.08542,0.55620,1.07347,-0.15144,-0.25464,0.538970.00000,-13.88545
,,,1668223944242201,0,0.13038,1.01074,0.33828,-0.92815,0.08105,0.36327,0.04892,0.99410,-0.09682,-0.36898,-0.07209,-0.92664,1,0.31242,1.09876,0.43188,0.88600,-0.29210,0.36012,-0.42503,-0.82207,0.37889,0.18537,-0.48875,-0.85250,2,0.16381,1.12069,0.47420,0.70230,-0.71007,-0.05077,-0.69723,-0.67170,-0.25038,0.14368,0.21124,-0.96682,0,7,0.54900,-0.78692,0.05902,-0.00003,0.00001,-0.00001,-0.00042,1,7,-0.74451,-0.94478,0.00000,3.00004,0.50336,-0.78760,0.78758,2,4,-0.07801,-0.96572,0.04467,0.70182,3,8,-0.00021,-0.00154,-0.00270,-0.00275,0.01342,0.00345,-0.00004,0.54878,4,8,0.00103,-0.10585,-0.08542,0.55620,1.07347,-0.15144,-0.25464,0.538890.00000,-13.88545
,,,1668223944308201,0,0.13038,1.01074,0.33828,-0.92815,0.08105,0.36327,0.04892,0.99410,-0.09682,-0.36898,-0.07209,-0.92664,1,0.31242,1.09876,0.43188,0.88600,-0.29210,0.36012,-0.42503,-0.82207,0.37889,0.18537,-0.48875,-0.85250,2,0.16381,1.12069,0.47420,0.70230,-0.71007,-0.05077,-0.69723,-0.67170,-0.25038,0.14368,0.21124,-0.96682,0,7,0.54900,-0.78692,0.05902,-0.00003,0.00001,-0.00001,-0.00042,1,7,-0.74451,-0.94478,0.00000,3.00004,0.50336,-0.78760,0.78758,2,4,-0.07801,-0.96572,0.04467,0.70182,3,8,-0.00021,-0.00154,-0.00270,-0.00275,0.01342,0.00345,-0.00004,0.54865,4,8,0.00103,-0.10581,-0.08542,0.55622,1.07347,-0.15144,-0.25464,0.539100.00000,-13.88545
21010,13, 0: 0: 0:437,
,,,1668223944540201,0,0.13038,1.01074,0.33828,-0.92815,0.08105,0.36327,0.04892,0.99410,-0.09682,-0.36898,-0.07209,-0.92664,1,0.31242,1.09876,0.43188,0.88600,-0.29210,0.36012,-0.42503,-0.82207,0.37889,0.18537,-0.48875,-0.85250,2,0.16381,1.12069,0.47420,0.70230,-0.71007,-0.05077,-0.69723,-0.67170,-0.25038,0.14368,0.21124,-0.96682,0,7,0.54900,-0.78692,0.05902,-0.00003,0.00001,-0.00001,-0.00042,1,7,-0.74451,-0.94478,0.00000,3.00004,0.50336,-0.78760,0.78758,2,4,-0.07801,-0.96572,0.04467,0.70182,3,8,-0.00021,-0.00154,-0.00270,-0.00275,0.01342,0.00345,-0.00004,0.54852,4,8,0.00103,-0.10585,-0.08542,0.55620,1.07347,-0.15144,-0.25464,0.538850.00000,-13.88545
,,,1668223944457201,0,0.13038,1.01074,0.33828,-0.92815,0.08105,0.36327,0.04892,0.99410,-0.09682,-0.36898,-0.07209,-0.92664,1,0.31242,1.09876,0.43188,0.88600,-0.29210,0.36012,-0.42503,-0.82207,0.37889,0.18537,-0.48875,-0.85250,2,0.16381,1.12069,0.47420,0.70230,-0.71007,-0.05077,-0.69723,-0.67170,-0.25038,0.14368,0.21124,-0.96682,0,7,0.54900,-0.78692,0.05902,-0.00003,0.00001,-0.00001,-0.00042,1,7,-0.74451,-0.94478,0.00000,3.00004,0.50336,-0.78760,0.78758,2,4,-0.07801,-0.96572,0.04467,0.70182,3,8,-0.00021,-0.00154,-0.00270,-0.00275,0.01342,0.00345,-0.00004,0.54872,4,8,0.00103,-0.10581,-0.08542,0.55622,1.07347,-0.15144,-0.25464,0.539000.00000,-13.88545
,,,1668223944524201,0,0.13038,1.01074,0.33828,-0.92815,0.08105,0.36327,0.04892,0.99410,-0.09682,-0.36898,-0.07209,-0.92664,1,0.31242,1.09876,0.43188,0.88600,-0.29210,0.36012,-0.42503,-0.82207,0.37889,0.18537,-0.48875,-0.85250,2,0.16381,1.12069,0.47420,0.70230,-0.71007,-0.05077,-0.69723,-0.67170,-0.25038,0.14368,0.21124,-0.96682,0,7,0.54900,-0.78692,0.05902,-0.00003,0.00001,-0.00001,-0.00042,1,7,-0.74451,-0.94478,0.00000,3.00004,0.50336,-0.78760,0.78758,2,4,-0.07801,-0.96572,0.04467,0.70182,3,8,-0.00021,-0.00154,-0.00270,-0.00275,0.01342,0.00345,-0.00004,0.54887,4,8,0.00103,-0.10585,-0.08542,0.55620,1.07347,-0.15144,-0.25464,0.538710.00000,-13.88545
,,,1668223944440201,0,0.13038,1.01074,0.33828,-0.92815,0.08105,0.36327,0.04892,0.99410,-0.09682,-0.36898,-0.07209,-0.92664,1,0.31242,1.09876,0.43188,0.88600,-0.29210,0.36012,-0.42503,-0.82207,0.37889,0.18537,-0.48875,-0.85250,2,0.16381,1.12069,0.47420,0.70230,-0.71007,-0.05077,-0.69723,-0.67170,-0.25038,0.14368,0.21124,-0.96682,0,7,0.54900,-0.78692,0.05902,-0.00003,0.00001,-0.00001,-0.00042,1,7,-0.74451,-0.94478,0.00000,3.00004,0.50336,-0.78760,0.78758,2,4,-0.07801,-0.96572,0.04467,0.70182,3,8,-0.00021,-0.00154,-0.00270,-0.00275,0.01342,0.00345,-0.00004,0.54881,4,8,0.00103,-0.10585,-0.08542,0.55620,1.07347,-0.15144,-0.25464,0.539020.00000,-13.88545
,,,1668223944506201,0,0.13038,1.01074,0.33828,-0.92815,0.08105,0.36327,0.04892,0.99410,-0.09682,-0.36898,-0.07209,-0.92664,1,0.31242,1.09876,0.43188,0.88600,-0.29210,0.36012,-0.42503,-0.82207,0.37889,0.18537,-0.48875,-0.85250,2,0.16381,1.12069,0.47420,0.70230,-0.71007,-0.05077,-0.69723,-0.67170,-0.25038,0.14368,0.21124,-0.96682,0,7,0.54900,-0.78692,0.05902,-0.00003,0.00001,-0.00001,-0.00042,1,7,-0.74451,-0.94478,0.00000,3.00004,0.50336,-0.78760,0.78758,2,4,-0.07801,-0.96572,0.04467,0.70182,3,8,-0.00021,-0.00154,-0.00270,-0.00275,0.01342,0.00345,-0.00004,0.54857,4,8,0.00103,-0.10581,-0.08542,0.55622,1.07347,-0.15144,-0.25464,0.538640.00000,-13.88545
,,,1668223944423201,0,0.13038,1.01074,0.33828,-0.92815,0.08105,0.36327,0.04892,0.99410,-0.09682,-0.36898,-0.07209,-0.92664,1,0.31242,1.09876,0.43188,0.88600,-0.29210,0.36012,-0.42503,-0.82207,0.37889,0.18537,-0.48875,-0.85250,2,0.16381,1.12069,0.47420,0.70230,-0.71007,-0.05077,-0.69723,-0.67170,-0.25038,0.14368,0.21124,-0.96682,0,7,0.54900,-0.78692,0.05902,-0.00003,0.00001,-0.00001,-0.00042,1,7,-0.74451,-0.94478,0.00000,3.00004,0.50336,-0.78760,0.78758,2,4,-0.07801,-0.96572,0.04467,0.70182,3,8,-0.00021,-0.00154,-0.00270,-0.00275,0.01342,0.00345,-0.00004,0.54840,4,8,0.00103,-0.10585,-0.08542,0.55620,1.07347,-0.15144,-0.25464,0.539050.00000,-13.88545
,,,1668223944489201,0,0.13038,1.01074,0.33828,-0.92815,0.08105,0.36327,0.04892,0.99410,-0.09682,-0.36898,-0.07209,-0.92664,1,0.31242,1.09876,0.43188,0.88600,-0.29210,0.36012,-0.42503,-0.82207,0.37889,0.18537,-0.48875,-0.85250,2,0.16381,1.12069,0.47420,0.70230,-0.71007,-0.05077,-0.69723,-0.67170,-0.25038,0.14368,0.21124,-0.96682,0,7,0.54900,-0.78692,0.05902,-0.00003,0.00001,-0.00001,-0.00042,1,7,-0.74451,-0.94478,0.00000,3.00004,0.50336,-0.78760,0.78758,2,4,-0.07801,-0.96572,0.04467,0.70182,3,8,-0.00021,-0.00154,-0.00270,-0.00275,0.01342,0.00345,-0.00004,0.54865,4,8,0.00103,-0.10585,-0.08542,0.55620,1.07347,-0.15144,-0.25464,0.538610.00000,-13.88545
,,,1668223944483201,0,0.13038,1.01074,0.33828,-0.92815,0.08105,0.36327,0.04892,0.99410,-0.09682,-0.36898,-0.07209,-0.92664,1,0.31242,1.09876,0.43188,0.88600,-0.29210,0.36012,-0.42503,-0.82207,0.37889,0.18537,-0.48875,-0.85250,2,0.16381,1.12069,0.47420,0.70230,-0.71007,-0.05077,-0.69723,-0.67170,-0.25038,0.14368,0.21124,-0.96682,0,7,0.54900,-0.78692,0.05902,-0.00003,0.00001,-0.00001,-0.00042,1,7,-0.74451,-0.94478,0.00000,3.00004,0.50336,-0.78760,0.78758,2,4,-0.07801,-0.96572,0.04467,0.70182,3,8,-0.00021,-0.00154,-0.00270,-0.00275,0.01342,0.00345,-0.00004,0.54861,4,8,0.00103,-0.10585,-0.08542,0.55620,1.07347,-0.15144,-0.25464,0.538620.00000,-13.88545
,,,1668223944408201,0,0.13038,1.01074,0.33828,-0.92815,0.08105,0.36327,0.04892,0.99410,-0.09682,-0.36898,-0.07209,-0.92664,1,0.31242,1.09876,0.43188,0.88600,-0.29210,0.36012,-0.42503,-0.82207,0.37889,0.18537,-0.48875,-0.85250,2,0.16381,1.12069,0.47420,0.70230,-0.71007,-0.05077,-0.69723,-0.67170,-0.25038,0.14368,0.21124,-0.96682,0,7,0.54900,-0.78692,0.05902,-0.00003,0.00001,-0.00001,-0.00042,1,7,-0.74451,-0.94478,0.00000,3.00004,0.50336,-0.78760,0.78758,2,4,-0.07801,-0.96572,0.04467,0.70182,3,8,-0.00021,-0.00154,-0.00270,-0.00275,0.01342,0.00345,-0.00004,0.54885,4,8,0.00103,-0.10581,-0.08542,0.55622,1.07347,-0.15144,-0.25464,0.538950.00000,-13.88545
,,,1668223944473201,0,0.13038,1.01074,0.33828,-0.92815,0.08105,0.36327,0.04892,0.99410,-0.09682,-0.36898,-0.07209,-0.92664,1,0.31242,1.09876,0.43188,0.88600,-0.29210,0.36012,-0.42503,-0.82207,0.37889,0.18537,-0.48875,-0.85250,2,0.16381,1.12069,0.47420,0.70230,-0.71007,-0.05077,-0.69723,-0.67170,-0.25038,0.14368,0.21124,-0.96682,0,7,0.54900,-0.78692,0.05902,-0.00003,0.00001,-0.00001,-0.00042,1,7,-0.74451,-0.94478,0.00000,3.00004,0.50336,-0.78760,0.78758,2,4,-0.07801,-0.96572,0.04467,0.70182,3,8,-0.00021,-0.00154,-0.00270,-0.00275,0.01342,0.00345,-0.00004,0.54861,4,8,0.00103,-0.10585,-0.08542,0.55620,1.07347,-0.15144,-0.25464,0.538620.00000,-13.88545
28690,17, 0: 0: 0:597,
,,,1668223944689201,0,0.13038,1.01074,0.33828,-0.92815,0.08105,0.36327,0.04892,0.99410,-0.09682,-0.36898,-0.07209,-0.92664,1,0.31242,1.09876,0.43188,0.88600,-0.29210,0.36012,-0.42503,-0.82207,0.37889,0.18537,-0.48875,-0.85250,2,0.16381,1.12069,0.47420,0.70230,-0.71007,-0.05077,-0.69723,-0.67170,-0.25038,0.14368,0.21124,-0.96682,0,7,0.54900,-0.78692,0.05902,-0.00003,0.00001,-0.00001,-0.00042,1,7,-0.74451,-0.94478,0.00000,3.00004,0.50336,-0.78760,0.78758,2,4,-0.07801,-0.96572,0.04467,0.70182,3,8,-0.00021,-0.00154,-0.00270,-0.00275,0.01342,0.00345,-0.00004,0.54859,4,8,0.00103,-0.10581,-0.08542,0.55622,1.07347,-0.15144,-0.25464,0.539090.00000,-13.88545
,,,1668223944540201,0,0.13038,1.01074,0.33828,-0.92815,0.08105,0.36327,0.04892,0.99410,-0.09682,-0.36898,-0.07209,-0.92664,1,0.31242,1.09876,0.43188,0.88600,-0.29210,0.36012,-0.42503,-0.82207,0.37889,0.18537,-0.48875,-0.85250,2,0.16381,1.12069,0.47420,0.70230,-0.71007,-0.05077,-0.69723,-0.67170,-0.25038,0.14368,0.21124,-0.96682,0,7,0.54900,-0.78692,0.05902,-0.00003,0.00001,-0.00001,-0.00042,1,7,-0.74451,-0.94478,0.00000,3.00004,0.50336,-0.78760,0.78758,2,4,-0.07801,-0.96572,0.04467,0.70182,3,8,-0.00021,-0.00154,-0.00270,-0.00275,0.01342,0.00345,-0.00004,0.54852,4,8,0.00103,-0.10585,-0.08542,0.55620,1.07347,-0.15144,-0.25464,0.538850.00000,-13.88545
,,,1668223944609201,0,0.13038,1.01074,0.33828,-0.92815,0.08105,0.36327,0.04892,0.99410,-0.09682,-0.36898,-0.07209,-0.92664,1,0.31242,1.09876,0.43188,0.88600,-0.29210,0.36012,-0.42503,-0.82207,0.37889,0.18537,-0.48875,-0.85250,2,0.16381,1.12069,0.47420,0.70230,-0.71007,-0.05077,-0.69723,-0.67170,-0.25038,0.14368,0.21124,-0.96682,0,7,0.54900,-0.78692,0.05902,-0.00003,0.00001,-0.00001,-0.00042,1,7,-0.74451,-0.94478,0.00000,3.00004,0.50336,-0.78760,0.78758,2,4,-0.07801,-0.96572,0.04467,0.70182,3,8,-0.00021,-0.00154,-0.00270,-0.00275,0.01342,0.00345,-0.00004,0.54856,4,8,0.00103,-0.10581,-0.08542,0.55622,1.07347,-0.15144,-0.25464,0.538810.00000,-13.88545
,,,1668223944672201,0,0.13038,1.01074,0.33828,-0.92815,0.08105,0.36327,0.04892,0.99410,-0.09682,-0.36898,-0.07209,-0.92664,1,0.31242,1.09876,0.43188,0.88600,-0.29210,0.36012,-0.42503,-0.82207,0.37889,0.18537,-0.48875,-0.85250,2,0.16381,1.12069,0.47420,0.70230,-0.71007,-0.05077,-0.69723,-0.67170,-0.25038,0.14368,0.21124,-0.96682,0,7,0.54900,-0.78692,0.05902,-0.00003,0.00001,-0.00001,-0.00042,1,7,-0.74451,-0.94478,0.00000,3.00004,0.50336,-0.78760,0.78758,2,4,-0.07801,-0.96572,0.04467,0.70182,3,8,-0.00021,-0.00154,-0.00270,-0.00275,0.01342,0.00345,-0.00004,0.54843,4,8,0.00103,-0.10585,-0.08542,0.55620,1.07347,-0.15144,-0.25464,0.538870.00000,-13.88545
,,,1668223944589201,0,0.13038,1.01074,0.33828,-0.92815,0.08105,0.36327,0.04892,0.99410,-0.09682,-0.36898,-0.07209,-0.92664,1,0.31242,1.09876,0.43188,0.88600,-0.29210,0.36012,-0.42503,-0.82207,0.37889,0.18537,-0.48875,-0.85250,2,0.16381,1.12069,0.47420,0.70230,-0.71007,-0.05077,-0.69723,-0.67170,-0.25038,0.14368,0.21124,-0.96682,0,7,0.54900,-0.78692,0.05902,-0.00003,0.00001,-0.00001,-0.00042,1,7,-0.74451,-0.94478,0.00000,3.00004,0.50336,-0.78760,0.78758,2,4,-0.07801,-0.96572,0.04467,0.70182,3,8,-0.00021,-0.00154,-0.00270,-0.00275,0.01342,0.00345,-0.00004,0.54872,4,8,0.00103,-0.10585,-0.08542,0.55620,1.07347,-0.15144,-0.25464,0.538760.00000,-13.88545
,,,1668223944659201,0,0.13038,1.01074,0.33828,-0.92815,0.08105,0.36327,0.04892,0.99410,-0.09682,-0.36898,-0.07209,-0.92664,1,0.31242,1.09876,0.43188,0.88600,-0.29210,0.36012,-0.42503,-0.82207,0.37889,0.18537,-0.48875,-0.85250,2,0.16381,1.12069,0.47420,0.70230,-0.71007,-0.05077,-0.69723,-0.67170,-0.25038,0.14368,0.21124,-0.96682,0,7,0.54900,-0.78692,0.05902,-0.00003,0.00001,-0.00001,-0.00042,1,7,-0.74451,-0.94478,0.00000,3.00004,0.50336,-0.78760,0.78758,2,4,-0.07801,-0.96572,0.04467,0.70182,3,8,-0.00021,-0.00154,-0.00270,-0.00275,0.01342,0.00345,-0.00004,0.54863,4,8,0.00103,-0.10581,-0.08542,0.55622,1.07347,-0.15144,-0.25464,0.538540.00000,-13.88545
,,,1668223944572201,0,0.13038,1.01074,0.33828,-0.92815,0.08105,0.36327,0.04892,0.99410,-0.09682,-0.36898,-0.07209,-0.92664,1,0.31242,1.09876,0.43188,0.88600,-0.29210,0.36012,-0.42503,-0.82207,0.37889,0.18537,-0.48875,-0.85250,2,0.16381,1.12069,0.47420,0.70230,-0.71007,-0.05077,-0.69723,-0.67170,-0.25038,0.14368,0.21124,-0.96682,0,7,0.54900,-0.78692,0.05902,-0.00003,0.00001,-0.00001,-0.00042,1,7,-0.74451,-0.94478,0.00000,3.00004,0.50336,-0.78760,0.78758,2,4,-0.07801,-0.96572,0.04467,0.70182,3,8,-0.00021,-0.00154,-0.00270,-0.00275,0.01342,0.00345,-0.00004,0.54860,4,8,0.00103,-0.10585,-0.08542,0.55620,1.07347,-0.15144,-0.25464,0.538800.00000,-13.88545
,,,1668223944640201,0,0.13038,1.01074,0.33828,-0.92815,0.08105,0.36327,0.04892,0.99410,-0.09682,-0.36898,-0.07209,-0.92664,1,0.31242,1.09876,0.43188,0.88600,-0.29210,0.36012,-0.42503,-0.82207,0.37889,0.18537,-0.48875,-0.85250,2,0.16381,1.12069,0.47420,0.70230,-0.71007,-0.05077,-0.69723,-0.67170,-0.25038,0.14368,0.21124,-0.96682,0,7,0.54900,-0.78692,0.05902,-0.00003,0.00001,-0.00001,-0.00042,1,7,-0.74451,-0.94478,0.00000,3.00004,0.50336,-0.78760,0.78758,2,4,-0.07801,-0.96572,0.04467,0.70182,3,8,-0.00021,-0.00154,-0.00270,-0.00275,0.01342,0.00345,-0.00004,0.54865,4,8,0.00103,-0.10581,-0.08542,0.55622,1.07347,-0.15144,-0.25464,0.538980.00000,-13.88545
,,,1668223944557201,0,0.13038,1.01074,0.33828,-0.92815,0.08105,0.36327,0.04892,0.99410,-0.09682,-0.36898,-0.07209,-0.92664,1,0.31242,1.09876,0.43188,0.88600,-0.29210,0.36012,-0.42503,-0.82207,0.37889,0.18537,-0.48875,-0.85250,2,0.16381,1.12069,0.47420,0.70230,-0.71007,-0.05077,-0.69723,-0.67170,-0.25038,0.14368,0.21124,-0.96682,0,7,0.54900,-0.78692,0.05902,-0.00003,0.00001,-0.00001,-0.00042,1,7,-0.74451,-0.94478,0.00000,3.00004,0.50336,-0.78760,0.78758,2,4,-0.07801,-0.96572,0.04467,0.70182,3,8,-0.00021,-0.00154,-0.00270,-0.00275,0.01342,0.00345,-0.00004,0.54872,4,8,0.00103,-0.10581,-0.08542,0.55622,1.07347,-0.15144,-0.25464,0.538890.00000,-13.88545
,,,1668223944621201,0,0.13038,1.01074,0.33828,-0.92815,0.08105,0.36327,0.04892,0.99410,-0.09682,-0.36898,-0.07209,-0.92664,1,0.31242,1.09876,0.43188,0.88600,-0.29210,0.36012,-0.42503,-0.82207,0.37889,0.18537,-0.48875,-0.85250,2,0.16381,1.12069,0.47420,0.70230,-0.71007,-0.05077,-0.69723,-0.67170,-0.25038,0.14368,0.21124,-0.96682,0,7,0.54900,-0.78692,0.05902,-0.00003,0.00001,-0.00001,-0.00042,1,7,-0.74451,-0.94478,0.00000,3.00004,0.50336,-0.78760,0.78758,2,4,-0.07801,-0.96572,0.04467,0.70182,3,8,-0.00021,-0.00154,-0.00270,-0.00275,0.01342,0.00345,-0.00004,0.54839,4,8,0.00103,-0.10585,-0.08542,0.55620,1.07347,-0.15144,-0.25464,0.538960.00000,-13.88545
36370,22, 0: 0: 0:757,
,,,1668223944861201,0,0.13043,1.01072,0.33815,-0.92815,0.08105,0.36327,0.04892,0.99410,-0.09682,-0.36898,-0.07209,-0.92664,1,0.31242,1.09876,0.43188,0.88600,-0.29210,0.36012,-0.42503,-0.82207,0.37889,0.18537,-0.48875,-0.85250,2,0.16381,1.12069,0.47420,0.70230,-0.71007,-0.05077,-0.69723,-0.67170,-0.25038,0.14368,0.21124,-0.96682,0,7,0.54900,-0.78692,0.05916,-0.00003,0.00001,-0.00001,-0.00042,1,7,-0.74451,-0.94478,0.00000,3.00004,0.50336,-0.78760,0.78758,2,4,-0.07801,-0.96572,0.04467,0.70182,3,8,-0.00021,-0.00154,-0.00270,-0.00275,0.01342,0.00345,-0.00004,0.54837,4,8,0.00103,-0.10585,-0.08542,0.55620,1.07347,-0.15144,-0.25464,0.538530.00000,-13.87487
,,,1668223944788201,0,0.13041,1.01073,0.33820,-0.92815,0.08105,0.36327,0.04892,0.99410,-0.09682,-0.36898,-0.07209,-0.92664,1,0.31242,1.09876,0.43188,0.88600,-0.29210,0.36012,-0.42503,-0.82207,0.37889,0.18537,-0.48875,-0.85250,2,0.16381,1.12069,0.47420,0.70230,-0.71007,-0.05077,-0.69723,-0.67170,-0.25038,0.14368,0.21124,-0.96682,0,7,0.54900,-0.78692,0.05911,-0.00003,0.00001,-0.00001,-0.00042,1,7,-0.74451,-0.94478,0.00000,3.00004,0.50336,-0.78760,0.78758,2,4,-0.07801,-0.96572,0.04467,0.70182,3,8,-0.00021,-0.00154,-0.00270,-0.00275,0.01342,0.00345,-0.00004,0.54874,4,8,0.00103,-0.10581,-0.08542,0.55622,1.07347,-0.15144,-0.25464,0.538950.00000,-13.88545
,,,1668223944853201,0,0.13043,1.01072,0.33815,-0.92815,0.08105,0.36327,0.04892,0.99410,-0.09682,-0.36898,-0.07209,-0.92664,1,0.31242,1.09876,0.43188,0.88600,-0.29210,0.36012,-0.42503,-0.82207,0.37889,0.18537,-0.48875,-0.85250,2,0.16381,1.12069,0.47420,0.70230,-0.71007,-0.05077,-0.69723,-0.67170,-0.25038,0.14368,0.21124,-0.96682,0,7,0.54900,-0.78692,0.05916,-0.00003,0.00001,-0.00001,-0.00042,1,7,-0.74451,-0.94478,0.00000,3.00004,0.50336,-0.78760,0.78758,2,4,-0.07801,-0.96572,0.04467,0.70182,3,8,-0.00021,-0.00154,-0.00270,-0.00275,0.01342,0.00345,-0.00004,0.54837,4,8,0.00103,-0.10585,-0.08542,0.55620,1.07347,-0.15144,-0.25464,0.538530.00000,-13.88545
,,,1668223944770201,0,0.13041,1.01073,0.33822,-0.92815,0.08105,0.36327,0.04892,0.99410,-0.09682,-0.36898,-0.07209,-0.92664,1,0.31242,1.09876,0.43188,0.88600,-0.29210,0.36012,-0.42503,-0.82207,0.37889,0.18537,-0.48875,-0.85250,2,0.16381,1.12069,0.47420,0.70230,-0.71007,-0.05077,-0.69723,-0.67170,-0.25038,0.14368,0.21124,-0.96682,0,7,0.54900,-0.78692,0.05909,-0.00003,0.00001,-0.00001,-0.00042,1,7,-0.74451,-0.94478,0.00000,3.00004,0.50336,-0.78760,0.78758,2,4,-0.07801,-0.96572,0.04467,0.70182,3,8,-0.00021,-0.00154,-0.00270,-0.00275,0.01342,0.00345,-0.00004,0.54886,4,8,0.00103,-0.10585,-0.08542,0.55620,1.07347,-0.15144,-0.25464,0.538820.00000,-13.88545
,,,1668223944837201,0,0.13043,1.01073,0.33817,-0.92815,0.08105,0.36327,0.04892,0.99410,-0.09682,-0.36898,-0.07209,-0.92664,1,0.31242,1.09876,0.43188,0.88600,-0.29210,0.36012,-0.42503,-0.82207,0.37889,0.18537,-0.48875,-0.85250,2,0.16381,1.12069,0.47420,0.70230,-0.71007,-0.05077,-0.69723,-0.67170,-0.25038,0.14368,0.21124,-0.96682,0,7,0.54900,-0.78692,0.05914,-0.00003,0.00001,-0.00001,-0.00042,1,7,-0.74451,-0.94478,0.00000,3.00004,0.50336,-0.78760,0.78758,2,4,-0.07801,-0.96572,0.04467,0.70182,3,8,-0.00021,-0.00154,-0.00270,-0.00275,0.01342,0.00345,-0.00004,0.54880,4,8,0.00103,-0.10581,-0.08542,0.55622,1.07347,-0.15144,-0.25464,0.538900.00000,-13.88545
,,,1668223944755201,0,0.13040,1.01073,0.33824,-0.92815,0.08105,0.36327,0.04892,0.99410,-0.09682,-0.36898,-0.07209,-0.92664,1,0.31242,1.09876,0.43188,0.88600,-0.29210,0.36012,-0.42503,-0.82207,0.37889,0.18537,-0.48875,-0.85250,2,0.16381,1.12069,0.47420,0.70230,-0.71007,-0.05077,-0.69723,-0.67170,-0.25038,0.14368,0.21124,-0.96682,0,7,0.54900,-0.78692,0.05906,-0.00003,0.00001,-0.00001,-0.00042,1,7,-0.74451,-0.94478,0.00000,3.00004,0.50336,-0.78760,0.78758,2,4,-0.07801,-0.96572,0.04467,0.70182,3,8,-0.00021,-0.00154,-0.00270,-0.00275,0.01342,0.00345,-0.00004,0.54877,4,8,0.00103,-0.10585,-0.08542,0.55620,1.07347,-0.15144,-0.25464,0.538840.00000,-13.88545
,,,1668223944820201,0,0.13042,1.01073,0.33818,-0.92815,0.08105,0.36327,0.04892,0.99410,-0.09682,-0.36898,-0.07209,-0.92664,1,0.31242,1.09876,0.43188,0.88600,-0.29210,0.36012,-0.42503,-0.82207,0.37889,0.18537,-0.48875,-0.85250,2,0.16381,1.12069,0.47420,0.70230,-0.71007,-0.05077,-0.69723,-0.67170,-0.25038,0.14368,0.21124,-0.96682,0,7,0.54900,-0.78692,0.05913,-0.00003,0.00001,-0.00001,-0.00042,1,7,-0.74451,-0.94478,0.00000,3.00004,0.50336,-0.78760,0.78758,2,4,-0.07801,-0.96572,0.04467,0.70182,3,8,-0.00021,-0.00154,-0.00270,-0.00275,0.01342,0.00345,-0.00004,0.54873,4,8,0.00103,-0.10585,-0.08542,0.55620,1.07347,-0.15144,-0.25464,0.539000.00000,-13.88545
,,,1668223944672201,0,0.13038,1.01074,0.33828,-0.92815,0.08105,0.36327,0.04892,0.99410,-0.09682,-0.36898,-0.07209,-0.92664,1,0.31242,1.09876,0.43188,0.88600,-0.29210,0.36012,-0.42503,-0.82207,0.37889,0.18537,-0.48875,-0.85250,2,0.16381,1.12069,0.47420,0.70230,-0.71007,-0.05077,-0.69723,-0.67170,-0.25038,0.14368,0.21124,-0.96682,0,7,0.54900,-0.78692,0.05902,-0.00003,0.00001,-0.00001,-0.00042,1,7,-0.74451,-0.94478,0.00000,3.00004,0.50336,-0.78760,0.78758,2,4,-0.07801,-0.96572,0.04467,0.70182,3,8,-0.00021,-0.00154,-0.00270,-0.00275,0.01342,0.00345,-0.00004,0.54843,4,8,0.00103,-0.10585,-0.08542,0.55620,1.07347,-0.15144,-0.25464,0.538870.00000,-13.88545
,,,1668223944806201,0,0.13042,1.01073,0.33819,-0.92815,0.08105,0.36327,0.04892,0.99410,-0.09682,-0.36898,-0.07209,-0.92664,1,0.31242,1.09876,0.43188,0.88600,-0.29210,0.36012,-0.42503,-0.82207,0.37889,0.18537,-0.48875,-0.85250,2,0.16381,1.12069,0.47420,0.70230,-0.71007,-0.05077,-0.69723,-0.67170,-0.25038,0.14368,0.21124,-0.96682,0,7,0.54900,-0.78692,0.05912,-0.00003,0.00001,-0.00001,-0.00042,1,7,-0.74451,-0.94478,0.00000,3.00004,0.50336,-0.78760,0.78758,2,4,-0.07801,-0.96572,0.04467,0.70182,3,8,-0.00021,-0.00154,-0.00270,-0.00275,0.01342,0.00345,-0.00004,0.54866,4,8,0.00103,-0.10585,-0.08542,0.55620,1.07347,-0.15144,-0.25464,0.539010.00000,-13.88545
,,,1668223944798201,0,0.13041,1.01073,0.33820,-0.92815,0.08105,0.36327,0.04892,0.99410,-0.09682,-0.36898,-0.07209,-0.92664,1,0.31242,1.09876,0.43188,0.88600,-0.29210,0.36012,-0.42503,-0.82207,0.37889,0.18537,-0.48875,-0.85250,2,0.16381,1.12069,0.47420,0.70230,-0.71007,-0.05077,-0.69723,-0.67170,-0.25038,0.14368,0.21124,-0.96682,0,7,0.54900,-0.78692,0.05911,-0.00003,0.00001,-0.00001,-0.00042,1,7,-0.74451,-0.94478,0.00000,3.00004,0.50336,-0.78760,0.78758,2,4,-0.07801,-0.96572,0.04467,0.70182,3,8,-0.00021,-0.00154,-0.00270,-0.00275,0.01342,0.00345,-0.00004,0.54874,4,8,0.00103,-0.10581,-0.08542,0.55622,1.07347,-0.15144,-0.25464,0.538950.00000,-13.88545
44050,27, 0: 0: 0:917,
,,,1668223945018201,0,0.13091,1.01060,0.33693,-0.92815,0.08105,0.36327,0.04892,0.99410,-0.09682,-0.36898,-0.07209,-0.92664,1,0.31242,1.09876,0.43188,0.88600,-0.29210,0.36012,-0.42503,-0.82207,0.37889,0.18537,-0.48875,-0.85250,2,0.16381,1.12069,0.47420,0.70230,-0.71007,-0.05077,-0.69723,-0.67170,-0.25038,0.14368,0.21124,-0.96682,0,7,0.54900,-0.78692,0.06047,-0.00003,0.00001,-0.00001,-0.00042,1,7,-0.74451,-0.94478,0.00000,3.00004,0.50336,-0.78760,0.78758,2,4,-0.07801,-0.96572,0.04467,0.70182,3,8,-0.00021,-0.00154,-0.00270,-0.00275,0.01342,0.00345,-0.00004,0.54884,4,8,0.00103,-0.10585,-0.08542,0.55620,1.07347,-0.15144,-0.25464,0.538890.00000,-13.85018
,,,1668223944937201,0,0.13055,1.01069,0.33784,-0.92815,0.08105,0.36327,0.04892,0.99410,-0.09682,-0.36898,-0.07209,-0.92664,1,0.31242,1.09876,0.43188,0.88600,-0.29210,0.36012,-0.42503,-0.82207,0.37889,0.18537,-0.48875,-0.85250,2,0.16381,1.12069,0.47420,0.70230,-0.71007,-0.05077,-0.69723,-0.67170,-0.25038,0.14368,0.21124,-0.96682,0,7,0.54900,-0.78692,0.05949,-0.00003,0.00001,-0.00001,-0.00042,1,7,-0.74451,-0.94478,0.00000,3.00004,0.50336,-0.78760,0.78758,2,4,-0.07801,-0.96572,0.04467,0.70182,3,8,-0.00021,-0.00154,-0.00270,-0.00275,0.01342,0.00345,-0.00004,0.54853,4,8,0.00103,-0.10581,-0.08542,0.55622,1.07347,-0.15144,-0.25464,0.538740.00000,-13.87134
,,,1668223945002201,0,0.13081,1.01062,0.33719,-0.92815,0.08105,0.36327,0.04892,0.99410,-0.09682,-0.36898,-0.07209,-0.92664,1,0.31242,1.09876,0.43188,0.88600,-0.29210,0.36012,-0.42503,-0.82207,0.37889,0.18537,-0.48875,-0.85250,2,0.16381,1.12069,0.47420,0.70230,-0.71007,-0.05077,-0.69723,-0.67170,-0.25038,0.14368,0.21124,-0.96682,0,7,0.54900,-0.78692,0.06020,-0.00003,0.00001,-0.00001,-0.00042,1,7,-0.74451,-0.94478,0.00000,3.00004,0.50336,-0.78760,0.78758,2,4,-0.07801,-0.96572,0.04467,0.70182,3,8,-0.00021,-0.00154,-0.00270,-0.00275,0.01342,0.00345,-0.00004,0.54843,4,8,0.00103,-0.10585,-0.08542,0.55620,1.07347,-0.15144,-0.25464,0.538670.00000,-13.85018
,,,1668223944924201,0,0.13051,1.01070,0.33795,-0.92815,0.08105,0.36327,0.04892,0.99410,-0.09682,-0.36898,-0.07209,-0.92664,1,0.31242,1.09876,0.43188,0.88600,-0.29210,0.36012,-0.42503,-0.82207,0.37889,0.18537,-0.48875,-0.85250,2,0.16381,1.12069,0.47420,0.70230,-0.71007,-0.05077,-0.69723,-0.67170,-0.25038,0.14368,0.21124,-0.96682,0,7,0.54900,-0.78692,0.05937,-0.00003,0.00001,-0.00001,-0.00042,1,7,-0.74451,-0.94478,0.00000,3.00004,0.50336,-0.78760,0.78758,2,4,-0.07801,-0.96572,0.04467,0.70182,3,8,-0.00021,-0.00154,-0.00270,-0.00275,0.01342,0.00345,-0.00004,0.54892,4,8,0.00103,-0.10585,-0.08542,0.55620,1.07347,-0.15144,-0.25464,0.538860.00000,-13.87134
,,,1668223944920201,0,0.13051,1.01070,0.33795,-0.92815,0.08105,0.36327,0.04892,0.99410,-0.09682,-0.36898,-0.07209,-0.92664,1,0.31242,1.09876,0.43188,0.88600,-0.29210,0.36012,-0.42503,-0.82207,0.37889,0.18537,-0.48875,-0.85250,2,0.16381,1.12069,0.47420,0.70230,-0.71007,-0.05077,-0.69723,-0.67170,-0.25038,0.14368,0.21124,-0.96682,0,7,0.54900,-0.78692,0.05937,-0.00003,0.00001,-0.00001,-0.00042,1,7,-0.74451,-0.94478,0.00000,3.00004,0.50336,-0.78760,0.78758,2,4,-0.07801,-0.96572,0.04467,0.70182,3,8,-0.00021,-0.00154,-0.00270,-0.00275,0.01342,0.00345,-0.00004,0.54892,4,8,0.00103,-0.10585,-0.08542,0.55620,1.07347,-0.15144,-0.25464,0.538860.00000,-13.87487
,,,1668223944987201,0,0.13072,1.01065,0.33741,-0.92815,0.08105,0.36327,0.04892,0.99410,-0.09682,-0.36898,-0.07209,-0.92664,1,0.31242,1.09876,0.43188,0.88600,-0.29210,0.36012,-0.42503,-0.82207,0.37889,0.18537,-0.48875,-0.85250,2,0.16381,1.12069,0.47420,0.70230,-0.71007,-0.05077,-0.69723,-0.67170,-0.25038,0.14368,0.21124,-0.96682,0,7,0.54900,-0.78692,0.05996,-0.00003,0.00001,-0.00001,-0.00042,1,7,-0.74451,-0.94478,0.00000,3.00004,0.50336,-0.78760,0.78758,2,4,-0.07801,-0.96572,0.04467,0.70182,3,8,-0.00021,-0.00154,-0.00270,-0.00275,0.01342,0.00345,-0.00004,0.54838,4,8,0.00103,-0.10581,-0.08542,0.55622,1.07347,-0.15144,-0.25464,0.539100.00000,-13.85018
,,,1668223944905201,0,0.13048,1.01071,0.33804,-0.92815,0.08105,0.36327,0.04892,0.99410,-0.09682,-0.36898,-0.07209,-0.92664,1,0.31242,1.09876,0.43188,0.88600,-0.29210,0.36012,-0.42503,-0.82207,0.37889,0.18537,-0.48875,-0.85250,2,0.16381,1.12069,0.47420,0.70230,-0.71007,-0.05077,-0.69723,-0.67170,-0.25038,0.14368,0.21124,-0.96682,0,7,0.54900,-0.78692,0.05928,-0.00003,0.00001,-0.00001,-0.00042,1,7,-0.74451,-0.94478,0.00000,3.00004,0.50336,-0.78760,0.78758,2,4,-0.07801,-0.96572,0.04467,0.70182,3,8,-0.00021,-0.00154,-0.00270,-0.00275,0.01342,0.00345,-0.00004,0.54873,4,8,0.00103,-0.10585,-0.08542,0.55620,1.07347,-0.15144,-0.25464,0.539010.00000,-13.87487
,,,1668223944968201,0,0.13066,1.01066,0.33758,-0.92815,0.08105,0.36327,0.04892,0.99410,-0.09682,-0.36898,-0.07209,-0.92664,1,0.31242,1.09876,0.43188,0.88600,-0.29210,0.36012,-0.42503,-0.82207,0.37889,0.18537,-0.48875,-0.85250,2,0.16381,1.12069,0.47420,0.70230,-0.71007,-0.05077,-0.69723,-0.67170,-0.25038,0.14368,0.21124,-0.96682,0,7,0.54900,-0.78692,0.05977,-0.00003,0.00001,-0.00001,-0.00042,1,7,-0.74451,-0.94478,0.00000,3.00004,0.50336,-0.78760,0.78758,2,4,-0.07801,-0.96572,0.04467,0.70182,3,8,-0.00021,-0.00154,-0.00270,-0.00275,0.01342,0.00345,-0.00004,0.54840,4,8,0.00103,-0.10585,-0.08542,0.55620,1.07347,-0.15144,-0.25464,0.538850.00000,-13.87134
,,,1668223944886201,0,0.13046,1.01072,0.33810,-0.92815,0.08105,0.36327,0.04892,0.99410,-0.09682,-0.36898,-0.07209,-0.92664,1,0.31242,1.09876,0.43188,0.88600,-0.29210,0.36012,-0.42503,-0.82207,0.37889,0.18537,-0.48875,-0.85250,2,0.16381,1.12069,0.47420,0.70230,-0.71007,-0.05077,-0.69723,-0.67170,-0.25038,0.14368,0.21124,-0.96682,0,7,0.54900,-0.78692,0.05922,-0.00003,0.00001,-0.00001,-0.00042,1,7,-0.74451,-0.94478,0.00000,3.00004,0.50336,-0.78760,0.78758,2,4,-0.07801,-0.96572,0.04467,0.70182,3,8,-0.00021,-0.00154,-0.00270,-0.00275,0.01342,0.00345,-0.00004,0.54881,4,8,0.00103,-0.10581,-0.08542,0.55622,1.07347,-0.15144,-0.25464,0.538940.00000,-13.87487
,,,1668223944953201,0,0.13060,1.01068,0.33772,-0.92815,0.08105,0.36327,0.04892,0.99410,-0.09682,-0.36898,-0.07209,-0.92664,1,0.31242,1.09876,0.43188,0.88600,-0.29210,0.36012,-0.42503,-0.82207,0.37889,0.18537,-0.48875,-0.85250,2,0.16381,1.12069,0.47420,0.70230,-0.71007,-0.05077,-0.69723,-0.67170,-0.25038,0.14368,0.21124,-0.96682,0,7,0.54900,-0.78692,0.05963,-0.00003,0.00001,-0.00001,-0.00042,1,7,-0.74451,-0.94478,0.00000,3.00004,0.50336,-0.78760,0.78758,2,4,-0.07801,-0.96572,0.04467,0.70182,3,8,-0.00021,-0.00154,-0.00270,-0.00275,0.01342,0.00345,-0.00004,0.54854,4,8,0.00103,-0.10585,-0.08542,0.55620,1.07347,-0.15144,-0.25464,0.538850.00000,-13.87134
51730,32, 0: 0: 1: 77,
,,,1668223945176201,0,0.13188,1.01034,0.33446,-0.92815,0.08105,0.36327,0.04892,0.99410,-0.09682,-0.36898,-0.07209,-0.92664,1,0.31242,1.09876,0.43188,0.88600,-0.29210,0.36012,-0.42503,-0.82207,0.37889,0.18537,-0.48875,-0.85250,2,0.16381,1.12069,0.47420,0.70230,-0.71007,-0.05077,-0.69723,-0.67170,-0.25038,0.14368,0.21124,-0.96682,0,7,0.54900,-0.78692,0.06314,-0.00003,0.00001,-0.00001,-0.00042,1,7,-0.74451,-0.94478,0.00000,3.00004,0.50336,-0.78760,0.78758,2,4,-0.07801,-0.96572,0.04467,0.70182,3,8,-0.00021,-0.00154,-0.00270,-0.00275,0.01342,0.00345,-0.00004,0.54867,4,8,0.00103,-0.10585,-0.08542,0.55620,1.07347,-0.15144,-0.25464,0.539030.00000,-13.57508
,,,1668223945100201,0,0.13142,1.01046,0.33564,-0.92815,0.08105,0.36327,0.04892,0.99410,-0.09682,-0.36898,-0.07209,-0.92664,1,0.31242,1.09876,0.43188,0.88600,-0.29210,0.36012,-0.42503,-0.82207,0.37889,0.18537,-0.48875,-0.85250,2,0.16381,1.12069,0.47420,0.70230,-0.71007,-0.05077,-0.69723,-0.67170,-0.25038,0.14368,0.21124,-0.96682,0,7,0.54900,-0.78692,0.06187,-0.00003,0.00001,-0.00001,-0.00042,1,7,-0.74451,-0.94478,0.00000,3.00004,0.50336,-0.78760,0.78758,2,4,-0.07801,-0.96572,0.04467,0.70182,3,8,-0.00021,-0.00154,-0.00270,-0.00275,0.01342,0.00345,-0.00004,0.54840,4,8,0.00103,-0.10585,-0.08542,0.55620,1.07347,-0.15144,-0.25464,0.538990.00000,-13.78670
,,,1668223945168201,0,0.13188,1.01034,0.33446,-0.92815,0.08105,0.36327,0.04892,0.99410,-0.09682,-0.36898,-0.07209,-0.92664,1,0.31242,1.09876,0.43188,0.88600,-0.29210,0.36012,-0.42503,-0.82207,0.37889,0.18537,-0.48875,-0.85250,2,0.16381,1.12069,0.47420,0.70230,-0.71007,-0.05077,-0.69723,-0.67170,-0.25038,0.14368,0.21124,-0.96682,0,7,0.54900,-0.78692,0.06314,-0.00003,0.00001,-0.00001,-0.00042,1,7,-0.74451,-0.94478,0.00000,3.00004,0.50336,-0.78760,0.78758,2,4,-0.07801,-0.96572,0.04467,0.70182,3,8,-0.00021,-0.00154,-0.00270,-0.00275,0.01342,0.00345,-0.00004,0.54867,4,8,0.00103,-0.10585,-0.08542,0.55620,1.07347,-0.15144,-0.25464,0.539030.00000,-13.67736
,,,1668223945084201,0,0.13131,1.01049,0.33591,-0.92815,0.08105,0.36327,0.04892,0.99410,-0.09682,-0.36898,-0.07209,-0.92664,1,0.31242,1.09876,0.43188,0.88600,-0.29210,0.36012,-0.42503,-0.82207,0.37889,0.18537,-0.48875,-0.85250,2,0.16381,1.12069,0.47420,0.70230,-0.71007,-0.05077,-0.69723,-0.67170,-0.25038,0.14368,0.21124,-0.96682,0,7,0.54900,-0.78692,0.06158,-0.00003,0.00001,-0.00001,-0.00042,1,7,-0.74451,-0.94478,0.00000,3.00004,0.50336,-0.78760,0.78758,2,4,-0.07801,-0.96572,0.04467,0.70182,3,8,-0.00021,-0.00154,-0.00270,-0.00275,0.01342,0.00345,-0.00004,0.54833,4,8,0.00103,-0.10581,-0.08542,0.55622,1.07347,-0.15144,-0.25464,0.538920.00000,-13.78670
,,,1668223945150201,0,0.13177,1.01037,0.33475,-0.92815,0.08105,0.36327,0.04892,0.99410,-0.09682,-0.36898,-0.07209,-0.92664,1,0.31242,1.09876,0.43188,0.88600,-0.29210,0.36012,-0.42503,-0.82207,0.37889,0.18537,-0.48875,-0.85250,2,0.16381,1.12069,0.47420,0.70230,-0.71007,-0.05077,-0.69723,-0.67170,-0.25038,0.14368,0.21124,-0.96682,0,7,0.54900,-0.78692,0.06284,-0.00003,0.00001,-0.00001,-0.00042,1,7,-0.74451,-0.94478,0.00000,3.00004,0.50336,-0.78760,0.78758,2,4,-0.07801,-0.96572,0.04467,0.70182,3,8,-0.00021,-0.00154,-0.00270,-0.00275,0.01342,0.00345,-0.00004,0.54863,4,8,0.00103,-0.10585,-0.08542,0.55620,1.07347,-0.15144,-0.25464,0.538940.00000,-13.67736
,,,1668223945068201,0,0.13121,1.01052,0.33617,-0.92815,0.08105,0.36327,0.04892,0.99410,-0.09682,-0.36898,-0.07209,-0.92664,1,0.31242,1.09876,0.43188,0.88600,-0.29210,0.36012,-0.42503,-0.82207,0.37889,0.18537,-0.48875,-0.85250,2,0.16381,1.12069,0.47420,0.70230,-0.71007,-0.05077,-0.69723,-0.67170,-0.25038,0.14368,0.21124,-0.96682,0,7,0.54900,-0.78692,0.06130,-0.00003,0.00001,-0.00001,-0.00042,1,7,-0.74451,-0.94478,0.00000,3.00004,0.50336,-0.78760,0.78758,2,4,-0.07801,-0.96572,0.04467,0.70182,3,8,-0.00021,-0.00154,-0.00270,-0.00275,0.01342,0.00345,-0.00004,0.54860,4,8,0.00103,-0.10585,-0.08542,0.55620,1.07347,-0.15144,-0.25464,0.538840.00000,-13.78670
,,,1668223945133201,0,0.13165,1.01040,0.33505,-0.92815,0.08105,0.36327,0.04892,0.99410,-0.09682,-0.36898,-0.07209,-0.92664,1,0.31242,1.09876,0.43188,0.88600,-0.29210,0.36012,-0.42503,-0.82207,0.37889,0.18537,-0.48875,-0.85250,2,0.16381,1.12069,0.47420,0.70230,-0.71007,-0.05077,-0.69723,-0.67170,-0.25038,0.14368,0.21124,-0.96682,0,7,0.54900,-0.78692,0.06251,-0.00003,0.00001,-0.00001,-0.00042,1,7,-0.74451,-0.94478,0.00000,3.00004,0.50336,-0.78760,0.78758,2,4,-0.07801,-0.96572,0.04467,0.70182,3,8,-0.00021,-0.00154,-0.00270,-0.00275,0.01342,0.00345,-0.00004,0.54892,4,8,0.00103,-0.10581,-0.08542,0.55622,1.07347,-0.15144,-0.25464,0.538680.00000,-13.67736
,,,1668223944987201,0,0.13072,1.01065,0.33741,-0.92815,0.08105,0.36327,0.04892,0.99410,-0.09682,-0.36898,-0.07209,-0.92664,1,0.31242,1.09876,0.43188,0.88600,-0.29210,0.36012,-0.42503,-0.82207,0.37889,0.18537,-0.48875,-0.85250,2,0.16381,1.12069,0.47420,0.70230,-0.71007,-0.05077,-0.69723,-0.67170,-0.25038,0.14368,0.21124,-0.96682,0,7,0.54900,-0.78692,0.05996,-0.00003,0.00001,-0.00001,-0.00042,1,7,-0.74451,-0.94478,0.00000,3.00004,0.50336,-0.78760,0.78758,2,4,-0.07801,-0.96572,0.04467,0.70182,3,8,-0.00021,-0.00154,-0.00270,-0.00275,0.01342,0.00345,-0.00004,0.54838,4,8,0.00103,-0.10581,-0.08542,0.55622,1.07347,-0.15144,-0.25464,0.539100.00000,-13.85018
,,,1668223945116201,0,0.13153,1.01043,0.33535,-0.92815,0.08105,0.36327,0.04892,0.99410,-0.09682,-0.36898,-0.07209,-0.92664,1,0.31242,1.09876,0.43188,0.88600,-0.29210,0.36012,-0.42503,-0.82207,0.37889,0.18537,-0.48875,-0.85250,2,0.16381,1.12069,0.47420,0.70230,-0.71007,-0.05077,-0.69723,-0.67170,-0.25038,0.14368,0.21124,-0.96682,0,7,0.54900,-0.78692,0.06218,-0.00003,0.00001,-0.00001,-0.00042,1,7,-0.74451,-0.94478,0.00000,3.00004,0.50336,-0.78760,0.78758,2,4,-0.07801,-0.96572,0.04467,0.70182,3,8,-0.00021,-0.00154,-0.00270,-0.00275,0.01342,0.00345,-0.00004,0.54887,4,8,0.00103,-0.10585,-0.08542,0.55620,1.07347,-0.15144,-0.25464,0.539010.00000,-13.67736
,,,1668223945113201,0,0.13142,1.01046,0.33564,-0.92815,0.08105,0.36327,0.04892,0.99410,-0.09682,-0.36898,-0.07209,-0.92664,1,0.31242,1.09876,0.43188,0.88600,-0.29210,0.36012,-0.42503,-0.82207,0.37889,0.18537,-0.48875,-0.85250,2,0.16381,1.12069,0.47420,0.70230,-0.71007,-0.05077,-0.69723,-0.67170,-0.25038,0.14368,0.21124,-0.96682,0,7,0.54900,-0.78692,0.06187,-0.00003,0.00001,-0.00001,-0.00042,1,7,-0.74451,-0.94478,0.00000,3.00004,0.50336,-0.78760,0.78758,2,4,-0.07801,-0.96572,0.04467,0.70182,3,8,-0.00021,-0.00154,-0.00270,-0.00275,0.01342,0.00345,-0.00004,0.54840,4,8,0.00103,-0.10585,-0.08542,0.55620,1.07347,-0.15144,-0.25464,0.538990.00000,-13.67736
59410,37, 0: 0: 1:237,
,,,1668223945332201,0,0.13325,1.00997,0.33096,-0.92814,0.08102,0.36330,0.04888,0.99410,-0.09682,-0.36901,-0.07210,-0.92663,1,0.31242,1.09876,0.43188,0.88600,-0.29210,0.36012,-0.42503,-0.82207,0.37889,0.18537,-0.48875,-0.85250,2,0.16381,1.12069,0.47420,0.70230,-0.71007,-0.05077,-0.69723,-0.67170,-0.25038,0.14368,0.21124,-0.96682,0,7,0.54905,-0.78692,0.06692,-0.00003,0.00001,-0.00001,-0.00042,1,7,-0.74451,-0.94478,0.00000,3.00004,0.50336,-0.78760,0.78758,2,4,-0.07801,-0.96572,0.04467,0.70182,3,8,-0.00021,-0.00154,-0.00270,-0.00275,0.01342,0.00345,-0.00004,0.54873,4,8,0.00103,-0.10581,-0.08542,0.55622,1.07347,-0.15144,-0.25464,0.538850.00000,-13.25060
,,,1668223945249201,0,0.13239,1.01020,0.33317,-0.92815,0.08105,0.36327,0.04892,0.99410,-0.09682,-0.36898,-0.07209,-0.92664,1,0.31242,1.09876,0.43188,0.88600,-0.29210,0.36012,-0.42503,-0.82207,0.37889,0.18537,-0.48875,-0.85250,2,0.16381,1.12069,0.47420,0.70230,-0.71007,-0.05077,-0.69723,-0.67170,-0.25038,0.14368,0.21124,-0.96682,0,7,0.54900,-0.78692,0.06454,-0.00003,0.00001,-0.00001,-0.00042,1,7,-0.74451,-0.94478,0.00000,3.00004,0.50336,-0.78760,0.78758,2,4,-0.07801,-0.96572,0.04467,0.70182,3,8,-0.00021,-0.00154,-0.00270,-0.00275,0.01342,0.00345,-0.00004,0.54850,4,8,0.00103,-0.10585,-0.08542,0.55620,1.07347,-0.15144,-0.25464,0.539000.00000,-13.40579
,,,1668223945315201,0,0.13301,1.01004,0.33158,-0.92814,0.08102,0.36330,0.04889,0.99410,-0.09682,-0.36900,-0.07210,-0.92663,1,0.31242,1.09876,0.43188,0.88600,-0.29210,0.36012,-0.42503,-0.82207,0.37889,0.18537,-0.48875,-0.85250,2,0.16381,1.12069,0.47420,0.70230,-0.71007,-0.05077,-0.69723,-0.67170,-0.25038,0.14368,0.21124,-0.96682,0,7,0.54904,-0.78692,0.06625,-0.00003,0.00001,-0.00001,-0.00042,1,7,-0.74451,-0.94478,0.00000,3.00004,0.50336,-0.78760,0.78758,2,4,-0.07801,-0.96572,0.04467,0.70182,3,8,-0.00021,-0.00154,-0.00270,-0.00275,0.01342,0.00345,-0.00004,0.54885,4,8,0.00103,-0.10581,-0.08542,0.55622,1.07347,-0.15144,-0.25464,0.538830.00000,-13.25060
,,,1668223945168201,0,0.13188,1.01034,0.33446,-0.92815,0.08105,0.36327,0.04892,0.99410,-0.09682,-0.36898,-0.07209,-0.92664,1,0.31242,1.09876,0.43188,0.88600,-0.29210,0.36012,-0.42503,-0.82207,0.37889,0.18537,-0.48875,-0.85250,2,0.16381,1.12069,0.47420,0.70230,-0.71007,-0.05077,-0.69723,-0.67170,-0.25038,0.14368,0.21124,-0.96682,0,7,0.54900,-0.78692,0.06314,-0.00003,0.00001,-0.00001,-0.00042,1,7,-0.74451,-0.94478,0.00000,3.00004,0.50336,-0.78760,0.78758,2,4,-0.07801,-0.96572,0.04467,0.70182,3,8,-0.00021,-0.00154,-0.00270,-0.00275,0.01342,0.00345,-0.00004,0.54867,4,8,0.00103,-0.10585,-0.08542,0.55620,1.07347,-0.15144,-0.25464,0.539030.00000,-13.67736
,,,1668223945304201,0,0.13277,1.01010,0.33219,-0.92815,0.08105,0.36328,0.04891,0.99410,-0.09682,-0.36898,-0.07209,-0.92664,1,0.31242,1.09876,0.43188,0.88600,-0.29210,0.36012,-0.42503,-0.82207,0.37889,0.18537,-0.48875,-0.85250,2,0.16381,1.12069,0.47420,0.70230,-0.71007,-0.05077,-0.69723,-0.67170,-0.25038,0.14368,0.21124,-0.96682,0,7,0.54901,-0.78692,0.06560,-0.00003,0.00001,-0.00001,-0.00042,1,7,-0.74451,-0.94478,0.00000,3.00004,0.50336,-0.78760,0.78758,2,4,-0.07801,-0.96572,0.04467,0.70182,3,8,-0.00021,-0.00154,-0.00270,-0.00275,0.01342,0.00345,-0.00004,0.54883,4,8,0.00103,-0.10585,-0.08542,0.55620,1.07347,-0.15144,-0.25464,0.538900.00000,-13.25060
,,,1668223945300201,0,0.13277,1.01010,0.33219,-0.92815,0.08105,0.36328,0.04891,0.99410,-0.09682,-0.36898,-0.07209,-0.92664,1,0.31242,1.09876,0.43188,0.88600,-0.29210,0.36012,-0.42503,-0.82207,0.37889,0.18537,-0.48875,-0.85250,2,0.16381,1.12069,0.47420,0.70230,-0.71007,-0.05077,-0.69723,-0.67170,-0.25038,0.14368,0.21124,-0.96682,0,7,0.54901,-0.78692,0.06560,-0.00003,0.00001,-0.00001,-0.00042,1,7,-0.74451,-0.94478,0.00000,3.00004,0.50336,-0.78760,0.78758,2,4,-0.07801,-0.96572,0.04467,0.70182,3,8,-0.00021,-0.00154,-0.00270,-0.00275,0.01342,0.00345,-0.00004,0.54883,4,8,0.00103,-0.10585,-0.08542,0.55620,1.07347,-0.15144,-0.25464,0.538900.00000,-13.40579
,,,1668223945217201,0,0.13220,1.01025,0.33363,-0.92815,0.08105,0.36327,0.04892,0.99410,-0.09682,-0.36898,-0.07209,-0.92664,1,0.31242,1.09876,0.43188,0.88600,-0.29210,0.36012,-0.42503,-0.82207,0.37889,0.18537,-0.48875,-0.85250,2,0.16381,1.12069,0.47420,0.70230,-0.71007,-0.05077,-0.69723,-0.67170,-0.25038,0.14368,0.21124,-0.96682,0,7,0.54900,-0.78692,0.06403,-0.00003,0.00001,-0.00001,-0.00042,1,7,-0.74451,-0.94478,0.00000,3.00004,0.50336,-0.78760,0.78758,2,4,-0.07801,-0.96572,0.04467,0.70182,3,8,-0.00021,-0.00154,-0.00270,-0.00275,0.01342,0.00345,-0.00004,0.54846,4,8,0.00103,-0.10585,-0.08542,0.55620,1.07347,-0.15144,-0.25464,0.538830.00000,-13.57508
,,,1668223945282201,0,0.13260,1.01015,0.33261,-0.92815,0.08105,0.36327,0.04892,0.99410,-0.09682,-0.36898,-0.07209,-0.92664,1,0.31242,1.09876,0.43188,0.88600,-0.29210,0.36012,-0.42503,-0.82207,0.37889,0.18537,-0.48875,-0.85250,2,0.16381,1.12069,0.47420,0.70230,-0.71007,-0.05077,-0.69723,-0.67170,-0.25038,0.14368,0.21124,-0.96682,0,7,0.54900,-0.78692,0.06514,-0.00003,0.00001,-0.00001,-0.00042,1,7,-0.74451,-0.94478,0.00000,3.00004,0.50336,-0.78760,0.78758,2,4,-0.07801,-0.96572,0.04467,0.70182,3,8,-0.00021,-0.00154,-0.00270,-0.00275,0.01342,0.00345,-0.00004,0.54854,4,8,0.00103,-0.10581,-0.08542,0.55622,1.07347,-0.15144,-0.25464,0.538660.00000,-13.40579
,,,1668223945200201,0,0.13210,1.01028,0.33389,-0.92815,0.08105,0.36327,0.04892,0.99410,-0.09682,-0.36898,-0.07209,-0.92664,1,0.31242,1.09876,0.43188,0.88600,-0.29210,0.36012,-0.42503,-0.82207,0.37889,0.18537,-0.48875,-0.85250,2,0.16381,1.12069,0.47420,0.70230,-0.71007,-0.05077,-0.69723,-0.67170,-0.25038,0.14368,0.21124,-0.96682,0,7,0.54900,-0.78692,0.06376,-0.00003,0.00001,-0.00001,-0.00042,1,7,-0.74451,-0.94478,0.00000,3.00004,0.50336,-0.78760,0.78758,2,4,-0.07801,-0.96572,0.04467,0.70182,3,8,-0.00021,-0.00154,-0.00270,-0.00275,0.01342,0.00345,-0.00004,0.54841,4,8,0.00103,-0.10585,-0.08542,0.55620,1.07347,-0.15144,-0.25464,0.539020.00000,-13.57508
,,,1668223945267201,0,0.13249,1.01018,0.33291,-0.92815,0.08105,0.36327,0.04892,0.99410,-0.09682,-0.36898,-0.07209,-0.92664,1,0.31242,1.09876,0.43188,0.88600,-0.29210,0.36012,-0.42503,-0.82207,0.37889,0.18537,-0.48875,-0.85250,2,0.16381,1.12069,0.47420,0.70230,-0.71007,-0.05077,-0.69723,-0.67170,-0.25038,0.14368,0.21124,-0.96682,0,7,0.54900,-0.78692,0.06481,-0.00003,0.00001,-0.00001,-0.00042,1,7,-0.74451,-0.94478,0.00000,3.00004,0.50336,-0.78760,0.78758,2,4,-0.07801,-0.96572,0.04467,0.70182,3,8,-0.00021,-0.00154,-0.00270,-0.00275,0.01342,0.00345,-0.00004,0.54848,4,8,0.00103,-0.10585,-0.08542,0.55620,1.07347,-0.15144,-0.25464,0.538990.00000,-13.40579
67090,41, 0: 0: 1:397,
,,,1668223945497201,0,0.13465,1.00960,0.32738,-0.92817,0.08111,0.36322,0.04898,0.99410,-0.09681,-0.36893,-0.07207,-0.92666,1,0.31242,1.09876,0.43188,0.88600,-0.29210,0.36012,-0.42503,-0.82207,0.37889,0.18537,-0.48875,-0.85250,2,0.16381,1.12069,0.47420,0.70230,-0.71007,-0.05077,-0.69723,-0.67170,-0.25038,0.14368,0.21124,-0.96682,0,7,0.54891,-0.78692,0.07079,-0.00003,0.00001,-0.00001,-0.00042,1,7,-0.74451,-0.94478,0.00000,3.00004,0.50336,-0.78760,0.78758,2,4,-0.07801,-0.96572,0.04467,0.70182,3,8,-0.00021,-0.00154,-0.00270,-0.00275,0.01342,0.00345,-0.00004,0.54833,4,8,0.00103,-0.10585,-0.08542,0.55620,1.07347,-0.15144,-0.25464,0.538790.00000,-12.50995
,,,1668223945493201,0,0.13459,1.00962,0.32754,-0.92817,0.08111,0.36322,0.04898,0.99410,-0.09681,-0.36893,-0.07207,-0.92666,1,0.31242,1.09876,0.43188,0.88600,-0.29210,0.36012,-0.42503,-0.82207,0.37889,0.18537,-0.48875,-0.85250,2,0.16381,1.12069,0.47420,0.70230,-0.71007,-0.05077,-0.69723,-0.67170,-0.25038,0.14368,0.21124,-0.96682,0,7,0.54891,-0.78692,0.07061,-0.00003,0.00001,-0.00001,-0.00042,1,7,-0.74451,-0.94478,0.00000,3.00004,0.50336,-0.78760,0.78758,2,4,-0.07801,-0.96572,0.04467,0.70182,3,8,-0.00021,-0.00154,-0.00270,-0.00275,0.01342,0.00345,-0.00004,0.54864,4,8,0.00103,-0.10581,-0.08542,0.55622,1.07347,-0.15144,-0.25464,0.538900.00000,-12.50995
,,,1668223945412201,0,0.13402,1.00977,0.32898,-0.92817,0.08111,0.36322,0.04899,0.99410,-0.09681,-0.36893,-0.07207,-0.92666,1,0.31242,1.09876,0.43188,0.88600,-0.29210,0.36012,-0.42503,-0.82207,0.37889,0.18537,-0.48875,-0.85250,2,0.16381,1.12069,0.47420,0.70230,-0.71007,-0.05077,-0.69723,-0.67170,-0.25038,0.14368,0.21124,-0.96682,0,7,0.54891,-0.78692,0.06905,-0.00003,0.00001,-0.00001,-0.00042,1,7,-0.74451,-0.94478,0.00000,3.00004,0.50336,-0.78760,0.78758,2,4,-0.07801,-0.96572,0.04467,0.70182,3,8,-0.00021,-0.00154,-0.00270,-0.00275,0.01342,0.00345,-0.00004,0.54847,4,8,0.00103,-0.10585,-0.08542,0.55620,1.07347,-0.15144,-0.25464,0.538840.00000,-13.07426
,,,1668223945481201,0,0.13459,1.00962,0.32754,-0.92817,0.08111,0.36322,0.04898,0.99410,-0.09681,-0.36893,-0.07207,-0.92666,1,0.31242,1.09876,0.43188,0.88600,-0.29210,0.36012,-0.42503,-0.82207,0.37889,0.18537,-0.48875,-0.85250,2,0.16381,1.12069,0.47420,0.70230,-0.71007,-0.05077,-0.69723,-0.67170,-0.25038,0.14368,0.21124,-0.96682,0,7,0.54891,-0.78692,0.07061,-0.00003,0.00001,-0.00001,-0.00042,1,7,-0.74451,-0.94478,0.00000,3.00004,0.50336,-0.78760,0.78758,2,4,-0.07801,-0.96572,0.04467,0.70182,3,8,-0.00021,-0.00154,-0.00270,-0.00275,0.01342,0.00345,-0.00004,0.54864,4,8,0.00103,-0.10581,-0.08542,0.55622,1.07347,-0.15144,-0.25464,0.538900.00000,-12.75331
,,,1668223945407201,0,0.13389,1.00980,0.32933,-0.92817,0.08111,0.36322,0.04899,0.99410,-0.09681,-0.36892,-0.07207,-0.92666,1,0.31242,1.09876,0.43188,0.88600,-0.29210,0.36012,-0.42503,-0.82207,0.37889,0.18537,-0.48875,-0.85250,2,0.16381,1.12069,0.47420,0.70230,-0.71007,-0.05077,-0.69723,-0.67170,-0.25038,0.14368,0.21124,-0.96682,0,7,0.54891,-0.78692,0.06868,-0.00003,0.00001,-0.00001,-0.00042,1,7,-0.74451,-0.94478,0.00000,3.00004,0.50336,-0.78760,0.78758,2,4,-0.07801,-0.96572,0.04467,0.70182,3,8,-0.00021,-0.00154,-0.00270,-0.00275,0.01342,0.00345,-0.00004,0.54861,4,8,0.00103,-0.10585,-0.08542,0.55620,1.07347,-0.15144,-0.25464,0.539010.00000,-13.07426
,,,1668223945461201,0,0.13447,1.00965,0.32783,-0.92817,0.08111,0.36322,0.04898,0.99410,-0.09681,-0.36893,-0.07207,-0.92666,1,0.31242,1.09876,0.43188,0.88600,-0.29210,0.36012,-0.42503,-0.82207,0.37889,0.18537,-0.48875,-0.85250,2,0.16381,1.12069,0.47420,0.70230,-0.71007,-0.05077,-0.69723,-0.67170,-0.25038,0.14368,0.21124,-0.96682,0,7,0.54892,-0.78692,0.07030,-0.00003,0.00001,-0.00001,-0.00042,1,7,-0.74451,-0.94478,0.00000,3.00004,0.50336,-0.78760,0.78758,2,4,-0.07801,-0.96572,0.04467,0.70182,3,8,-0.00021,-0.00154,-0.00270,-0.00275,0.01342,0.00345,-0.00004,0.54868,4,8,0.00103,-0.10585,-0.08542,0.55620,1.07347,-0.15144,-0.25464,0.538920.00000,-12.75331
,,,1668223945382201,0,0.13376,1.00984,0.32965,-0.92817,0.08110,0.36322,0.04898,0.99410,-0.09681,-0.36893,-0.07207,-0.92666,1,0.31242,1.09876,0.43188,0.88600,-0.29210,0.36012,-0.42503,-0.82207,0.37889,0.18537,-0.48875,-0.85250,2,0.16381,1.12069,0.47420,0.70230,-0.71007,-0.05077,-0.69723,-0.67170,-0.25038,0.14368,0.21124,-0.96682,0,7,0.54892,-0.78692,0.06833,-0.00003,0.00001,-0.00001,-0.00042,1,7,-0.74451,-0.94478,0.00000,3.00004,0.50336,-0.78760,0.78758,2,4,-0.07801,-0.96572,0.04467,0.70182,3,8,-0.00021,-0.00154,-0.00270,-0.00275,0.01342,0.00345,-0.00004,0.54851,4,8,0.00103,-0.10581,-0.08542,0.55622,1.07347,-0.15144,-0.25464,0.538880.00000,-13.07426
,,,1668223945444201,0,0.13433,1.00969,0.32821,-0.92817,0.08111,0.36322,0.04898,0.99410,-0.09681,-0.36893,-0.07207,-0.92666,1,0.31242,1.09876,0.43188,0.88600,-0.29210,0.36012,-0.42503,-0.82207,0.37889,0.18537,-0.48875,-0.85250,2,0.16381,1.12069,0.47420,0.70230,-0.71007,-0.05077,-0.69723,-0.67170,-0.25038,0.14368,0.21124,-0.96682,0,7,0.54892,-0.78692,0.06989,-0.00003,0.00001,-0.00001,-0.00042,1,7,-0.74451,-0.94478,0.00000,3.00004,0.50336,-0.78760,0.78758,2,4,-0.07801,-0.96572,0.04467,0.70182,3,8,-0.00021,-0.00154,-0.00270,-0.00275,0.01342,0.00345,-0.00004,0.54871,4,8,0.00103,-0.10585,-0.08542,0.55620,1.07347,-0.15144,-0.25464,0.538560.00000,-12.75331
,,,1668223945300201,0,0.13277,1.01010,0.33219,-0.92815,0.08105,0.36328,0.04891,0.99410,-0.09682,-0.36898,-0.07209,-0.92664,1,0.31242,1.09876,0.43188,0.88600,-0.29210,0.36012,-0.42503,-0.82207,0.37889,0.18537,-0.48875,-0.85250,2,0.16381,1.12069,0.47420,0.70230,-0.71007,-0.05077,-0.69723,-0.67170,-0.25038,0.14368,0.21124,-0.96682,0,7,0.54901,-0.78692,0.06560,-0.00003,0.00001,-0.00001,-0.00042,1,7,-0.74451,-0.94478,0.00000,3.00004,0.50336,-0.78760,0.78758,2,4,-0.07801,-0.96572,0.04467,0.70182,3,8,-0.00021,-0.00154,-0.00270,-0.00275,0.01342,0.00345,-0.00004,0.54883,4,8,0.00103,-0.10585,-0.08542,0.55620,1.07347,-0.15144,-0.25464,0.538900.00000,-13.40579
,,,1668223945430201,0,0.13417,1.00973,0.32860,-0.92817,0.08111,0.36322,0.04898,0.99410,-0.09681,-0.36893,-0.07207,-0.92666,1,0.31242,1.09876,0.43188,0.88600,-0.29210,0.36012,-0.42503,-0.82207,0.37889,0.18537,-0.48875,-0.85250,2,0.16381,1.12069,0.47420,0.70230,-0.71007,-0.05077,-0.69723,-0.67170,-0.25038,0.14368,0.21124,-0.96682,0,7,0.54892,-0.78692,0.06947,-0.00003,0.00001,-0.00001,-0.00042,1,7,-0.74451,-0.94478,0.00000,3.00004,0.50336,-0.78760,0.78758,2,4,-0.07801,-0.96572,0.04467,0.70182,3,8,-0.00021,-0.00154,-0.00270,-0.00275,0.01342,0.00345,-0.00004,0.54843,4,8,0.00103,-0.10581,-0.08542,0.55622,1.07347,-0.15144,-0.25464,0.538860.00000,-12.75331
74770,46, 0: 0: 1:557,
,,,1668223945662201,0,0.13536,1.00941,0.32558,-0.92816,0.08110,0.36323,0.04897,0.99410,-0.09681,-0.36893,-0.07207,-0.92666,1,0.31242,1.09876,0.43188,0.88600,-0.29210,0.36012,-0.42503,-0.82207,0.37889,0.18537,-0.48875,-0.85250,2,0.16381,1.12069,0.47420,0.70230,-0.71007,-0.05077,-0.69723,-0.67170,-0.25038,0.14368,0.21124,-0.96682,0,7,0.54893,-0.78692,0.07273,-0.00003,0.00001,-0.00001,-0.00042,1,7,-0.74451,-0.94478,0.00000,3.00004,0.50336,-0.78760,0.78758,2,4,-0.07801,-0.96572,0.04467,0.70182,3,8,-0.00021,-0.00154,-0.00270,-0.00275,0.01342,0.00345,-0.00004,0.54862,4,8,0.00103,-0.10581,-0.08542,0.55622,1.07347,-0.15144,-0.25464,0.539070.00000,-12.19959
,,,1668223945583201,0,0.13489,1.00954,0.32678,-0.92817,0.08111,0.36322,0.04898,0.99410,-0.09681,-0.36893,-0.07207,-0.92666,1,0.31242,1.09876,0.43188,0.88600,-0.29210,0.36012,-0.42503,-0.82207,0.37889,0.18537,-0.48875,-0.85250,2,0.16381,1.12069,0.47420,0.70230,-0.71007,-0.05077,-0.69723,-0.67170,-0.25038,0.14368,0.21124,-0.96682,0,7,0.54892,-0.78692,0.07143,-0.00003,0.00001,-0.00001,-0.00042,1,7,-0.74451,-0.94478,0.00000,3.00004,0.50336,-0.78760,0.78758,2,4,-0.07801,-0.96572,0.04467,0.70182,3,8,-0.00021,-0.00154,-0.00270,-0.00275,0.01342,0.00345,-0.00004,0.54867,4,8,0.00103,-0.10581,-0.08542,0.55622,1.07347,-0.15144,-0.25464,0.538950.00000,-12.26660
,,,1668223945646201,0,0.13519,1.00946,0.32600,-0.92817,0.08111,0.36322,0.04898,0.99410,-0.09681,-0.36893,-0.07207,-0.92666,1,0.31242,1.09876,0.43188,0.88600,-0.29210,0.36012,-0.42503,-0.82207,0.37889,0.18537,-0.48875,-0.85250,2,0.16381,1.12069,0.47420,0.70230,-0.71007,-0.05077,-0.69723,-0.67170,-0.25038,0.14368,0.21124,-0.96682,0,7,0.54892,-0.78692,0.07227,-0.00003,0.00001,-0.00001,-0.00042,1,7,-0.74451,-0.94478,0.00000,3.00004,0.50336,-0.78760,0.78758,2,4,-0.07801,-0.96572,0.04467,0.70182,3,8,-0.00021,-0.00154,-0.00270,-0.00275,0.01342,0.00345,-0.00004,0.54875,4,8,0.00103,-0.10585,-0.08542,0.55620,1.07347,-0.15144,-0.25464,0.538890.00000,-12.19959
,,,1668223945564201,0,0.13483,1.00955,0.32693,-0.92817,0.08111,0.36322,0.04898,0.99410,-0.09681,-0.36893,-0.07207,-0.92666,1,0.31242,1.09876,0.43188,0.88600,-0.29210,0.36012,-0.42503,-0.82207,0.37889,0.18537,-0.48875,-0.85250,2,0.16381,1.12069,0.47420,0.70230,-0.71007,-0.05077,-0.69723,-0.67170,-0.25038,0.14368,0.21124,-0.96682,0,7,0.54892,-0.78692,0.07126,-0.00003,0.00001,-0.00001,-0.00042,1,7,-0.74451,-0.94478,0.00000,3.00004,0.50336,-0.78760,0.78758,2,4,-0.07801,-0.96572,0.04467,0.70182,3,8,-0.00021,-0.00154,-0.00270,-0.00275,0.01342,0.00345,-0.00004,0.54852,4,8,0.00103,-0.10581,-0.08542,0.55622,1.07347,-0.15144,-0.25464,0.538920.00000,-12.26660
,,,1668223945628201,0,0.13509,1.00948,0.32626,-0.92817,0.08111,0.36322,0.04898,0.99410,-0.09681,-0.36893,-0.07207,-0.92666,1,0.31242,1.09876,0.43188,0.88600,-0.29210,0.36012,-0.42503,-0.82207,0.37889,0.18537,-0.48875,-0.85250,2,0.16381,1.12069,0.47420,0.70230,-0.71007,-0.05077,-0.69723,-0.67170,-0.25038,0.14368,0.21124,-0.96682,0,7,0.54892,-0.78692,0.07199,-0.00003,0.00001,-0.00001,-0.00042,1,7,-0.74451,-0.94478,0.00000,3.00004,0.50336,-0.78760,0.78758,2,4,-0.07801,-0.96572,0.04467,0.70182,3,8,-0.00021,-0.00154,-0.00270,-0.00275,0.01342,0.00345,-0.00004,0.54865,4,8,0.00103,-0.10585,-0.08542,0.55620,1.07347,-0.15144,-0.25464,0.538940.00000,-12.19959
,,,1668223945481201,0,0.13459,1.00962,0.32754,-0.92817,0.08111,0.36322,0.04898,0.99410,-0.09681,-0.36893,-0.07207,-0.92666,1,0.31242,1.09876,0.43188,0.88600,-0.29210,0.36012,-0.42503,-0.82207,0.37889,0.18537,-0.48875,-0.85250,2,0.16381,1.12069,0.47420,0.70230,-0.71007,-0.05077,-0.69723,-0.67170,-0.25038,0.14368,0.21124,-0.96682,0,7,0.54891,-0.78692,0.07061,-0.00003,0.00001,-0.00001,-0.00042,1,7,-0.74451,-0.94478,0.00000,3.00004,0.50336,-0.78760,0.78758,2,4,-0.07801,-0.96572,0.04467,0.70182,3,8,-0.00021,-0.00154,-0.00270,-0.00275,0.01342,0.00345,-0.00004,0.54864,4,8,0.00103,-0.10581,-0.08542,0.55622,1.07347,-0.15144,-0.25464,0.538900.00000,-12.75331
,,,1668223945619201,0,0.13501,1.00950,0.32646,-0.92817,0.08111,0.36322,0.04898,0.99410,-0.09681,-0.36893,-0.07207,-0.92666,1,0.31242,1.09876,0.43188,0.88600,-0.29210,0.36012,-0.42503,-0.82207,0.37889,0.18537,-0.48875,-0.85250,2,0.16381,1.12069,0.47420,0.70230,-0.71007,-0.05077,-0.69723,-0.67170,-0.25038,0.14368,0.21124,-0.96682,0,7,0.54892,-0.78692,0.07178,-0.00003,0.00001,-0.00001,-0.00042,1,7,-0.74451,-0.94478,0.00000,3.00004,0.50336,-0.78760,0.78758,2,4,-0.07801,-0.96572,0.04467,0.70182,3,8,-0.00021,-0.00154,-0.00270,-0.00275,0.01342,0.00345,-0.00004,0.54871,4,8,0.00103,-0.10581,-0.08542,0.55622,1.07347,-0.15144,-0.25464,0.538760.00000,-12.19959
,,,1668223945612201,0,0.13501,1.00950,0.32646,-0.92817,0.08111,0.36322,0.04898,0.99410,-0.09681,-0.36893,-0.07207,-0.92666,1,0.31242,1.09876,0.43188,0.88600,-0.29210,0.36012,-0.42503,-0.82207,0.37889,0.18537,-0.48875,-0.85250,2,0.16381,1.12069,0.47420,0.70230,-0.71007,-0.05077,-0.69723,-0.67170,-0.25038,0.14368,0.21124,-0.96682,0,7,0.54892,-0.78692,0.07178,-0.00003,0.00001,-0.00001,-0.00042,1,7,-0.74451,-0.94478,0.00000,3.00004,0.50336,-0.78760,0.78758,2,4,-0.07801,-0.96572,0.04467,0.70182,3,8,-0.00021,-0.00154,-0.00270,-0.00275,0.01342,0.00345,-0.00004,0.54871,4,8,0.00103,-0.10581,-0.08542,0.55622,1.07347,-0.15144,-0.25464,0.538760.00000,-12.26660
,,,1668223945530201,0,0.13473,1.00958,0.32718,-0.92817,0.08111,0.36322,0.04898,0.99410,-0.09681,-0.36893,-0.07207,-0.92666,1,0.31242,1.09876,0.43188,0.88600,-0.29210,0.36012,-0.42503,-0.82207,0.37889,0.18537,-0.48875,-0.85250,2,0.16381,1.12069,0.47420,0.70230,-0.71007,-0.05077,-0.69723,-0.67170,-0.25038,0.14368,0.21124,-0.96682,0,7,0.54892,-0.78692,0.07099,-0.00003,0.00001,-0.00001,-0.00042,1,7,-0.74451,-0.94478,0.00000,3.00004,0.50336,-0.78760,0.78758,2,4,-0.07801,-0.96572,0.04467,0.70182,3,8,-0.00021,-0.00154,-0.00270,-0.00275,0.01342,0.00345,-0.00004,0.54865,4,8,0.00103,-0.10581,-0.08542,0.55622,1.07347,-0.15144,-0.25464,0.538940.00000,-12.50995
,,,1668223945595201,0,0.13494,1.00952,0.32663,-0.92817,0.08111,0.36322,0.04898,0.99410,-0.09681,-0.36893,-0.07207,-0.92666,1,0.31242,1.09876,0.43188,0.88600,-0.29210,0.36012,-0.42503,-0.82207,0.37889,0.18537,-0.48875,-0.85250,2,0.16381,1.12069,0.47420,0.70230,-0.71007,-0.05077,-0.69723,-0.67170,-0.25038,0.14368,0.21124,-0.96682,0,7,0.54892,-0.78692,0.07159,-0.00003,0.00001,-0.00001,-0.00042,1,7,-0.74451,-0.94478,0.00000,3.00004,0.50336,-0.78760,0.78758,2,4,-0.07801,-0.96572,0.04467,0.70182,3,8,-0.00021,-0.00154,-0.00270,-0.00275,0.01342,0.00345,-0.00004,0.54894,4,8,0.00103,-0.10585,-0.08542,0.55620,1.07347,-0.15144,-0.25464,0.538930.00000,-12.26660
82450,51, 0: 0: 1:717,
,,,1668223945812201,0,0.13702,1.00897,0.32134,-0.92816,0.08110,0.36323,0.04897,0.99410,-0.09681,-0.36894,-0.07207,-0.92666,1,0.31242,1.09876,0.43188,0.88600,-0.29210,0.36012,-0.42503,-0.82207,0.37889,0.18537,-0.48875,-0.85250,2,0.16381,1.12069,0.47420,0.70230,-0.71007,-0.05077,-0.69723,-0.67170,-0.25038,0.14368,0.21124,-0.96682,0,7,0.54893,-0.78692,0.07730,-0.00003,0.00001,-0.00001,-0.00042,1,7,-0.74451,-0.94478,0.00000,3.00004,0.50336,-0.78760,0.78758,2,4,-0.07801,-0.96572,0.04467,0.70182,3,8,-0.00021,-0.00154,-0.00270,-0.00275,0.01342,0.00345,-0.00004,0.54862,4,8,0.00103,-0.10581,-0.08542,0.55622,1.07347,-0.15144,-0.25464,0.538960.00000,-11.36723
,,,1668223945809201,0,0.13682,1.00902,0.32185,-0.92816,0.08110,0.36323,0.04898,0.99410,-0.09681,-0.36893,-0.07207,-0.92666,1,0.31242,1.09876,0.43188,0.88600,-0.29210,0.36012,-0.42503,-0.82207,0.37889,0.18537,-0.48875,-0.85250,2,0.16381,1.12069,0.47420,0.70230,-0.71007,-0.05077,-0.69723,-0.67170,-0.25038,0.14368,0.21124,-0.96682,0,7,0.54893,-0.78692,0.07675,-0.00003,0.00001,-0.00001,-0.00042,1,7,-0.74451,-0.94478,0.00000,3.00004,0.50336,-0.78760,0.78758,2,4,-0.07801,-0.96572,0.04467,0.70182,3,8,-0.00021,-0.00154,-0.00270,-0.00275,0.01342,0.00345,-0.00004,0.54851,4,8,0.00103,-0.10585,-0.08542,0.55620,1.07347,-0.15144,-0.25464,0.538740.00000,-11.36723
,,,1668223945730201,0,0.13611,1.00921,0.32365,-0.92816,0.08110,0.36323,0.04898,0.99410,-0.09681,-0.36893,-0.07207,-0.92666,1,0.31242,1.09876,0.43188,0.88600,-0.29210,0.36012,-0.42503,-0.82207,0.37889,0.18537,-0.48875,-0.85250,2,0.16381,1.12069,0.47420,0.70230,-0.71007,-0.05077,-0.69723,-0.67170,-0.25038,0.14368,0.21124,-0.96682,0,7,0.54893,-0.78692,0.07481,-0.00003,0.00001,-0.00001,-0.00042,1,7,-0.74451,-0.94478,0.00000,3.00004,0.50336,-0.78760,0.78758,2,4,-0.07801,-0.96572,0.04467,0.70182,3,8,-0.00021,-0.00154,-0.00270,-0.00275,0.01342,0.00345,-0.00004,0.54850,4,8,0.00103,-0.10585,-0.08542,0.55620,1.07347,-0.15144,-0.25464,0.538570.00000,-12.07967
,,,1668223945793201,0,0.13682,1.00902,0.32185,-0.92816,0.08110,0.36323,0.04898,0.99410,-0.09681,-0.36893,-0.07207,-0.92666,1,0.31242,1.09876,0.43188,0.88600,-0.29210,0.36012,-0.42503,-0.82207,0.37889,0.18537,-0.48875,-0.85250,2,0.16381,1.12069,0.47420,0.70230,-0.71007,-0.05077,-0.69723,-0.67170,-0.25038,0.14368,0.21124,-0.96682,0,7,0.54893,-0.78692,0.07675,-0.00003,0.00001,-0.00001,-0.00042,1,7,-0.74451,-0.94478,0.00000,3.00004,0.50336,-0.78760,0.78758,2,4,-0.07801,-0.96572,0.04467,0.70182,3,8,-0.00021,-0.00154,-0.00270,-0.00275,0.01342,0.00345,-0.00004,0.54851,4,8,0.00103,-0.10585,-0.08542,0.55620,1.07347,-0.15144,-0.25464,0.538740.00000,-11.82221
,,,1668223945713201,0,0.13593,1.00926,0.32413,-0.92816,0.08110,0.36323,0.04897,0.99410,-0.09681,-0.36893,-0.07207,-0.92666,1,0.31242,1.09876,0.43188,0.88600,-0.29210,0.36012,-0.42503,-0.82207,0.37889,0.18537,-0.48875,-0.85250,2,0.16381,1.12069,0.47420,0.70230,-0.71007,-0.05077,-0.69723,-0.67170,-0.25038,0.14368,0.21124,-0.96682,0,7,0.54893,-0.78692,0.07429,-0.00003,0.00001,-0.00001,-0.00042,1,7,-0.74451,-0.94478,0.00000,3.00004,0.50336,-0.78760,0.78758,2,4,-0.07801,-0.96572,0.04467,0.70182,3,8,-0.00021,-0.00154,-0.00270,-0.00275,0.01342,0.00345,-0.00004,0.54845,4,8,0.00103,-0.10581,-0.08542,0.55622,1.07347,-0.15144,-0.25464,0.538830.00000,-12.07967
,,,1668223945779201,0,0.13665,1.00907,0.32228,-0.92816,0.08110,0.36323,0.04898,0.99410,-0.09681,-0.36893,-0.07207,-0.92666,1,0.31242,1.09876,0.43188,0.88600,-0.29210,0.36012,-0.42503,-0.82207,0.37889,0.18537,-0.48875,-0.85250,2,0.16381,1.12069,0.47420,0.70230,-0.71007,-0.05077,-0.69723,-0.67170,-0.25038,0.14368,0.21124,-0.96682,0,7,0.54893,-0.78692,0.07628,-0.00003,0.00001,-0.00001,-0.00042,1,7,-0.74451,-0.94478,0.00000,3.00004,0.50336,-0.78760,0.78758,2,4,-0.07801,-0.96572,0.04467,0.70182,3,8,-0.00021,-0.00154,-0.00270,-0.00275,0.01342,0.00345,-0.00004,0.54883,4,8,0.00103,-0.10585,-0.08542,0.55620,1.07347,-0.15144,-0.25464,0.538920.00000,-11.82221
,,,1668223945697201,0,0.13571,1.00932,0.32468,-0.92816,0.08110,0.36323,0.04897,0.99410,-0.09681,-0.36893,-0.07207,-0.92666,1,0.31242,1.09876,0.43188,0.88600,-0.29210,0.36012,-0.42503,-0.82207,0.37889,0.18537,-0.48875,-0.85250,2,0.16381,1.12069,0.47420,0.70230,-0.71007,-0.05077,-0.69723,-0.67170,-0.25038,0.14368,0.21124,-0.96682,0,7,0.54893,-0.78692,0.07369,-0.00003,0.00001,-0.00001,-0.00042,1,7,-0.74451,-0.94478,0.00000,3.00004,0.50336,-0.78760,0.78758,2,4,-0.07801,-0.96572,0.04467,0.70182,3,8,-0.00021,-0.00154,-0.00270,-0.00275,0.01342,0.00345,-0.00004,0.54883,4,8,0.00103,-0.10585,-0.08542,0.55620,1.07347,-0.15144,-0.25464,0.538880.00000,-12.07967
,,,1668223945761201,0,0.13648,1.00911,0.32272,-0.92816,0.08110,0.36323,0.04898,0.99410,-0.09681,-0.36893,-0.07207,-0.92666,1,0.31242,1.09876,0.43188,0.88600,-0.29210,0.36012,-0.42503,-0.82207,0.37889,0.18537,-0.48875,-0.85250,2,0.16381,1.12069,0.47420,0.70230,-0.71007,-0.05077,-0.69723,-0.67170,-0.25038,0.14368,0.21124,-0.96682,0,7,0.54893,-0.78692,0.07582,-0.00003,0.00001,-0.00001,-0.00042,1,7,-0.74451,-0.94478,0.00000,3.00004,0.50336,-0.78760,0.78758,2,4,-0.07801,-0.96572,0.04467,0.70182,3,8,-0.00021,-0.00154,-0.00270,-0.00275,0.01342,0.00345,-0.00004,0.54879,4,8,0.00103,-0.10581,-0.08542,0.55622,1.07347,-0.15144,-0.25464,0.538870.00000,-11.82221
,,,1668223945683201,0,0.13553,1.00937,0.32515,-0.92816,0.08110,0.36323,0.04898,0.99410,-0.09681,-0.36893,-0.07207,-0.92666,1,0.31242,1.09876,0.43188,0.88600,-0.29210,0.36012,-0.42503,-0.82207,0.37889,0.18537,-0.48875,-0.85250,2,0.16381,1.12069,0.47420,0.70230,-0.71007,-0.05077,-0.69723,-0.67170,-0.25038,0.14368,0.21124,-0.96682,0,7,0.54893,-0.78692,0.07319,-0.00003,0.00001,-0.00001,-0.00042,1,7,-0.74451,-0.94478,0.00000,3.00004,0.50336,-0.78760,0.78758,2,4,-0.07801,-0.96572,0.04467,0.70182,3,8,-0.00021,-0.00154,-0.00270,-0.00275,0.01342,0.00345,-0.00004,0.54868,4,8,0.00103,-0.10585,-0.08542,0.55620,1.07347,-0.15144,-0.25464,0.538730.00000,-12.07967
,,,1668223945678201,0,0.13553,1.00937,0.32515,-0.92816,0.08110,0.36323,0.04898,0.99410,-0.09681,-0.36893,-0.07207,-0.92666,1,0.31242,1.09876,0.43188,0.88600,-0.29210,0.36012,-0.42503,-0.82207,0.37889,0.18537,-0.48875,-0.85250,2,0.16381,1.12069,0.47420,0.70230,-0.71007,-0.05077,-0.69723,-0.67170,-0.25038,0.14368,0.21124,-0.96682,0,7,0.54893,-0.78692,0.07319,-0.00003,0.00001,-0.00001,-0.00042,1,7,-0.74451,-0.94478,0.00000,3.00004,0.50336,-0.78760,0.78758,2,4,-0.07801,-0.96572,0.04467,0.70182,3,8,-0.00021,-0.00154,-0.00270,-0.00275,0.01342,0.00345,-0.00004,0.54868,4,8,0.00103,-0.10585,-0.08542,0.55620,1.07347,-0.15144,-0.25464,0.538730.00000,-12.19959
90130,56, 0: 0: 1:877,
,,,1668223945978201,0,0.13808,1.00869,0.31863,-0.92816,0.08110,0.36323,0.04897,0.99410,-0.09681,-0.36893,-0.07207,-0.92666,1,0.31242,1.09876,0.43188,0.88600,-0.29210,0.36012,-0.42503,-0.82207,0.37889,0.18537,-0.48875,-0.85250,2,0.16381,1.12069,0.47420,0.70230,-0.71007,-0.05077,-0.69723,-0.67170,-0.25038,0.14368,0.21124,-0.96682,0,7,0.54893,-0.78692,0.08022,-0.00003,0.00001,-0.00001,-0.00042,1,7,-0.74451,-0.94478,0.00000,3.00004,0.50336,-0.78760,0.78758,2,4,-0.07801,-0.96572,0.04467,0.70182,3,8,-0.00021,-0.00154,-0.00270,-0.00275,0.01342,0.00345,-0.00004,0.54865,4,8,0.00103,-0.10585,-0.08542,0.55620,1.07347,-0.15144,-0.25464,0.538800.00000,-10.53841
,,,1668223945892201,0,0.13777,1.00877,0.31942,-0.92816,0.08110,0.36323,0.04898,0.99410,-0.09681,-0.36893,-0.07207,-0.92666,1,0.31242,1.09876,0.43188,0.88600,-0.29210,0.36012,-0.42503,-0.82207,0.37889,0.18537,-0.48875,-0.85250,2,0.16381,1.12069,0.47420,0.70230,-0.71007,-0.05077,-0.69723,-0.67170,-0.25038,0.14368,0.21124,-0.96682,0,7,0.54893,-0.78692,0.07937,-0.00003,0.00001,-0.00001,-0.00042,1,7,-0.74451,-0.94478,0.00000,3.00004,0.50336,-0.78760,0.78758,2,4,-0.07801,-0.96572,0.04467,0.70182,3,8,-0.00021,-0.00154,-0.00270,-0.00275,0.01342,0.00345,-0.00004,0.54842,4,8,0.00103,-0.10585,-0.08542,0.55620,1.07347,-0.15144,-0.25464,0.538750.00000,-11.06745
,,,1668223945961201,0,0.13805,1.00869,0.31870,-0.92816,0.08110,0.36323,0.04897,0.99410,-0.09681,-0.36893,-0.07207,-0.92666,1,0.31242,1.09876,0.43188,0.88600,-0.29210,0.36012,-0.42503,-0.82207,0.37889,0.18537,-0.48875,-0.85250,2,0.16381,1.12069,0.47420,0.70230,-0.71007,-0.05077,-0.69723,-0.67170,-0.25038,0.14368,0.21124,-0.96682,0,7,0.54893,-0.78692,0.08014,-0.00003,0.00001,-0.00001,-0.00042,1,7,-0.74451,-0.94478,0.00000,3.00004,0.50336,-0.78760,0.78758,2,4,-0.07801,-0.96572,0.04467,0.70182,3,8,-0.00021,-0.00154,-0.00270,-0.00275,0.01342,0.00345,-0.00004,0.54870,4,8,0.00103,-0.10581,-0.08542,0.55622,1.07347,-0.15144,-0.25464,0.538860.00000,-10.53841
,,,1668223945878201,0,0.13768,1.00879,0.31965,-0.92816,0.08110,0.36323,0.04898,0.99410,-0.09681,-0.36893,-0.07207,-0.92666,1,0.31242,1.09876,0.43188,0.88600,-0.29210,0.36012,-0.42503,-0.82207,0.37889,0.18537,-0.48875,-0.85250,2,0.16381,1.12069,0.47420,0.70230,-0.71007,-0.05077,-0.69723,-0.67170,-0.25038,0.14368,0.21124,-0.96682,0,7,0.54893,-0.78692,0.07913,-0.00003,0.00001,-0.00001,-0.00042,1,7,-0.74451,-0.94478,0.00000,3.00004,0.50336,-0.78760,0.78758,2,4,-0.07801,-0.96572,0.04467,0.70182,3,8,-0.00021,-0.00154,-0.00270,-0.00275,0.01342,0.00345,-0.00004,0.54845,4,8,0.00103,-0.10585,-0.08542,0.55620,1.07347,-0.15144,-0.25464,0.538780.00000,-11.06745
,,,1668223945942201,0,0.13800,1.00871,0.31884,-0.92816,0.08110,0.36323,0.04897,0.99410,-0.09681,-0.36893,-0.07207,-0.92666,1,0.31242,1.09876,0.43188,0.88600,-0.29210,0.36012,-0.42503,-0.82207,0.37889,0.18537,-0.48875,-0.85250,2,0.16381,1.12069,0.47420,0.70230,-0.71007,-0.05077,-0.69723,-0.67170,-0.25038,0.14368,0.21124,-0.96682,0,7,0.54893,-0.78692,0.08000,-0.00003,0.00001,-0.00001,-0.00042,1,7,-0.74451,-0.94478,0.00000,3.00004,0.50336,-0.78760,0.78758,2,4,-0.07801,-0.96572,0.04467,0.70182,3,8,-0.00021,-0.00154,-0.00270,-0.00275,0.01342,0.00345,-0.00004,0.54876,4,8,0.00103,-0.10585,-0.08542,0.55620,1.07347,-0.15144,-0.25464,0.538910.00000,-10.53841
,,,1668223945793201,0,0.13682,1.00902,0.32185,-0.92816,0.08110,0.36323,0.04898,0.99410,-0.09681,-0.36893,-0.07207,-0.92666,1,0.31242,1.09876,0.43188,0.88600,-0.29210,0.36012,-0.42503,-0.82207,0.37889,0.18537,-0.48875,-0.85250,2,0.16381,1.12069,0.47420,0.70230,-0.71007,-0.05077,-0.69723,-0.67170,-0.25038,0.14368,0.21124,-0.96682,0,7,0.54893,-0.78692,0.07675,-0.00003,0.00001,-0.00001,-0.00042,1,7,-0.74451,-0.94478,0.00000,3.00004,0.50336,-0.78760,0.78758,2,4,-0.07801,-0.96572,0.04467,0.70182,3,8,-0.00021,-0.00154,-0.00270,-0.00275,0.01342,0.00345,-0.00004,0.54851,4,8,0.00103,-0.10585,-0.08542,0.55620,1.07347,-0.15144,-0.25464,0.538740.00000,-11.82221
,,,1668223945935201,0,0.13793,1.00873,0.31902,-0.92816,0.08110,0.36323,0.04897,0.99410,-0.09681,-0.36893,-0.07207,-0.92666,1,0.31242,1.09876,0.43188,0.88600,-0.29210,0.36012,-0.42503,-0.82207,0.37889,0.18537,-0.48875,-0.85250,2,0.16381,1.12069,0.47420,0.70230,-0.71007,-0.05077,-0.69723,-0.67170,-0.25038,0.14368,0.21124,-0.96682,0,7,0.54893,-0.78692,0.07980,-0.00003,0.00001,-0.00001,-0.00042,1,7,-0.74451,-0.94478,0.00000,3.00004,0.50336,-0.78760,0.78758,2,4,-0.07801,-0.96572,0.04467,0.70182,3,8,-0.00021,-0.00154,-0.00270,-0.00275,0.01342,0.00345,-0.00004,0.54852,4,8,0.00103,-0.10585,-0.08542,0.55620,1.07347,-0.15144,-0.25464,0.538870.00000,-10.53841
,,,1668223945930201,0,0.13793,1.00873,0.31902,-0.92816,0.08110,0.36323,0.04897,0.99410,-0.09681,-0.36893,-0.07207,-0.92666,1,0.31242,1.09876,0.43188,0.88600,-0.29210,0.36012,-0.42503,-0.82207,0.37889,0.18537,-0.48875,-0.85250,2,0.16381,1.12069,0.47420,0.70230,-0.71007,-0.05077,-0.69723,-0.67170,-0.25038,0.14368,0.21124,-0.96682,0,7,0.54893,-0.78692,0.07980,-0.00003,0.00001,-0.00001,-0.00042,1,7,-0.74451,-0.94478,0.00000,3.00004,0.50336,-0.78760,0.78758,2,4,-0.07801,-0.96572,0.04467,0.70182,3,8,-0.00021,-0.00154,-0.00270,-0.00275,0.01342,0.00345,-0.00004,0.54852,4,8,0.00103,-0.10585,-0.08542,0.55620,1.07347,-0.15144,-0.25464,0.538870.00000,-11.06745
,,,1668223945844201,0,0.13741,1.00886,0.32034,-0.92816,0.08110,0.36323,0.04898,0.99410,-0.09681,-0.36893,-0.07207,-0.92666,1,0.31242,1.09876,0.43188,0.88600,-0.29210,0.36012,-0.42503,-0.82207,0.37889,0.18537,-0.48875,-0.85250,2,0.16381,1.12069,0.47420,0.70230,-0.71007,-0.05077,-0.69723,-0.67170,-0.25038,0.14368,0.21124,-0.96682,0,7,0.54893,-0.78692,0.07838,-0.00003,0.00001,-0.00001,-0.00042,1,7,-0.74451,-0.94478,0.00000,3.00004,0.50336,-0.78760,0.78758,2,4,-0.07801,-0.96572,0.04467,0.70182,3,8,-0.00021,-0.00154,-0.00270,-0.00275,0.01342,0.00345,-0.00004,0.54883,4,8,0.00103,-0.10585,-0.08542,0.55620,1.07347,-0.15144,-0.25464,0.538780.00000,-11.36723
,,,1668223945910201,0,0.13785,1.00875,0.31922,-0.92816,0.08110,0.36323,0.04897,0.99410,-0.09681,-0.36893,-0.07207,-0.92666,1,0.31242,1.09876,0.43188,0.88600,-0.29210,0.36012,-0.42503,-0.82207,0.37889,0.18537,-0.48875,-0.85250,2,0.16381,1.12069,0.47420,0.70230,-0.71007,-0.05077,-0.69723,-0.67170,-0.25038,0.14368,0.21124,-0.96682,0,7,0.54893,-0.78692,0.07959,-0.00003,0.00001,-0.00001,-0.00042,1,7,-0.74451,-0.94478,0.00000,3.00004,0.50336,-0.78760,0.78758,2,4,-0.07801,-0.96572,0.04467,0.70182,3,8,-0.00021,-0.00154,-0.00270,-0.00275,0.01342,0.00345,-0.00004,0.54856,4,8,0.00103,-0.10581,-0.08542,0.55622,1.07347,-0.15144,-0.25464,0.538830.00000,-11.06745
97810,61, 0: 0: 2: 37,
,,,1668223946126201,0,0.13840,1.00860,0.31782,-0.92816,0.08110,0.36323,0.04897,0.99410,-0.09681,-0.36893,-0.07207,-0.92666,1,0.31242,1.09876,0.43188,0.88600,-0.29210,0.36012,-0.42503,-0.82207,0.37889,0.18537,-0.48875,-0.85250,2,0.16381,1.12069,0.47420,0.70230,-0.71007,-0.05077,-0.69723,-0.67170,-0.25038,0.14368,0.21124,-0.96682,0,7,0.54893,-0.78692,0.08110,-0.00003,0.00001,-0.00001,-0.00042,1,7,-0.74451,-0.94478,0.00000,3.00004,0.50336,-0.78760,0.78758,2,4,-0.07801,-0.96572,0.04467,0.70182,3,8,-0.00021,-0.00154,-0.00270,-0.00275,0.01342,0.00345,-0.00004,0.54872,4,8,0.00103,-0.10585,-0.08542,0.55620,1.07347,-0.15144,-0.25464,0.538740.00000,-10.10813
,,,1668223946041201,0,0.13813,1.00867,0.31851,-0.92816,0.08110,0.36323,0.04897,0.99410,-0.09681,-0.36893,-0.07207,-0.92666,1,0.31242,1.09876,0.43188,0.88600,-0.29210,0.36012,-0.42503,-0.82207,0.37889,0.18537,-0.48875,-0.85250,2,0.16381,1.12069,0.47420,0.70230,-0.71007,-0.05077,-0.69723,-0.67170,-0.25038,0.14368,0.21124,-0.96682,0,7,0.54893,-0.78692,0.08036,-0.00003,0.00001,-0.00001,-0.00042,1,7,-0.74451,-0.94478,0.00000,3.00004,0.50336,-0.78760,0.78758,2,4,-0.07801,-0.96572,0.04467,0.70182,3,8,-0.00021,-0.00154,-0.00270,-0.00275,0.01342,0.00345,-0.00004,0.54833,4,8,0.00103,-0.10585,-0.08542,0.55620,1.07347,-0.15144,-0.25464,0.539020.00000,-10.29505
,,,1668223946108201,0,0.13832,1.00862,0.31801,-0.92816,0.08110,0.36323,0.04897,0.99410,-0.09681,-0.36893,-0.07207,-0.92666,1,0.31242,1.09876,0.43188,0.88600,-0.29210,0.36012,-0.42503,-0.82207,0.37889,0.18537,-0.48875,-0.85250,2,0.16381,1.12069,0.47420,0.70230,-0.71007,-0.05077,-0.69723,-0.67170,-0.25038,0.14368,0.21124,-0.96682,0,7,0.54893,-0.78692,0.08089,-0.00003,0.00001,-0.00001,-0.00042,1,7,-0.74451,-0.94478,0.00000,3.00004,0.50336,-0.78760,0.78758,2,4,-0.07801,-0.96572,0.04467,0.70182,3,8,-0.00021,-0.00154,-0.00270,-0.00275,0.01342,0.00345,-0.00004,0.54867,4,8,0.00103,-0.10581,-0.08542,0.55622,1.07347,-0.15144,-0.25464,0.538920.00000,-10.16103
,,,1668223946027201,0,0.13811,1.00868,0.31856,-0.92816,0.08110,0.36323,0.04897,0.99410,-0.09681,-0.36893,-0.07207,-0.92666,1,0.31242,1.09876,0.43188,0.88600,-0.29210,0.36012,-0.42503,-0.82207,0.37889,0.18537,-0.48875,-0.85250,2,0.16381,1.12069,0.47420,0.70230,-0.71007,-0.05077,-0.69723,-0.67170,-0.25038,0.14368,0.21124,-0.96682,0,7,0.54893,-0.78692,0.08030,-0.00003,0.00001,-0.00001,-0.00042,1,7,-0.74451,-0.94478,0.00000,3.00004,0.50336,-0.78760,0.78758,2,4,-0.07801,-0.96572,0.04467,0.70182,3,8,-0.00021,-0.00154,-0.00270,-0.00275,0.01342,0.00345,-0.00004,0.54866,4,8,0.00103,-0.10585,-0.08542,0.55620,1.07347,-0.15144,-0.25464,0.538950.00000,-10.29505
,,,1668223946092201,0,0.13826,1.00864,0.31819,-0.92816,0.08110,0.36323,0.04897,0.99410,-0.09681,-0.36893,-0.07207,-0.92666,1,0.31242,1.09876,0.43188,0.88600,-0.29210,0.36012,-0.42503,-0.82207,0.37889,0.18537,-0.48875,-0.85250,2,0.16381,1.12069,0.47420,0.70230,-0.71007,-0.05077,-0.69723,-0.67170,-0.25038,0.14368,0.21124,-0.96682,0,7,0.54893,-0.78692,0.08070,-0.00003,0.00001,-0.00001,-0.00042,1,7,-0.74451,-0.94478,0.00000,3.00004,0.50336,-0.78760,0.78758,2,4,-0.07801,-0.96572,0.04467,0.70182,3,8,-0.00021,-0.00154,-0.00270,-0.00275,0.01342,0.00345,-0.00004,0.54875,4,8,0.00103,-0.10585,-0.08542,0.55620,1.07347,-0.15144,-0.25464,0.538580.00000,-10.16103
,,,1668223946008201,0,0.13810,1.00868,0.31859,-0.92816,0.08110,0.36323,0.04897,0.99410,-0.09681,-0.36893,-0.07207,-0.92666,1,0.31242,1.09876,0.43188,0.88600,-0.29210,0.36012,-0.42503,-0.82207,0.37889,0.18537,-0.48875,-0.85250,2,0.16381,1.12069,0.47420,0.70230,-0.71007,-0.05077,-0.69723,-0.67170,-0.25038,0.14368,0.21124,-0.96682,0,7,0.54893,-0.78692,0.08027,-0.00003,0.00001,-0.00001,-0.00042,1,7,-0.74451,-0.94478,0.00000,3.00004,0.50336,-0.78760,0.78758,2,4,-0.07801,-0.96572,0.04467,0.70182,3,8,-0.00021,-0.00154,-0.00270,-0.00275,0.01342,0.00345,-0.00004,0.54844,4,8,0.00103,-0.10581,-0.08542,0.55622,1.07347,-0.15144,-0.25464,0.538920.00000,-10.29505
,,,1668223946075201,0,0.13820,1.00866,0.31834,-0.92816,0.08110,0.36323,0.04897,0.99410,-0.09681,-0.36893,-0.07207,-0.92666,1,0.31242,1.09876,0.43188,0.88600,-0.29210,0.36012,-0.42503,-0.82207,0.37889,0.18537,-0.48875,-0.85250,2,0.16381,1.12069,0.47420,0.70230,-0.71007,-0.05077,-0.69723,-0.67170,-0.25038,0.14368,0.21124,-0.96682,0,7,0.54893,-0.78692,0.08054,-0.00003,0.00001,-0.00001,-0.00042,1,7,-0.74451,-0.94478,0.00000,3.00004,0.50336,-0.78760,0.78758,2,4,-0.07801,-0.96572,0.04467,0.70182,3,8,-0.00021,-0.00154,-0.00270,-0.00275,0.01342,0.00345,-0.00004,0.54869,4,8,0.00103,-0.10585,-0.08542,0.55620,1.07347,-0.15144,-0.25464,0.538600.00000,-10.16103
,,,1668223945930201,0,0.13793,1.00873,0.31902,-0.92816,0.08110,0.36323,0.04897,0.99410,-0.09681,-0.36893,-0.07207,-0.92666,1,0.31242,1.09876,0.43188,0.88600,-0.29210,0.36012,-0.42503,-0.82207,0.37889,0.18537,-0.48875,-0.85250,2,0.16381,1.12069,0.47420,0.70230,-0.71007,-0.05077,-0.69723,-0.67170,-0.25038,0.14368,0.21124,-0.96682,0,7,0.54893,-0.78692,0.07980,-0.00003,0.00001,-0.00001,-0.00042,1,7,-0.74451,-0.94478,0.00000,3.00004,0.50336,-0.78760,0.78758,2,4,-0.07801,-0.96572,0.04467,0.70182,3,8,-0.00021,-0.00154,-0.00270,-0.00275,0.01342,0.00345,-0.00004,0.54852,4,8,0.00103,-0.10585,-0.08542,0.55620,1.07347,-0.15144,-0.25464,0.538870.00000,-11.06745
,,,1668223946063201,0,0.13815,1.00867,0.31846,-0.92816,0.08110,0.36323,0.04897,0.99410,-0.09681,-0.36893,-0.07207,-0.92666,1,0.31242,1.09876,0.43188,0.88600,-0.29210,0.36012,-0.42503,-0.82207,0.37889,0.18537,-0.48875,-0.85250,2,0.16381,1.12069,0.47420,0.70230,-0.71007,-0.05077,-0.69723,-0.67170,-0.25038,0.14368,0.21124,-0.96682,0,7,0.54893,-0.78692,0.08041,-0.00003,0.00001,-0.00001,-0.00042,1,7,-0.74451,-0.94478,0.00000,3.00004,0.50336,-0.78760,0.78758,2,4,-0.07801,-0.96572,0.04467,0.70182,3,8,-0.00021,-0.00154,-0.00270,-0.00275,0.01342,0.00345,-0.00004,0.54847,4,8,0.00103,-0.10581,-0.08542,0.55622,1.07347,-0.15144,-0.25464,0.538630.00000,-10.16103
,,,1668223946058201,0,0.13815,1.00867,0.31846,-0.92816,0.08110,0.36323,0.04897,0.99410,-0.09681,-0.36893,-0.07207,-0.92666,1,0.31242,1.09876,0.43188,0.88600,-0.29210,0.36012,-0.42503,-0.82207,0.37889,0.18537,-0.48875,-0.85250,2,0.16381,1.12069,0.47420,0.70230,-0.71007,-0.05077,-0.69723,-0.67170,-0.25038,0.14368,0.21124,-0.96682,0,7,0.54893,-0.78692,0.08041,-0.00003,0.00001,-0.00001,-0.00042,1,7,-0.74451,-0.94478,0.00000,3.00004,0.50336,-0.78760,0.78758,2,4,-0.07801,-0.96572,0.04467,0.70182,3,8,-0.00021,-0.00154,-0.00270,-0.00275,0.01342,0.00345,-0.00004,0.54847,4,8,0.00103,-0.10581,-0.08542,0.55622,1.07347,-0.15144,-0.25464,0.538630.00000,-10.29505
105490,65, 0: 0: 2:197,
,,,1668223946289201,0,0.13951,1.00831,0.31500,-0.92816,0.08110,0.36323,0.04897,0.99410,-0.09681,-0.36893,-0.07207,-0.92666,1,0.31242,1.09876,0.43188,0.88600,-0.29210,0.36012,-0.42503,-0.82207,0.37889,0.18537,-0.48875,-0.85250,2,0.16381,1.12069,0.47420,0.70230,-0.71007,-0.05077,-0.69723,-0.67170,-0.25038,0.14368,0.21124,-0.96682,0,7,0.54893,-0.78692,0.08414,-0.00003,0.00001,-0.00001,-0.00042,1,7,-0.74451,-0.94478,0.00000,3.00004,0.50336,-0.78760,0.78758,2,4,-0.07801,-0.96572,0.04467,0.70182,3,8,-0.00021,-0.00154,-0.00270,-0.00275,0.01342,0.00345,-0.00004,0.54865,4,8,0.00103,-0.10585,-0.08542,0.55620,1.07347,-0.15144,-0.25464,0.538850.00000,-9.60731
,,,1668223946209201,0,0.13898,1.00844,0.31633,-0.92816,0.08110,0.36323,0.04897,0.99410,-0.09681,-0.36893,-0.07207,-0.92666,1,0.31242,1.09876,0.43188,0.88600,-0.29210,0.36012,-0.42503,-0.82207,0.37889,0.18537,-0.48875,-0.85250,2,0.16381,1.12069,0.47420,0.70230,-0.71007,-0.05077,-0.69723,-0.67170,-0.25038,0.14368,0.21124,-0.96682,0,7,0.54893,-0.78692,0.08271,-0.00003,0.00001,-0.00001,-0.00042,1,7,-0.74451,-0.94478,0.00000,3.00004,0.50336,-0.78760,0.78758,2,4,-0.07801,-0.96572,0.04467,0.70182,3,8,-0.00021,-0.00154,-0.00270,-0.00275,0.01342,0.00345,-0.00004,0.54843,4,8,0.00103,-0.10581,-0.08542,0.55622,1.07347,-0.15144,-0.25464,0.538370.00000,-9.92120
,,,1668223946270201,0,0.13944,1.00832,0.31515,-0.92816,0.08110,0.36323,0.04897,0.99410,-0.09681,-0.36893,-0.07207,-0.92666,1,0.31242,1.09876,0.43188,0.88600,-0.29210,0.36012,-0.42503,-0.82207,0.37889,0.18537,-0.48875,-0.85250,2,0.16381,1.12069,0.47420,0.70230,-0.71007,-0.05077,-0.69723,-0.67170,-0.25038,0.14368,0.21124,-0.96682,0,7,0.54893,-0.78692,0.08398,-0.00003,0.00001,-0.00001,-0.00042,1,7,-0.74451,-0.94478,0.00000,3.00004,0.50336,-0.78760,0.78758,2,4,-0.07801,-0.96572,0.04467,0.70182,3,8,-0.00021,-0.00154,-0.00270,-0.00275,0.01342,0.00345,-0.00004,0.54857,4,8,0.00103,-0.10585,-0.08542,0.55620,1.07347,-0.15144,-0.25464,0.538770.00000,-9.60731
,,,1668223946126201,0,0.13840,1.00860,0.31782,-0.92816,0.08110,0.36323,0.04897,0.99410,-0.09681,-0.36893,-0.07207,-0.92666,1,0.31242,1.09876,0.43188,0.88600,-0.29210,0.36012,-0.42503,-0.82207,0.37889,0.18537,-0.48875,-0.85250,2,0.16381,1.12069,0.47420,0.70230,-0.71007,-0.05077,-0.69723,-0.67170,-0.25038,0.14368,0.21124,-0.96682,0,7,0.54893,-0.78692,0.08110,-0.00003,0.00001,-0.00001,-0.00042,1,7,-0.74451,-0.94478,0.00000,3.00004,0.50336,-0.78760,0.78758,2,4,-0.07801,-0.96572,0.04467,0.70182,3,8,-0.00021,-0.00154,-0.00270,-0.00275,0.01342,0.00345,-0.00004,0.54872,4,8,0.00103,-0.10585,-0.08542,0.55620,1.07347,-0.15144,-0.25464,0.538740.00000,-10.10813
,,,1668223946252201,0,0.13936,1.00835,0.31537,-0.92816,0.08110,0.36323,0.04897,0.99410,-0.09681,-0.36893,-0.07207,-0.92666,1,0.31242,1.09876,0.43188,0.88600,-0.29210,0.36012,-0.42503,-0.82207,0.37889,0.18537,-0.48875,-0.85250,2,0.16381,1.12069,0.47420,0.70230,-0.71007,-0.05077,-0.69723,-0.67170,-0.25038,0.14368,0.21124,-0.96682,0,7,0.54893,-0.78692,0.08374,-0.00003,0.00001,-0.00001,-0.00042,1,7,-0.74451,-0.94478,0.00000,3.00004,0.50336,-0.78760,0.78758,2,4,-0.07801,-0.96572,0.04467,0.70182,3,8,-0.00021,-0.00154,-0.00270,-0.00275,0.01342,0.00345,-0.00004,0.54819,4,8,0.00103,-0.10581,-0.08542,0.55622,1.07347,-0.15144,-0.25464,0.538830.00000,-9.60731
,,,1668223946249201,0,0.13936,1.00835,0.31537,-0.92816,0.08110,0.36323,0.04897,0.99410,-0.09681,-0.36893,-0.07207,-0.92666,1,0.31242,1.09876,0.43188,0.88600,-0.29210,0.36012,-0.42503,-0.82207,0.37889,0.18537,-0.48875,-0.85250,2,0.16381,1.12069,0.47420,0.70230,-0.71007,-0.05077,-0.69723,-0.67170,-0.25038,0.14368,0.21124,-0.96682,0,7,0.54893,-0.78692,0.08374,-0.00003,0.00001,-0.00001,-0.00042,1,7,-0.74451,-0.94478,0.00000,3.00004,0.50336,-0.78760,0.78758,2,4,-0.07801,-0.96572,0.04467,0.70182,3,8,-0.00021,-0.00154,-0.00270,-0.00275,0.01342,0.00345,-0.00004,0.54819,4,8,0.00103,-0.10581,-0.08542,0.55622,1.07347,-0.15144,-0.25464,0.538830.00000,-9.92120
,,,1668223946174201,0,0.13876,1.00851,0.31691,-0.92816,0.08110,0.36323,0.04897,0.99410,-0.09681,-0.36893,-0.07207,-0.92666,1,0.31242,1.09876,0.43188,0.88600,-0.29210,0.36012,-0.42503,-0.82207,0.37889,0.18537,-0.48875,-0.85250,2,0.16381,1.12069,0.47420,0.70230,-0.71007,-0.05077,-0.69723,-0.67170,-0.25038,0.14368,0.21124,-0.96682,0,7,0.54893,-0.78692,0.08209,-0.00003,0.00001,-0.00001,-0.00042,1,7,-0.74451,-0.94478,0.00000,3.00004,0.50336,-0.78760,0.78758,2,4,-0.07801,-0.96572,0.04467,0.70182,3,8,-0.00021,-0.00154,-0.00270,-0.00275,0.01342,0.00345,-0.00004,0.54861,4,8,0.00103,-0.10585,-0.08542,0.55620,1.07347,-0.15144,-0.25464,0.538820.00000,-10.10813
,,,1668223946239201,0,0.13925,1.00837,0.31565,-0.92816,0.08110,0.36323,0.04897,0.99410,-0.09681,-0.36893,-0.07207,-0.92666,1,0.31242,1.09876,0.43188,0.88600,-0.29210,0.36012,-0.42503,-0.82207,0.37889,0.18537,-0.48875,-0.85250,2,0.16381,1.12069,0.47420,0.70230,-0.71007,-0.05077,-0.69723,-0.67170,-0.25038,0.14368,0.21124,-0.96682,0,7,0.54893,-0.78692,0.08344,-0.00003,0.00001,-0.00001,-0.00042,1,7,-0.74451,-0.94478,0.00000,3.00004,0.50336,-0.78760,0.78758,2,4,-0.07801,-0.96572,0.04467,0.70182,3,8,-0.00021,-0.00154,-0.00270,-0.00275,0.01342,0.00345,-0.00004,0.54858,4,8,0.00103,-0.10585,-0.08542,0.55620,1.07347,-0.15144,-0.25464,0.538890.00000,-9.92120
,,,1668223946156201,0,0.13864,1.00854,0.31721,-0.92816,0.08110,0.36323,0.04897,0.99410,-0.09681,-0.36893,-0.07207,-0.92666,1,0.31242,1.09876,0.43188,0.88600,-0.29210,0.36012,-0.42503,-0.82207,0.37889,0.18537,-0.48875,-0.85250,2,0.16381,1.12069,0.47420,0.70230,-0.71007,-0.05077,-0.69723,-0.67170,-0.25038,0.14368,0.21124,-0.96682,0,7,0.54893,-0.78692,0.08176,-0.00003,0.00001,-0.00001,-0.00042,1,7,-0.74451,-0.94478,0.00000,3.00004,0.50336,-0.78760,0.78758,2,4,-0.07801,-0.96572,0.04467,0.70182,3,8,-0.00021,-0.00154,-0.00270,-0.00275,0.01342,0.00345,-0.00004,0.54864,4,8,0.00103,-0.10581,-0.08542,0.55622,1.07347,-0.15144,-0.25464,0.538910.00000,-10.10813
,,,1668223946232201,0,0.13912,1.00841,0.31597,-0.92816,0.08110,0.36323,0.04897,0.99410,-0.09681,-0.36894,-0.07207,-0.92666,1,0.31242,1.09876,0.43188,0.88600,-0.29210,0.36012,-0.42503,-0.82207,0.37889,0.18537,-0.48875,-0.85250,2,0.16381,1.12069,0.47420,0.70230,-0.71007,-0.05077,-0.69723,-0.67170,-0.25038,0.14368,0.21124,-0.96682,0,7,0.54893,-0.78692,0.08309,-0.00003,0.00001,-0.00001,-0.00042,1,7,-0.74451,-0.94478,0.00000,3.00004,0.50336,-0.78760,0.78758,2,4,-0.07801,-0.96572,0.04467,0.70182,3,8,-0.00021,-0.00154,-0.00270,-0.00275,0.01342,0.00345,-0.00004,0.54824,4,8,0.00103,-0.10585,-0.08542,0.55620,1.07347,-0.15144,-0.25464,0.539030.00000,-9.92120
113170,70, 0: 0: 2:357,
,,,1668223946453201,0,0.14008,1.00815,0.31354,-0.92816,0.08110,0.36323,0.04897,0.99410,-0.09681,-0.36893,-0.07207,-0.92666,1,0.31242,1.09876,0.43188,0.88600,-0.29210,0.36012,-0.42503,-0.82207,0.37889,0.18537,-0.48875,-0.85250,2,0.16381,1.12069,0.47420,0.70230,-0.71007,-0.05077,-0.69723,-0.67170,-0.25038,0.14368,0.21124,-0.96682,0,7,0.54893,-0.78692,0.08571,-0.00003,0.00001,-0.00001,-0.00042,1,7,-0.74451,-0.94478,0.00000,3.00004,0.50336,-0.78760,0.78758,2,4,-0.07801,-0.96572,0.04467,0.70182,3,8,-0.00021,-0.00154,-0.00270,-0.00275,0.01342,0.00345,-0.00004,0.54895,4,8,0.00103,-0.10585,-0.08542,0.55620,1.07347,-0.15144,-0.25464,0.538870.00000,-8.66915
,,,1668223946378201,0,0.13979,1.00823,0.31426,-0.92816,0.08110,0.36323,0.04897,0.99410,-0.09681,-0.36893,-0.07207,-0.92666,1,0.31242,1.09876,0.43188,0.88600,-0.29210,0.36012,-0.42503,-0.82207,0.37889,0.18537,-0.48875,-0.85250,2,0.16381,1.12069,0.47420,0.70230,-0.71007,-0.05077,-0.69723,-0.67170,-0.25038,0.14368,0.21124,-0.96682,0,7,0.54893,-0.78692,0.08494,-0.00003,0.00001,-0.00001,-0.00042,1,7,-0.74451,-0.94478,0.00000,3.00004,0.50336,-0.78760,0.78758,2,4,-0.07801,-0.96572,0.04467,0.70182,3,8,-0.00021,-0.00154,-0.00270,-0.00275,0.01342,0.00345,-0.00004,0.54836,4,8,0.00103,-0.10585,-0.08542,0.55620,1.07347,-0.15144,-0.25464,0.538900.00000,-8.88429
,,,1668223946441201,0,0.14002,1.00817,0.31369,-0.92816,0.08110,0.36323,0.04897,0.99410,-0.09681,-0.36893,-0.07207,-0.92666,1,0.31242,1.09876,0.43188,0.88600,-0.29210,0.36012,-0.42503,-0.82207,0.37889,0.18537,-0.48875,-0.85250,2,0.16381,1.12069,0.47420,0.70230,-0.71007,-0.05077,-0.69723,-0.67170,-0.25038,0.14368,0.21124,-0.96682,0,7,0.54893,-0.78692,0.08556,-0.00003,0.00001,-0.00001,-0.00042,1,7,-0.74451,-0.94478,0.00000,3.00004,0.50336,-0.78760,0.78758,2,4,-0.07801,-0.96572,0.04467,0.70182,3,8,-0.00021,-0.00154,-0.00270,-0.00275,0.01342,0.00345,-0.00004,0.54859,4,8,0.00103,-0.10581,-0.08542,0.55622,1.07347,-0.15144,-0.25464,0.538910.00000,-8.66915
,,,1668223946437201,0,0.14002,1.00817,0.31369,-0.92816,0.08110,0.36323,0.04897,0.99410,-0.09681,-0.36893,-0.07207,-0.92666,1,0.31242,1.09876,0.43188,0.88600,-0.29210,0.36012,-0.42503,-0.82207,0.37889,0.18537,-0.48875,-0.85250,2,0.16381,1.12069,0.47420,0.70230,-0.71007,-0.05077,-0.69723,-0.67170,-0.25038,0.14368,0.21124,-0.96682,0,7,0.54893,-0.78692,0.08556,-0.00003,0.00001,-0.00001,-0.00042,1,7,-0.74451,-0.94478,0.00000,3.00004,0.50336,-0.78760,0.78758,2,4,-0.07801,-0.96572,0.04467,0.70182,3,8,-0.00021,-0.00154,-0.00270,-0.00275,0.01342,0.00345,-0.00004,0.54859,4,8,0.00103,-0.10581,-0.08542,0.55622,1.07347,-0.15144,-0.25464,0.538910.00000,-8.88429
,,,1668223946356201,0,0.13973,1.00825,0.31443,-0.92816,0.08110,0.36323,0.04897,0.99410,-0.09681,-0.36893,-0.07207,-0.92666,1,0.31242,1.09876,0.43188,0.88600,-0.29210,0.36012,-0.42503,-0.82207,0.37889,0.18537,-0.48875,-0.85250,2,0.16381,1.12069,0.47420,0.70230,-0.71007,-0.05077,-0.69723,-0.67170,-0.25038,0.14368,0.21124,-0.96682,0,7,0.54893,-0.78692,0.08475,-0.00003,0.00001,-0.00001,-0.00042,1,7,-0.74451,-0.94478,0.00000,3.00004,0.50336,-0.78760,0.78758,2,4,-0.07801,-0.96572,0.04467,0.70182,3,8,-0.00021,-0.00154,-0.00270,-0.00275,0.01342,0.00345,-0.00004,0.54854,4,8,0.00103,-0.10581,-0.08542,0.55622,1.07347,-0.15144,-0.25464,0.538910.00000,-9.07474
,,,1668223946421201,0,0.13996,1.00818,0.31384,-0.92816,0.08110,0.36323,0.04897,0.99410,-0.09681,-0.36893,-0.07207,-0.92666,1,0.31242,1.09876,0.43188,0.88600,-0.29210,0.36012,-0.42503,-0.82207,0.37889,0.18537,-0.48875,-0.85250,2,0.16381,1.12069,0.47420,0.70230,-0.71007,-0.05077,-0.69723,-0.67170,-0.25038,0.14368,0.21124,-0.96682,0,7,0.54893,-0.78692,0.08540,-0.00003,0.00001,-0.00001,-0.00042,1,7,-0.74451,-0.94478,0.00000,3.00004,0.50336,-0.78760,0.78758,2,4,-0.07801,-0.96572,0.04467,0.70182,3,8,-0.00021,-0.00154,-0.00270,-0.00275,0.01342,0.00345,-0.00004,0.54849,4,8,0.00103,-0.10585,-0.08542,0.55620,1.07347,-0.15144,-0.25464,0.538780.00000,-8.88429
,,,1668223946340201,0,0.13966,1.00827,0.31461,-0.92816,0.08110,0.36323,0.04897,0.99410,-0.09681,-0.36893,-0.07207,-0.92666,1,0.31242,1.09876,0.43188,0.88600,-0.29210,0.36012,-0.42503,-0.82207,0.37889,0.18537,-0.48875,-0.85250,2,0.16381,1.12069,0.47420,0.70230,-0.71007,-0.05077,-0.69723,-0.67170,-0.25038,0.14368,0.21124,-0.96682,0,7,0.54893,-0.78692,0.08457,-0.00003,0.00001,-0.00001,-0.00042,1,7,-0.74451,-0.94478,0.00000,3.00004,0.50336,-0.78760,0.78758,2,4,-0.07801,-0.96572,0.04467,0.70182,3,8,-0.00021,-0.00154,-0.00270,-0.00275,0.01342,0.00345,-0.00004,0.54839,4,8,0.00103,-0.10581,-0.08542,0.55622,1.07347,-0.15144,-0.25464,0.538780.00000,-9.07474
,,,1668223946404201,0,0.13990,1.00820,0.31398,-0.92816,0.08110,0.36323,0.04897,0.99410,-0.09681,-0.36893,-0.07207,-0.92666,1,0.31242,1.09876,0.43188,0.88600,-0.29210,0.36012,-0.42503,-0.82207,0.37889,0.18537,-0.48875,-0.85250,2,0.16381,1.12069,0.47420,0.70230,-0.71007,-0.05077,-0.69723,-0.67170,-0.25038,0.14368,0.21124,-0.96682,0,7,0.54893,-0.78692,0.08524,-0.00003,0.00001,-0.00001,-0.00042,1,7,-0.74451,-0.94478,0.00000,3.00004,0.50336,-0.78760,0.78758,2,4,-0.07801,-0.96572,0.04467,0.70182,3,8,-0.00021,-0.00154,-0.00270,-0.00275,0.01342,0.00345,-0.00004,0.54854,4,8,0.00103,-0.10585,-0.08542,0.55620,1.07347,-0.15144,-0.25464,0.539160.00000,-8.88429
,,,1668223946321201,0,0.13960,1.00828,0.31476,-0.92816,0.08110,0.36323,0.04897,0.99410,-0.09681,-0.36893,-0.07207,-0.92666,1,0.31242,1.09876,0.43188,0.88600,-0.29210,0.36012,-0.42503,-0.82207,0.37889,0.18537,-0.48875,-0.85250,2,0.16381,1.12069,0.47420,0.70230,-0.71007,-0.05077,-0.69723,-0.67170,-0.25038,0.14368,0.21124,-0.96682,0,7,0.54893,-0.78692,0.08441,-0.00003,0.00001,-0.00001,-0.00042,1,7,-0.74451,-0.94478,0.00000,3.00004,0.50336,-0.78760,0.78758,2,4,-0.07801,-0.96572,0.04467,0.70182,3,8,-0.00021,-0.00154,-0.00270,-0.00275,0.01342,0.00345,-0.00004,0.54842,4,8,0.00103,-0.10585,-0.08542,0.55620,1.07347,-0.15144,-0.25464,0.538960.00000,-9.07474
,,,1668223946388201,0,0.13985,1.00821,0.31412,-0.92816,0.08110,0.36323,0.04897,0.99410,-0.09681,-0.36893,-0.07207,-0.92666,1,0.31242,1.09876,0.43188,0.88600,-0.29210,0.36012,-0.42503,-0.82207,0.37889,0.18537,-0.48875,-0.85250,2,0.16381,1.12069,0.47420,0.70230,-0.71007,-0.05077,-0.69723,-0.67170,-0.25038,0.14368,0.21124,-0.96682,0,7,0.54893,-0.78692,0.08509,-0.00003,0.00001,-0.00001,-0.00042,1,7,-0.74451,-0.94478,0.00000,3.00004,0.50336,-0.78760,0.78758,2,4,-0.07801,-0.96572,0.04467,0.70182,3,8,-0.00021,-0.00154,-0.00270,-0.00275,0.01342,0.00345,-0.00004,0.54853,4,8,0.00103,-0.10581,-0.08542,0.55622,1.07347,-0.15144,-0.25464,0.538820.00000,-8.88429
120850,75, 0: 0: 2:517,
,,,1668223946602201,0,0.14062,1.00801,0.31215,-0.92816,0.08110,0.36323,0.04897,0.99410,-0.09681,-0.36893,-0.07207,-0.92666,1,0.31242,1.09876,0.43188,0.88600,-0.29210,0.36012,-0.42503,-0.82207,0.37889,0.18537,-0.48875,-0.85250,2,0.16381,1.12069,0.47420,0.70230,-0.71007,-0.05077,-0.69723,-0.67170,-0.25038,0.14368,0.21124,-0.96682,0,7,0.54893,-0.78692,0.08722,-0.00003,0.00001,-0.00001,-0.00042,1,7,-0.74451,-0.94478,0.00000,3.00004,0.50336,-0.78760,0.78758,2,4,-0.07801,-0.96572,0.04467,0.70182,3,8,-0.00021,-0.00154,-0.00270,-0.00275,0.01342,0.00345,-0.00004,0.54873,4,8,0.00103,-0.10585,-0.08542,0.55620,1.07347,-0.15144,-0.25464,0.538710.00000,-8.16480
,,,1668223946523201,0,0.14034,1.00808,0.31286,-0.92816,0.08110,0.36323,0.04897,0.99410,-0.09681,-0.36893,-0.07207,-0.92666,1,0.31242,1.09876,0.43188,0.88600,-0.29210,0.36012,-0.42503,-0.82207,0.37889,0.18537,-0.48875,-0.85250,2,0.16381,1.12069,0.47420,0.70230,-0.71007,-0.05077,-0.69723,-0.67170,-0.25038,0.14368,0.21124,-0.96682,0,7,0.54893,-0.78692,0.08646,-0.00003,0.00001,-0.00001,-0.00042,1,7,-0.74451,-0.94478,0.00000,3.00004,0.50336,-0.78760,0.78758,2,4,-0.07801,-0.96572,0.04467,0.70182,3,8,-0.00021,-0.00154,-0.00270,-0.00275,0.01342,0.00345,-0.00004,0.54871,4,8,0.00103,-0.10585,-0.08542,0.55620,1.07347,-0.15144,-0.25464,0.538920.00000,-8.41168
,,,1668223946586201,0,0.14056,1.00803,0.31231,-0.92816,0.08110,0.36323,0.04897,0.99410,-0.09681,-0.36893,-0.07207,-0.92666,1,0.31242,1.09876,0.43188,0.88600,-0.29210,0.36012,-0.42503,-0.82207,0.37889,0.18537,-0.48875,-0.85250,2,0.16381,1.12069,0.47420,0.70230,-0.71007,-0.05077,-0.69723,-0.67170,-0.25038,0.14368,0.21124,-0.96682,0,7,0.54893,-0.78692,0.08704,-0.00003,0.00001,-0.00001,-0.00042,1,7,-0.74451,-0.94478,0.00000,3.00004,0.50336,-0.78760,0.78758,2,4,-0.07801,-0.96572,0.04467,0.70182,3,8,-0.00021,-0.00154,-0.00270,-0.00275,0.01342,0.00345,-0.00004,0.54830,4,8,0.00103,-0.10581,-0.08542,0.55622,1.07347,-0.15144,-0.25464,0.538890.00000,-8.16480
,,,1668223946437201,0,0.14002,1.00817,0.31369,-0.92816,0.08110,0.36323,0.04897,0.99410,-0.09681,-0.36893,-0.07207,-0.92666,1,0.31242,1.09876,0.43188,0.88600,-0.29210,0.36012,-0.42503,-0.82207,0.37889,0.18537,-0.48875,-0.85250,2,0.16381,1.12069,0.47420,0.70230,-0.71007,-0.05077,-0.69723,-0.67170,-0.25038,0.14368,0.21124,-0.96682,0,7,0.54893,-0.78692,0.08556,-0.00003,0.00001,-0.00001,-0.00042,1,7,-0.74451,-0.94478,0.00000,3.00004,0.50336,-0.78760,0.78758,2,4,-0.07801,-0.96572,0.04467,0.70182,3,8,-0.00021,-0.00154,-0.00270,-0.00275,0.01342,0.00345,-0.00004,0.54859,4,8,0.00103,-0.10581,-0.08542,0.55622,1.07347,-0.15144,-0.25464,0.538910.00000,-8.88429
,,,1668223946504201,0,0.14028,1.00810,0.31303,-0.92816,0.08110,0.36323,0.04897,0.99410,-0.09681,-0.36893,-0.07207,-0.92666,1,0.31242,1.09876,0.43188,0.88600,-0.29210,0.36012,-0.42503,-0.82207,0.37889,0.18537,-0.48875,-0.85250,2,0.16381,1.12069,0.47420,0.70230,-0.71007,-0.05077,-0.69723,-0.67170,-0.25038,0.14368,0.21124,-0.96682,0,7,0.54893,-0.78692,0.08627,-0.00003,0.00001,-0.00001,-0.00042,1,7,-0.74451,-0.94478,0.00000,3.00004,0.50336,-0.78760,0.78758,2,4,-0.07801,-0.96572,0.04467,0.70182,3,8,-0.00021,-0.00154,-0.00270,-0.00275,0.01342,0.00345,-0.00004,0.54879,4,8,0.00103,-0.10585,-0.08542,0.55620,1.07347,-0.15144,-0.25464,0.538840.00000,-8.41168
,,,1668223946570201,0,0.14051,1.00804,0.31244,-0.92816,0.08110,0.36323,0.04897,0.99410,-0.09681,-0.36893,-0.07207,-0.92666,1,0.31242,1.09876,0.43188,0.88600,-0.29210,0.36012,-0.42503,-0.82207,0.37889,0.18537,-0.48875,-0.85250,2,0.16381,1.12069,0.47420,0.70230,-0.71007,-0.05077,-0.69723,-0.67170,-0.25038,0.14368,0.21124,-0.96682,0,7,0.54893,-0.78692,0.08690,-0.00003,0.00001,-0.00001,-0.00042,1,7,-0.74451,-0.94478,0.00000,3.00004,0.50336,-0.78760,0.78758,2,4,-0.07801,-0.96572,0.04467,0.70182,3,8,-0.00021,-0.00154,-0.00270,-0.00275,0.01342,0.00345,-0.00004,0.54850,4,8,0.00103,-0.10585,-0.08542,0.55620,1.07347,-0.15144,-0.25464,0.538940.00000,-8.16480
,,,1668223946487201,0,0.14020,1.00812,0.31322,-0.92816,0.08110,0.36323,0.04897,0.99410,-0.09681,-0.36893,-0.07207,-0.92666,1,0.31242,1.09876,0.43188,0.88600,-0.29210,0.36012,-0.42503,-0.82207,0.37889,0.18537,-0.48875,-0.85250,2,0.16381,1.12069,0.47420,0.70230,-0.71007,-0.05077,-0.69723,-0.67170,-0.25038,0.14368,0.21124,-0.96682,0,7,0.54893,-0.78692,0.08606,-0.00003,0.00001,-0.00001,-0.00042,1,7,-0.74451,-0.94478,0.00000,3.00004,0.50336,-0.78760,0.78758,2,4,-0.07801,-0.96572,0.04467,0.70182,3,8,-0.00021,-0.00154,-0.00270,-0.00275,0.01342,0.00345,-0.00004,0.54884,4,8,0.00103,-0.10581,-0.08542,0.55622,1.07347,-0.15144,-0.25464,0.539010.00000,-8.66915
,,,1668223946553201,0,0.14045,1.00805,0.31258,-0.92816,0.08110,0.36323,0.04897,0.99410,-0.09681,-0.36893,-0.07207,-0.92666,1,0.31242,1.09876,0.43188,0.88600,-0.29210,0.36012,-0.42503,-0.82207,0.37889,0.18537,-0.48875,-0.85250,2,0.16381,1.12069,0.47420,0.70230,-0.71007,-0.05077,-0.69723,-0.67170,-0.25038,0.14368,0.21124,-0.96682,0,7,0.54893,-0.78692,0.08676,-0.00003,0.00001,-0.00001,-0.00042,1,7,-0.74451,-0.94478,0.00000,3.00004,0.50336,-0.78760,0.78758,2,4,-0.07801,-0.96572,0.04467,0.70182,3,8,-0.00021,-0.00154,-0.00270,-0.00275,0.01342,0.00345,-0.00004,0.54869,4,8,0.00103,-0.10585,-0.08542,0.55620,1.07347,-0.15144,-0.25464,0.538950.00000,-8.41168
,,,1668223946472201,0,0.14014,1.00814,0.31339,-0.92816,0.08110,0.36323,0.04897,0.99410,-0.09681,-0.36893,-0.07207,-0.92666,1,0.31242,1.09876,0.43188,0.88600,-0.29210,0.36012,-0.42503,-0.82207,0.37889,0.18537,-0.48875,-0.85250,2,0.16381,1.12069,0.47420,0.70230,-0.71007,-0.05077,-0.69723,-0.67170,-0.25038,0.14368,0.21124,-0.96682,0,7,0.54893,-0.78692,0.08588,-0.00003,0.00001,-0.00001,-0.00042,1,7,-0.74451,-0.94478,0.00000,3.00004,0.50336,-0.78760,0.78758,2,4,-0.07801,-0.96572,0.04467,0.70182,3,8,-0.00021,-0.00154,-0.00270,-0.00275,0.01342,0.00345,-0.00004,0.54842,4,8,0.00103,-0.10585,-0.08542,0.55620,1.07347,-0.15144,-0.25464,0.539040.00000,-8.66915
,,,1668223946538201,0,0.14040,1.00807,0.31271,-0.92816,0.08110,0.36323,0.04897,0.99410,-0.09681,-0.36893,-0.07207,-0.92666,1,0.31242,1.09876,0.43188,0.88600,-0.29210,0.36012,-0.42503,-0.82207,0.37889,0.18537,-0.48875,-0.85250,2,0.16381,1.12069,0.47420,0.70230,-0.71007,-0.05077,-0.69723,-0.67170,-0.25038,0.14368,0.21124,-0.96682,0,7,0.54893,-0.78692,0.08661,-0.00003,0.00001,-0.00001,-0.00042,1,7,-0.74451,-0.94478,0.00000,3.00004,0.50336,-0.78760,0.78758,2,4,-0.07801,-0.96572,0.04467,0.70182,3,8,-0.00021,-0.00154,-0.00270,-0.00275,0.01342,0.00345,-0.00004,0.54863,4,8,0.00103,-0.10581,-0.08542,0.55622,1.07347,-0.15144,-0.25464,0.538850.00000,-8.41168
128530,80, 0: 0: 2:677,
