AlexandreBanks6/MedImaging_Project/Dataset1_Code/Trial3/Test/data.csv
Sample_no,Frame_no,Time,Time_stamp,mip Index (PSM1), pos x, pos y, pos z, o0, o1, o2, o3, o4, o5, o6, o7, o8,mip Index (PSM2), pos x, pos y, pos z, o0, o1, o2, o3, o4, o5, o6, o7, o8,mip Index (ECM), pos x, pos y, pos z, o0, o1, o2, o3, o4, o5, o6, o7, o8,Manip Index (PSM1), Num Joints, J1, J2, J3, J4, J5, J6, J7,Manip Index (PSM2), Num Joints, J1, J2, J3, J4, J5, J6, J7,Manip Index (ECM), Num Joints, J1, J2, J3, J4,Manip Index (MTM1), Num Joints, J1, J2, J3, J4, J5, J6, J7, J8,Manip Index (MTM2), Num Joints, J1, J2, J3, J4, J5, J6, J7, J8,Motor Axial Pos, Motor Rotation Angle
9746,6, 0: 0: 0:203,
,,,1668224060375201,0,0.12940,1.00980,0.34031,-0.92867,0.08933,0.35998,0.05096,0.99209,-0.11473,-0.36738,-0.08821,-0.92588,1,0.31242,1.09876,0.43188,0.88600,-0.29210,0.36012,-0.42503,-0.82207,0.37889,0.18537,-0.48875,-0.85250,2,0.16381,1.12069,0.47420,0.70230,-0.71007,-0.05077,-0.69723,-0.67170,-0.25038,0.14368,0.21124,-0.96682,0,7,0.54636,-0.76878,0.05688,-0.00003,0.00001,-0.00001,-0.00042,1,7,-0.74451,-0.94478,0.00000,3.00004,0.50336,-0.78760,0.78758,2,4,-0.07801,-0.96572,0.04467,0.70182,3,8,-0.00021,-0.00154,-0.00270,-0.00275,0.01342,0.00345,-0.00004,0.54871,4,8,0.00110,-0.10799,-0.08708,0.53375,1.04682,-0.15736,-0.25464,0.538730.00000,-14.42859
,,,1668224060294201,0,0.12939,1.00981,0.34033,-0.92867,0.08933,0.35998,0.05096,0.99209,-0.11473,-0.36738,-0.08821,-0.92588,1,0.31242,1.09876,0.43188,0.88600,-0.29210,0.36012,-0.42503,-0.82207,0.37889,0.18537,-0.48876,-0.85250,2,0.16381,1.12069,0.47420,0.70230,-0.71007,-0.05077,-0.69723,-0.67170,-0.25038,0.14368,0.21124,-0.96682,0,7,0.54636,-0.76878,0.05686,-0.00003,0.00001,-0.00001,-0.00042,1,7,-0.74451,-0.94478,0.00000,3.00004,0.50336,-0.78760,0.78758,2,4,-0.07801,-0.96572,0.04467,0.70182,3,8,-0.00021,-0.00154,-0.00270,-0.00275,0.01342,0.00345,-0.00004,0.54868,4,8,0.00110,-0.10799,-0.08708,0.53375,1.04682,-0.15736,-0.25464,0.538640.00000,-14.42859
,,,1668224060359201,0,0.12939,1.00980,0.34032,-0.92867,0.08933,0.35998,0.05096,0.99209,-0.11473,-0.36738,-0.08821,-0.92588,1,0.31242,1.09876,0.43188,0.88600,-0.29210,0.36012,-0.42503,-0.82207,0.37889,0.18537,-0.48875,-0.85250,2,0.16381,1.12069,0.47420,0.70230,-0.71007,-0.05077,-0.69723,-0.67170,-0.25038,0.14368,0.21124,-0.96682,0,7,0.54636,-0.76878,0.05688,-0.00003,0.00001,-0.00001,-0.00042,1,7,-0.74451,-0.94478,0.00000,3.00004,0.50336,-0.78760,0.78758,2,4,-0.07801,-0.96572,0.04467,0.70182,3,8,-0.00021,-0.00154,-0.00270,-0.00275,0.01342,0.00345,-0.00004,0.54880,4,8,0.00110,-0.10799,-0.08708,0.53375,1.04682,-0.15736,-0.25464,0.538860.00000,-14.42859
,,,1668224060277201,0,0.12939,1.00981,0.34033,-0.92867,0.08933,0.35998,0.05096,0.99209,-0.11473,-0.36738,-0.08821,-0.92588,1,0.31242,1.09876,0.43188,0.88600,-0.29210,0.36012,-0.42503,-0.82207,0.37889,0.18537,-0.48876,-0.85250,2,0.16381,1.12069,0.47420,0.70230,-0.71007,-0.05077,-0.69723,-0.67170,-0.25038,0.14368,0.21124,-0.96682,0,7,0.54636,-0.76878,0.05686,-0.00003,0.00001,-0.00001,-0.00042,1,7,-0.74451,-0.94478,0.00000,3.00004,0.50336,-0.78760,0.78758,2,4,-0.07801,-0.96572,0.04467,0.70182,3,8,-0.00021,-0.00154,-0.00270,-0.00275,0.01342,0.00345,-0.00004,0.54866,4,8,0.00110,-0.10799,-0.08708,0.53375,1.04682,-0.15736,-0.25464,0.538860.00000,-14.42859
,,,1668224060344201,0,0.12939,1.00981,0.34032,-0.92867,0.08933,0.35998,0.05096,0.99209,-0.11473,-0.36738,-0.08821,-0.92588,1,0.31242,1.09876,0.43188,0.88600,-0.29210,0.36012,-0.42503,-0.82207,0.37889,0.18537,-0.48875,-0.85250,2,0.16381,1.12069,0.47420,0.70230,-0.71007,-0.05077,-0.69723,-0.67170,-0.25038,0.14368,0.21124,-0.96682,0,7,0.54636,-0.76878,0.05687,-0.00003,0.00001,-0.00001,-0.00042,1,7,-0.74451,-0.94478,0.00000,3.00004,0.50336,-0.78760,0.78758,2,4,-0.07801,-0.96572,0.04467,0.70182,3,8,-0.00021,-0.00154,-0.00270,-0.00275,0.01342,0.00345,-0.00004,0.54895,4,8,0.00110,-0.10799,-0.08708,0.53375,1.04682,-0.15736,-0.25464,0.538720.00000,-14.42859
,,,1668224060336201,0,0.12939,1.00981,0.34032,-0.92867,0.08933,0.35998,0.05096,0.99209,-0.11473,-0.36738,-0.08821,-0.92588,1,0.31242,1.09876,0.43188,0.88600,-0.29210,0.36012,-0.42503,-0.82207,0.37889,0.18537,-0.48875,-0.85250,2,0.16381,1.12069,0.47420,0.70230,-0.71007,-0.05077,-0.69723,-0.67170,-0.25038,0.14368,0.21124,-0.96682,0,7,0.54636,-0.76878,0.05687,-0.00003,0.00001,-0.00001,-0.00042,1,7,-0.74451,-0.94478,0.00000,3.00004,0.50336,-0.78760,0.78758,2,4,-0.07801,-0.96572,0.04467,0.70182,3,8,-0.00021,-0.00154,-0.00270,-0.00275,0.01342,0.00345,-0.00004,0.54875,4,8,0.00110,-0.10799,-0.08708,0.53375,1.04682,-0.15736,-0.25464,0.538600.00000,-14.42859
,,,1668224060262201,0,0.12939,1.00981,0.34033,-0.92867,0.08933,0.35998,0.05096,0.99209,-0.11473,-0.36738,-0.08821,-0.92588,1,0.31242,1.09876,0.43188,0.88600,-0.29210,0.36012,-0.42503,-0.82207,0.37889,0.18537,-0.48876,-0.85250,2,0.16381,1.12069,0.47420,0.70230,-0.71007,-0.05077,-0.69723,-0.67170,-0.25038,0.14368,0.21124,-0.96682,0,7,0.54636,-0.76878,0.05686,-0.00003,0.00001,-0.00001,-0.00042,1,7,-0.74451,-0.94478,0.00000,3.00004,0.50336,-0.78760,0.78758,2,4,-0.07801,-0.96572,0.04467,0.70182,3,8,-0.00021,-0.00154,-0.00270,-0.00275,0.01342,0.00345,-0.00004,0.54866,4,8,0.00110,-0.10799,-0.08708,0.53375,1.04682,-0.15736,-0.25464,0.538890.00000,-14.42859
,,,1668224060326201,0,0.12939,1.00981,0.34032,-0.92867,0.08933,0.35998,0.05096,0.99209,-0.11473,-0.36738,-0.08821,-0.92588,1,0.31242,1.09876,0.43188,0.88600,-0.29210,0.36012,-0.42503,-0.82207,0.37889,0.18537,-0.48875,-0.85250,2,0.16381,1.12069,0.47420,0.70230,-0.71007,-0.05077,-0.69723,-0.67170,-0.25038,0.14368,0.21124,-0.96682,0,7,0.54636,-0.76878,0.05687,-0.00003,0.00001,-0.00001,-0.00042,1,7,-0.74451,-0.94478,0.00000,3.00004,0.50336,-0.78760,0.78758,2,4,-0.07801,-0.96572,0.04467,0.70182,3,8,-0.00021,-0.00154,-0.00270,-0.00275,0.01342,0.00345,-0.00004,0.54875,4,8,0.00110,-0.10799,-0.08708,0.53375,1.04682,-0.15736,-0.25464,0.538600.00000,-14.42859
,,,1668224060246201,0,0.12939,1.00981,0.34033,-0.92867,0.08933,0.35998,0.05096,0.99209,-0.11473,-0.36738,-0.08821,-0.92588,1,0.31242,1.09876,0.43188,0.88600,-0.29210,0.36012,-0.42503,-0.82207,0.37889,0.18537,-0.48876,-0.85250,2,0.16381,1.12069,0.47420,0.70230,-0.71007,-0.05077,-0.69723,-0.67170,-0.25038,0.14368,0.21124,-0.96682,0,7,0.54636,-0.76878,0.05686,-0.00003,0.00001,-0.00001,-0.00042,1,7,-0.74451,-0.94478,0.00000,3.00004,0.50336,-0.78760,0.78758,2,4,-0.07801,-0.96572,0.04467,0.70182,3,8,-0.00021,-0.00154,-0.00270,-0.00275,0.01342,0.00345,-0.00004,0.54859,4,8,0.00110,-0.10799,-0.08708,0.53375,1.04682,-0.15736,-0.25464,0.538940.00000,-14.42859
,,,1668224060309201,0,0.12939,1.00981,0.34032,-0.92867,0.08933,0.35998,0.05096,0.99209,-0.11473,-0.36738,-0.08821,-0.92588,1,0.31242,1.09876,0.43188,0.88600,-0.29210,0.36012,-0.42503,-0.82207,0.37889,0.18537,-0.48875,-0.85250,2,0.16381,1.12069,0.47420,0.70230,-0.71007,-0.05077,-0.69723,-0.67170,-0.25038,0.14368,0.21124,-0.96682,0,7,0.54636,-0.76878,0.05687,-0.00003,0.00001,-0.00001,-0.00042,1,7,-0.74451,-0.94478,0.00000,3.00004,0.50336,-0.78760,0.78758,2,4,-0.07801,-0.96572,0.04467,0.70182,3,8,-0.00021,-0.00154,-0.00270,-0.00275,0.01342,0.00345,-0.00004,0.54860,4,8,0.00110,-0.10799,-0.08708,0.53375,1.04682,-0.15736,-0.25464,0.538930.00000,-14.42859
17426,10, 0: 0: 0:363,
,,,1668224060543201,0,0.12963,1.00973,0.33972,-0.92867,0.08933,0.35998,0.05096,0.99209,-0.11473,-0.36738,-0.08821,-0.92588,1,0.31242,1.09876,0.43188,0.88600,-0.29210,0.36012,-0.42503,-0.82207,0.37889,0.18537,-0.48875,-0.85250,2,0.16381,1.12069,0.47420,0.70230,-0.71007,-0.05077,-0.69723,-0.67170,-0.25038,0.14368,0.21124,-0.96682,0,7,0.54636,-0.76878,0.05753,-0.00003,0.00001,-0.00001,-0.00042,1,7,-0.74451,-0.94478,0.00000,3.00004,0.50336,-0.78760,0.78758,2,4,-0.07801,-0.96572,0.04467,0.70182,3,8,-0.00021,-0.00154,-0.00270,-0.00275,0.01342,0.00345,-0.00004,0.54888,4,8,0.00110,-0.10799,-0.08708,0.53375,1.04682,-0.15736,-0.25464,0.538700.00000,-14.41801
,,,1668224060392201,0,0.12940,1.00980,0.34030,-0.92867,0.08933,0.35998,0.05096,0.99209,-0.11473,-0.36738,-0.08821,-0.92588,1,0.31242,1.09876,0.43188,0.88600,-0.29210,0.36012,-0.42503,-0.82207,0.37889,0.18537,-0.48875,-0.85250,2,0.16381,1.12069,0.47420,0.70230,-0.71007,-0.05077,-0.69723,-0.67170,-0.25038,0.14368,0.21124,-0.96682,0,7,0.54636,-0.76878,0.05689,-0.00003,0.00001,-0.00001,-0.00042,1,7,-0.74451,-0.94478,0.00000,3.00004,0.50336,-0.78760,0.78758,2,4,-0.07801,-0.96572,0.04467,0.70182,3,8,-0.00021,-0.00154,-0.00270,-0.00275,0.01342,0.00345,-0.00004,0.54866,4,8,0.00110,-0.10799,-0.08708,0.53375,1.04682,-0.15736,-0.25464,0.538810.00000,-14.42859
,,,1668224060462201,0,0.12945,1.00979,0.34018,-0.92867,0.08933,0.35998,0.05096,0.99209,-0.11473,-0.36738,-0.08821,-0.92588,1,0.31242,1.09876,0.43188,0.88600,-0.29210,0.36012,-0.42503,-0.82207,0.37889,0.18537,-0.48875,-0.85250,2,0.16381,1.12069,0.47420,0.70230,-0.71007,-0.05077,-0.69723,-0.67170,-0.25038,0.14368,0.21124,-0.96682,0,7,0.54636,-0.76878,0.05702,-0.00003,0.00001,-0.00001,-0.00042,1,7,-0.74451,-0.94478,0.00000,3.00004,0.50336,-0.78760,0.78758,2,4,-0.07801,-0.96572,0.04467,0.70182,3,8,-0.00021,-0.00154,-0.00270,-0.00275,0.01342,0.00345,-0.00004,0.54865,4,8,0.00110,-0.10799,-0.08708,0.53375,1.04682,-0.15736,-0.25464,0.538630.00000,-14.42859
,,,1668224060525201,0,0.12958,1.00975,0.33984,-0.92867,0.08933,0.35998,0.05096,0.99209,-0.11473,-0.36738,-0.08821,-0.92588,1,0.31242,1.09876,0.43188,0.88600,-0.29210,0.36012,-0.42503,-0.82207,0.37889,0.18537,-0.48875,-0.85250,2,0.16381,1.12069,0.47420,0.70230,-0.71007,-0.05077,-0.69723,-0.67170,-0.25038,0.14368,0.21124,-0.96682,0,7,0.54636,-0.76878,0.05739,-0.00003,0.00001,-0.00001,-0.00042,1,7,-0.74451,-0.94478,0.00000,3.00004,0.50336,-0.78760,0.78758,2,4,-0.07801,-0.96572,0.04467,0.70182,3,8,-0.00021,-0.00154,-0.00270,-0.00275,0.01342,0.00345,-0.00004,0.54877,4,8,0.00110,-0.10799,-0.08708,0.53375,1.04682,-0.15736,-0.25464,0.538660.00000,-14.41801
,,,1668224060441201,0,0.12943,1.00979,0.34022,-0.92867,0.08933,0.35998,0.05096,0.99209,-0.11473,-0.36738,-0.08821,-0.92588,1,0.31242,1.09876,0.43188,0.88600,-0.29210,0.36012,-0.42503,-0.82207,0.37889,0.18537,-0.48875,-0.85250,2,0.16381,1.12069,0.47420,0.70230,-0.71007,-0.05077,-0.69723,-0.67170,-0.25038,0.14368,0.21124,-0.96682,0,7,0.54636,-0.76878,0.05698,-0.00003,0.00001,-0.00001,-0.00042,1,7,-0.74451,-0.94478,0.00000,3.00004,0.50336,-0.78760,0.78758,2,4,-0.07801,-0.96572,0.04467,0.70182,3,8,-0.00021,-0.00154,-0.00270,-0.00275,0.01342,0.00345,-0.00004,0.54861,4,8,0.00110,-0.10799,-0.08708,0.53375,1.04682,-0.15736,-0.25464,0.538900.00000,-14.42859
,,,1668224060508201,0,0.12954,1.00976,0.33995,-0.92867,0.08933,0.35998,0.05096,0.99209,-0.11473,-0.36738,-0.08821,-0.92588,1,0.31242,1.09876,0.43188,0.88600,-0.29210,0.36012,-0.42503,-0.82207,0.37889,0.18537,-0.48875,-0.85250,2,0.16381,1.12069,0.47420,0.70230,-0.71007,-0.05077,-0.69723,-0.67170,-0.25038,0.14368,0.21124,-0.96682,0,7,0.54636,-0.76878,0.05728,-0.00003,0.00001,-0.00001,-0.00042,1,7,-0.74451,-0.94478,0.00000,3.00004,0.50336,-0.78760,0.78758,2,4,-0.07801,-0.96572,0.04467,0.70182,3,8,-0.00021,-0.00154,-0.00270,-0.00275,0.01342,0.00345,-0.00004,0.54893,4,8,0.00110,-0.10799,-0.08708,0.53375,1.04682,-0.15736,-0.25464,0.538850.00000,-14.42859
,,,1668224060425201,0,0.12942,1.00980,0.34026,-0.92867,0.08933,0.35998,0.05096,0.99209,-0.11473,-0.36738,-0.08821,-0.92588,1,0.31242,1.09876,0.43188,0.88600,-0.29210,0.36012,-0.42503,-0.82207,0.37889,0.18537,-0.48875,-0.85250,2,0.16381,1.12069,0.47420,0.70230,-0.71007,-0.05077,-0.69723,-0.67170,-0.25038,0.14368,0.21124,-0.96682,0,7,0.54636,-0.76878,0.05694,-0.00003,0.00001,-0.00001,-0.00042,1,7,-0.74451,-0.94478,0.00000,3.00004,0.50336,-0.78760,0.78758,2,4,-0.07801,-0.96572,0.04467,0.70182,3,8,-0.00021,-0.00154,-0.00270,-0.00275,0.01342,0.00345,-0.00004,0.54851,4,8,0.00110,-0.10799,-0.08708,0.53375,1.04682,-0.15736,-0.25464,0.539010.00000,-14.42859
,,,1668224060491201,0,0.12950,1.00977,0.34004,-0.92867,0.08933,0.35998,0.05096,0.99209,-0.11473,-0.36738,-0.08821,-0.92588,1,0.31242,1.09876,0.43188,0.88600,-0.29210,0.36012,-0.42503,-0.82207,0.37889,0.18537,-0.48875,-0.85250,2,0.16381,1.12069,0.47420,0.70230,-0.71007,-0.05077,-0.69723,-0.67170,-0.25038,0.14368,0.21124,-0.96682,0,7,0.54636,-0.76878,0.05718,-0.00003,0.00001,-0.00001,-0.00042,1,7,-0.74451,-0.94478,0.00000,3.00004,0.50336,-0.78760,0.78758,2,4,-0.07801,-0.96572,0.04467,0.70182,3,8,-0.00021,-0.00154,-0.00270,-0.00275,0.01342,0.00345,-0.00004,0.54895,4,8,0.00110,-0.10799,-0.08708,0.53375,1.04682,-0.15736,-0.25464,0.538710.00000,-14.42859
,,,1668224060409201,0,0.12941,1.00980,0.34029,-0.92867,0.08933,0.35998,0.05096,0.99209,-0.11473,-0.36738,-0.08821,-0.92588,1,0.31242,1.09876,0.43188,0.88600,-0.29210,0.36012,-0.42503,-0.82207,0.37889,0.18537,-0.48875,-0.85250,2,0.16381,1.12069,0.47420,0.70230,-0.71007,-0.05077,-0.69723,-0.67170,-0.25038,0.14368,0.21124,-0.96682,0,7,0.54636,-0.76878,0.05691,-0.00003,0.00001,-0.00001,-0.00042,1,7,-0.74451,-0.94478,0.00000,3.00004,0.50336,-0.78760,0.78758,2,4,-0.07801,-0.96572,0.04467,0.70182,3,8,-0.00021,-0.00154,-0.00270,-0.00275,0.01342,0.00345,-0.00004,0.54870,4,8,0.00110,-0.10799,-0.08708,0.53375,1.04682,-0.15736,-0.25464,0.538880.00000,-14.42859
,,,1668224060475201,0,0.12947,1.00978,0.34012,-0.92867,0.08933,0.35998,0.05096,0.99209,-0.11473,-0.36738,-0.08821,-0.92588,1,0.31242,1.09876,0.43188,0.88600,-0.29210,0.36012,-0.42503,-0.82207,0.37889,0.18537,-0.48875,-0.85250,2,0.16381,1.12069,0.47420,0.70230,-0.71007,-0.05077,-0.69723,-0.67170,-0.25038,0.14368,0.21124,-0.96682,0,7,0.54636,-0.76878,0.05709,-0.00003,0.00001,-0.00001,-0.00042,1,7,-0.74451,-0.94478,0.00000,3.00004,0.50336,-0.78760,0.78758,2,4,-0.07801,-0.96572,0.04467,0.70182,3,8,-0.00021,-0.00154,-0.00270,-0.00275,0.01342,0.00345,-0.00004,0.54867,4,8,0.00110,-0.10799,-0.08708,0.53375,1.04682,-0.15736,-0.25464,0.538630.00000,-14.42859
25106,15, 0: 0: 0:523,
,,,1668224060705201,0,0.13073,1.00938,0.33687,-0.92869,0.08917,0.35998,0.05078,0.99210,-0.11473,-0.36737,-0.08827,-0.92588,1,0.31242,1.09876,0.43188,0.88600,-0.29210,0.36012,-0.42503,-0.82207,0.37889,0.18537,-0.48875,-0.85250,2,0.16381,1.12069,0.47420,0.70230,-0.71007,-0.05077,-0.69723,-0.67170,-0.25038,0.14368,0.21124,-0.96682,0,7,0.54636,-0.76878,0.06038,-0.00003,0.00001,-0.00001,-0.00042,1,7,-0.74451,-0.94478,0.00000,3.00004,0.50336,-0.78760,0.78758,2,4,-0.07801,-0.96572,0.04467,0.70182,3,8,-0.00021,-0.00154,-0.00270,-0.00275,0.01342,0.00345,-0.00004,0.54875,4,8,0.00110,-0.10799,-0.08708,0.53375,1.04682,-0.15736,-0.25464,0.538660.00000,-14.32984
,,,1668224060626201,0,0.13014,1.00957,0.33839,-0.92867,0.08933,0.35998,0.05096,0.99209,-0.11473,-0.36738,-0.08821,-0.92588,1,0.31242,1.09876,0.43188,0.88600,-0.29210,0.36012,-0.42503,-0.82207,0.37889,0.18537,-0.48875,-0.85250,2,0.16381,1.12069,0.47420,0.70230,-0.71007,-0.05077,-0.69723,-0.67170,-0.25038,0.14368,0.21124,-0.96682,0,7,0.54636,-0.76878,0.05896,-0.00003,0.00001,-0.00001,-0.00042,1,7,-0.74451,-0.94478,0.00000,3.00004,0.50336,-0.78760,0.78758,2,4,-0.07801,-0.96572,0.04467,0.70182,3,8,-0.00021,-0.00154,-0.00270,-0.00275,0.01342,0.00345,-0.00004,0.54886,4,8,0.00110,-0.10799,-0.08708,0.53375,1.04682,-0.15736,-0.25464,0.538760.00000,-14.38274
,,,1668224060689201,0,0.13066,1.00940,0.33707,-0.92867,0.08933,0.35998,0.05096,0.99209,-0.11473,-0.36738,-0.08821,-0.92588,1,0.31242,1.09876,0.43188,0.88600,-0.29210,0.36012,-0.42503,-0.82207,0.37889,0.18537,-0.48875,-0.85250,2,0.16381,1.12069,0.47420,0.70230,-0.71007,-0.05077,-0.69723,-0.67170,-0.25038,0.14368,0.21124,-0.96682,0,7,0.54636,-0.76878,0.06038,-0.00003,0.00001,-0.00001,-0.00042,1,7,-0.74451,-0.94478,0.00000,3.00004,0.50336,-0.78760,0.78758,2,4,-0.07801,-0.96572,0.04467,0.70182,3,8,-0.00021,-0.00154,-0.00270,-0.00275,0.01342,0.00345,-0.00004,0.54875,4,8,0.00110,-0.10799,-0.08708,0.53375,1.04682,-0.15736,-0.25464,0.538660.00000,-14.32984
,,,1668224060608201,0,0.13002,1.00961,0.33871,-0.92867,0.08933,0.35998,0.05096,0.99209,-0.11473,-0.36738,-0.08821,-0.92588,1,0.31242,1.09876,0.43188,0.88600,-0.29210,0.36012,-0.42503,-0.82207,0.37889,0.18537,-0.48875,-0.85250,2,0.16381,1.12069,0.47420,0.70230,-0.71007,-0.05077,-0.69723,-0.67170,-0.25038,0.14368,0.21124,-0.96682,0,7,0.54636,-0.76878,0.05861,-0.00003,0.00001,-0.00001,-0.00042,1,7,-0.74451,-0.94478,0.00000,3.00004,0.50336,-0.78760,0.78758,2,4,-0.07801,-0.96572,0.04467,0.70182,3,8,-0.00021,-0.00154,-0.00270,-0.00275,0.01342,0.00345,-0.00004,0.54904,4,8,0.00110,-0.10799,-0.08708,0.53375,1.04682,-0.15736,-0.25464,0.538870.00000,-14.38274
,,,1668224060675201,0,0.13055,1.00944,0.33735,-0.92867,0.08933,0.35998,0.05096,0.99209,-0.11473,-0.36738,-0.08821,-0.92588,1,0.31242,1.09876,0.43188,0.88600,-0.29210,0.36012,-0.42503,-0.82207,0.37889,0.18537,-0.48875,-0.85250,2,0.16381,1.12069,0.47420,0.70230,-0.71007,-0.05077,-0.69723,-0.67170,-0.25038,0.14368,0.21124,-0.96682,0,7,0.54636,-0.76878,0.06008,-0.00003,0.00001,-0.00001,-0.00042,1,7,-0.74451,-0.94478,0.00000,3.00004,0.50336,-0.78760,0.78758,2,4,-0.07801,-0.96572,0.04467,0.70182,3,8,-0.00021,-0.00154,-0.00270,-0.00275,0.01342,0.00345,-0.00004,0.54885,4,8,0.00110,-0.10799,-0.08708,0.53375,1.04682,-0.15736,-0.25464,0.538910.00000,-14.32984
,,,1668224060592201,0,0.12990,1.00964,0.33901,-0.92867,0.08933,0.35998,0.05096,0.99209,-0.11473,-0.36738,-0.08821,-0.92588,1,0.31242,1.09876,0.43188,0.88600,-0.29210,0.36012,-0.42503,-0.82207,0.37889,0.18537,-0.48875,-0.85250,2,0.16381,1.12069,0.47420,0.70230,-0.71007,-0.05077,-0.69723,-0.67170,-0.25038,0.14368,0.21124,-0.96682,0,7,0.54636,-0.76878,0.05829,-0.00003,0.00001,-0.00001,-0.00042,1,7,-0.74451,-0.94478,0.00000,3.00004,0.50336,-0.78760,0.78758,2,4,-0.07801,-0.96572,0.04467,0.70182,3,8,-0.00021,-0.00154,-0.00270,-0.00275,0.01342,0.00345,-0.00004,0.54869,4,8,0.00110,-0.10799,-0.08708,0.53375,1.04682,-0.15736,-0.25464,0.538860.00000,-14.38274
,,,1668224060656201,0,0.13042,1.00948,0.33768,-0.92867,0.08933,0.35998,0.05096,0.99209,-0.11473,-0.36738,-0.08821,-0.92588,1,0.31242,1.09876,0.43188,0.88600,-0.29210,0.36012,-0.42503,-0.82207,0.37889,0.18537,-0.48875,-0.85250,2,0.16381,1.12069,0.47420,0.70230,-0.71007,-0.05077,-0.69723,-0.67170,-0.25038,0.14368,0.21124,-0.96682,0,7,0.54636,-0.76878,0.05973,-0.00003,0.00001,-0.00001,-0.00042,1,7,-0.74451,-0.94478,0.00000,3.00004,0.50336,-0.78760,0.78758,2,4,-0.07801,-0.96572,0.04467,0.70182,3,8,-0.00021,-0.00154,-0.00270,-0.00275,0.01342,0.00345,-0.00004,0.54855,4,8,0.00110,-0.10799,-0.08708,0.53375,1.04682,-0.15736,-0.25464,0.538820.00000,-14.32984
,,,1668224060651201,0,0.13028,1.00952,0.33804,-0.92867,0.08933,0.35998,0.05096,0.99209,-0.11473,-0.36738,-0.08821,-0.92588,1,0.31242,1.09876,0.43188,0.88600,-0.29210,0.36012,-0.42503,-0.82207,0.37889,0.18537,-0.48875,-0.85250,2,0.16381,1.12069,0.47420,0.70230,-0.71007,-0.05077,-0.69723,-0.67170,-0.25038,0.14368,0.21124,-0.96682,0,7,0.54636,-0.76878,0.05934,-0.00003,0.00001,-0.00001,-0.00042,1,7,-0.74451,-0.94478,0.00000,3.00004,0.50336,-0.78760,0.78758,2,4,-0.07801,-0.96572,0.04467,0.70182,3,8,-0.00021,-0.00154,-0.00270,-0.00275,0.01342,0.00345,-0.00004,0.54847,4,8,0.00110,-0.10799,-0.08708,0.53375,1.04682,-0.15736,-0.25464,0.538630.00000,-14.32984
,,,1668224060573201,0,0.12979,1.00968,0.33929,-0.92867,0.08933,0.35998,0.05096,0.99209,-0.11473,-0.36738,-0.08821,-0.92588,1,0.31242,1.09876,0.43188,0.88600,-0.29210,0.36012,-0.42503,-0.82207,0.37889,0.18537,-0.48875,-0.85250,2,0.16381,1.12069,0.47420,0.70230,-0.71007,-0.05077,-0.69723,-0.67170,-0.25038,0.14368,0.21124,-0.96682,0,7,0.54636,-0.76878,0.05798,-0.00003,0.00001,-0.00001,-0.00042,1,7,-0.74451,-0.94478,0.00000,3.00004,0.50336,-0.78760,0.78758,2,4,-0.07801,-0.96572,0.04467,0.70182,3,8,-0.00021,-0.00154,-0.00270,-0.00275,0.01342,0.00345,-0.00004,0.54895,4,8,0.00110,-0.10799,-0.08708,0.53375,1.04682,-0.15736,-0.25464,0.538940.00000,-14.41801
,,,1668224060640201,0,0.13028,1.00952,0.33804,-0.92867,0.08933,0.35998,0.05096,0.99209,-0.11473,-0.36738,-0.08821,-0.92588,1,0.31242,1.09876,0.43188,0.88600,-0.29210,0.36012,-0.42503,-0.82207,0.37889,0.18537,-0.48875,-0.85250,2,0.16381,1.12069,0.47420,0.70230,-0.71007,-0.05077,-0.69723,-0.67170,-0.25038,0.14368,0.21124,-0.96682,0,7,0.54636,-0.76878,0.05934,-0.00003,0.00001,-0.00001,-0.00042,1,7,-0.74451,-0.94478,0.00000,3.00004,0.50336,-0.78760,0.78758,2,4,-0.07801,-0.96572,0.04467,0.70182,3,8,-0.00021,-0.00154,-0.00270,-0.00275,0.01342,0.00345,-0.00004,0.54847,4,8,0.00110,-0.10799,-0.08708,0.53375,1.04682,-0.15736,-0.25464,0.538630.00000,-14.38274
32786,20, 0: 0: 0:683,
,,,1668224060856201,0,0.13086,1.00934,0.33654,-0.92869,0.08917,0.35998,0.05078,0.99210,-0.11473,-0.36737,-0.08827,-0.92588,1,0.31242,1.09876,0.43188,0.88600,-0.29210,0.36012,-0.42503,-0.82207,0.37889,0.18537,-0.48875,-0.85250,2,0.16381,1.12069,0.47420,0.70230,-0.71007,-0.05077,-0.69723,-0.67170,-0.25038,0.14368,0.21124,-0.96682,0,7,0.54636,-0.76878,0.06096,-0.00021,0.00001,-0.00001,-0.00042,1,7,-0.74451,-0.94478,0.00000,3.00004,0.50336,-0.78760,0.78758,2,4,-0.07801,-0.96572,0.04467,0.70182,3,8,-0.00021,-0.00154,-0.00270,-0.00275,0.01342,0.00345,-0.00004,0.54882,4,8,0.00110,-0.10799,-0.08711,0.53377,1.04682,-0.15736,-0.25464,0.538840.00000,-14.02653
,,,1668224060705201,0,0.13073,1.00938,0.33687,-0.92869,0.08917,0.35998,0.05078,0.99210,-0.11473,-0.36737,-0.08827,-0.92588,1,0.31242,1.09876,0.43188,0.88600,-0.29210,0.36012,-0.42503,-0.82207,0.37889,0.18537,-0.48875,-0.85250,2,0.16381,1.12069,0.47420,0.70230,-0.71007,-0.05077,-0.69723,-0.67170,-0.25038,0.14368,0.21124,-0.96682,0,7,0.54636,-0.76878,0.06060,-0.00021,0.00001,-0.00001,-0.00042,1,7,-0.74451,-0.94478,0.00000,3.00004,0.50336,-0.78760,0.78758,2,4,-0.07801,-0.96572,0.04467,0.70182,3,8,-0.00021,-0.00154,-0.00270,-0.00275,0.01342,0.00345,-0.00004,0.54848,4,8,0.00110,-0.10799,-0.08708,0.53375,1.04682,-0.15736,-0.25464,0.539010.00000,-14.32984
,,,1668224060777201,0,0.13085,1.00934,0.33656,-0.92869,0.08917,0.35998,0.05078,0.99210,-0.11473,-0.36737,-0.08827,-0.92588,1,0.31242,1.09876,0.43188,0.88600,-0.29210,0.36012,-0.42503,-0.82207,0.37889,0.18537,-0.48875,-0.85250,2,0.16381,1.12069,0.47420,0.70230,-0.71007,-0.05077,-0.69723,-0.67170,-0.25038,0.14368,0.21124,-0.96682,0,7,0.54636,-0.76878,0.06093,-0.00021,0.00001,-0.00001,-0.00042,1,7,-0.74451,-0.94478,0.00000,3.00004,0.50336,-0.78760,0.78758,2,4,-0.07801,-0.96572,0.04467,0.70182,3,8,-0.00021,-0.00154,-0.00270,-0.00275,0.01342,0.00345,-0.00004,0.54846,4,8,0.00110,-0.10799,-0.08708,0.53375,1.04682,-0.15736,-0.25464,0.538880.00000,-14.06885
,,,1668224060840201,0,0.13086,1.00934,0.33654,-0.92869,0.08917,0.35998,0.05078,0.99210,-0.11473,-0.36737,-0.08827,-0.92588,1,0.31242,1.09876,0.43188,0.88600,-0.29210,0.36012,-0.42503,-0.82207,0.37889,0.18537,-0.48875,-0.85250,2,0.16381,1.12069,0.47420,0.70230,-0.71007,-0.05077,-0.69723,-0.67170,-0.25038,0.14368,0.21124,-0.96682,0,7,0.54636,-0.76878,0.06095,-0.00021,0.00001,-0.00001,-0.00042,1,7,-0.74451,-0.94478,0.00000,3.00004,0.50336,-0.78760,0.78758,2,4,-0.07801,-0.96572,0.04467,0.70182,3,8,-0.00021,-0.00154,-0.00270,-0.00275,0.01342,0.00345,-0.00004,0.54848,4,8,0.00110,-0.10799,-0.08708,0.53375,1.04682,-0.15736,-0.25464,0.539130.00000,-14.02653
,,,1668224060755201,0,0.13084,1.00934,0.33660,-0.92869,0.08917,0.35998,0.05078,0.99210,-0.11473,-0.36737,-0.08827,-0.92588,1,0.31242,1.09876,0.43188,0.88600,-0.29210,0.36012,-0.42503,-0.82207,0.37889,0.18537,-0.48875,-0.85250,2,0.16381,1.12069,0.47420,0.70230,-0.71007,-0.05077,-0.69723,-0.67170,-0.25038,0.14368,0.21124,-0.96682,0,7,0.54636,-0.76878,0.06089,-0.00021,0.00001,-0.00001,-0.00042,1,7,-0.74451,-0.94478,0.00000,3.00004,0.50336,-0.78760,0.78758,2,4,-0.07801,-0.96572,0.04467,0.70182,3,8,-0.00021,-0.00154,-0.00270,-0.00275,0.01342,0.00345,-0.00004,0.54859,4,8,0.00110,-0.10799,-0.08708,0.53375,1.04682,-0.15736,-0.25464,0.538770.00000,-14.20287
,,,1668224060823201,0,0.13086,1.00934,0.33655,-0.92869,0.08917,0.35998,0.05078,0.99210,-0.11473,-0.36737,-0.08827,-0.92588,1,0.31242,1.09876,0.43188,0.88600,-0.29210,0.36012,-0.42503,-0.82207,0.37889,0.18537,-0.48875,-0.85250,2,0.16381,1.12069,0.47420,0.70230,-0.71007,-0.05077,-0.69723,-0.67170,-0.25038,0.14368,0.21124,-0.96682,0,7,0.54636,-0.76878,0.06095,-0.00021,0.00001,-0.00001,-0.00042,1,7,-0.74451,-0.94478,0.00000,3.00004,0.50336,-0.78760,0.78758,2,4,-0.07801,-0.96572,0.04467,0.70182,3,8,-0.00021,-0.00154,-0.00270,-0.00275,0.01342,0.00345,-0.00004,0.54858,4,8,0.00110,-0.10799,-0.08708,0.53375,1.04682,-0.15736,-0.25464,0.538880.00000,-14.06885
,,,1668224060741201,0,0.13081,1.00935,0.33666,-0.92869,0.08917,0.35998,0.05078,0.99210,-0.11473,-0.36737,-0.08827,-0.92588,1,0.31242,1.09876,0.43188,0.88600,-0.29210,0.36012,-0.42503,-0.82207,0.37889,0.18537,-0.48875,-0.85250,2,0.16381,1.12069,0.47420,0.70230,-0.71007,-0.05077,-0.69723,-0.67170,-0.25038,0.14368,0.21124,-0.96682,0,7,0.54636,-0.76878,0.06082,-0.00021,0.00001,-0.00001,-0.00042,1,7,-0.74451,-0.94478,0.00000,3.00004,0.50336,-0.78760,0.78758,2,4,-0.07801,-0.96572,0.04467,0.70182,3,8,-0.00021,-0.00154,-0.00270,-0.00275,0.01342,0.00345,-0.00004,0.54864,4,8,0.00110,-0.10799,-0.08708,0.53375,1.04682,-0.15736,-0.25464,0.539190.00000,-14.20287
,,,1668224060805201,0,0.13086,1.00934,0.33655,-0.92869,0.08917,0.35998,0.05078,0.99210,-0.11473,-0.36737,-0.08827,-0.92588,1,0.31242,1.09876,0.43188,0.88600,-0.29210,0.36012,-0.42503,-0.82207,0.37889,0.18537,-0.48875,-0.85250,2,0.16381,1.12069,0.47420,0.70230,-0.71007,-0.05077,-0.69723,-0.67170,-0.25038,0.14368,0.21124,-0.96682,0,7,0.54636,-0.76878,0.06095,-0.00021,0.00001,-0.00001,-0.00042,1,7,-0.74451,-0.94478,0.00000,3.00004,0.50336,-0.78760,0.78758,2,4,-0.07801,-0.96572,0.04467,0.70182,3,8,-0.00021,-0.00154,-0.00270,-0.00275,0.01342,0.00345,-0.00004,0.54856,4,8,0.00110,-0.10799,-0.08708,0.53375,1.04682,-0.15736,-0.25464,0.538840.00000,-14.06885
,,,1668224060724201,0,0.13078,1.00936,0.33675,-0.92869,0.08917,0.35998,0.05078,0.99210,-0.11473,-0.36737,-0.08827,-0.92588,1,0.31242,1.09876,0.43188,0.88600,-0.29210,0.36012,-0.42503,-0.82207,0.37889,0.18537,-0.48875,-0.85250,2,0.16381,1.12069,0.47420,0.70230,-0.71007,-0.05077,-0.69723,-0.67170,-0.25038,0.14368,0.21124,-0.96682,0,7,0.54636,-0.76878,0.06073,-0.00021,0.00001,-0.00001,-0.00042,1,7,-0.74451,-0.94478,0.00000,3.00004,0.50336,-0.78760,0.78758,2,4,-0.07801,-0.96572,0.04467,0.70182,3,8,-0.00021,-0.00154,-0.00270,-0.00275,0.01342,0.00345,-0.00004,0.54877,4,8,0.00110,-0.10799,-0.08708,0.53375,1.04682,-0.15736,-0.25464,0.539020.00000,-14.20287
,,,1668224060788201,0,0.13086,1.00934,0.33655,-0.92869,0.08917,0.35998,0.05078,0.99210,-0.11473,-0.36737,-0.08827,-0.92588,1,0.31242,1.09876,0.43188,0.88600,-0.29210,0.36012,-0.42503,-0.82207,0.37889,0.18537,-0.48875,-0.85250,2,0.16381,1.12069,0.47420,0.70230,-0.71007,-0.05077,-0.69723,-0.67170,-0.25038,0.14368,0.21124,-0.96682,0,7,0.54636,-0.76878,0.06095,-0.00021,0.00001,-0.00001,-0.00042,1,7,-0.74451,-0.94478,0.00000,3.00004,0.50336,-0.78760,0.78758,2,4,-0.07801,-0.96572,0.04467,0.70182,3,8,-0.00021,-0.00154,-0.00270,-0.00275,0.01342,0.00345,-0.00004,0.54843,4,8,0.00110,-0.10799,-0.08708,0.53375,1.04682,-0.15736,-0.25464,0.539050.00000,-14.06885
40466,25, 0: 0: 0:843,
,,,1668224061029201,0,0.13105,1.00928,0.33607,-0.92867,0.08933,0.35998,0.05096,0.99209,-0.11473,-0.36738,-0.08821,-0.92588,1,0.31242,1.09876,0.43188,0.88600,-0.29210,0.36012,-0.42503,-0.82207,0.37889,0.18537,-0.48875,-0.85250,2,0.16381,1.12069,0.47420,0.70230,-0.71007,-0.05077,-0.69723,-0.67170,-0.25038,0.14368,0.21124,-0.96682,0,7,0.54636,-0.76878,0.06147,-0.00003,0.00001,-0.00001,-0.00042,1,7,-0.74451,-0.94478,0.00000,3.00004,0.50336,-0.78760,0.78758,2,4,-0.07801,-0.96572,0.04467,0.70182,3,8,-0.00021,-0.00154,-0.00270,-0.00275,0.01342,0.00345,-0.00004,0.54862,4,8,0.00110,-0.10799,-0.08708,0.53375,1.04682,-0.15736,-0.25464,0.538820.00000,-14.01947
,,,1668224060953201,0,0.13088,1.00933,0.33649,-0.92867,0.08933,0.35998,0.05096,0.99209,-0.11473,-0.36738,-0.08821,-0.92588,1,0.31242,1.09876,0.43188,0.88600,-0.29210,0.36012,-0.42503,-0.82207,0.37889,0.18537,-0.48875,-0.85250,2,0.16381,1.12069,0.47420,0.70230,-0.71007,-0.05077,-0.69723,-0.67170,-0.25038,0.14368,0.21124,-0.96682,0,7,0.54636,-0.76878,0.06100,-0.00003,0.00001,-0.00001,-0.00042,1,7,-0.74451,-0.94478,0.00000,3.00004,0.50336,-0.78760,0.78758,2,4,-0.07801,-0.96572,0.04467,0.70182,3,8,-0.00021,-0.00154,-0.00270,-0.00275,0.01342,0.00345,-0.00004,0.54895,4,8,0.00110,-0.10799,-0.08711,0.53377,1.04682,-0.15736,-0.25464,0.538900.00000,-14.01947
,,,1668224061021201,0,0.13105,1.00928,0.33607,-0.92867,0.08933,0.35998,0.05096,0.99209,-0.11473,-0.36738,-0.08821,-0.92588,1,0.31242,1.09876,0.43188,0.88600,-0.29210,0.36012,-0.42503,-0.82207,0.37889,0.18537,-0.48875,-0.85250,2,0.16381,1.12069,0.47420,0.70230,-0.71007,-0.05077,-0.69723,-0.67170,-0.25038,0.14368,0.21124,-0.96682,0,7,0.54636,-0.76878,0.06147,-0.00003,0.00001,-0.00001,-0.00042,1,7,-0.74451,-0.94478,0.00000,3.00004,0.50336,-0.78760,0.78758,2,4,-0.07801,-0.96572,0.04467,0.70182,3,8,-0.00021,-0.00154,-0.00270,-0.00275,0.01342,0.00345,-0.00004,0.54862,4,8,0.00110,-0.10799,-0.08708,0.53375,1.04682,-0.15736,-0.25464,0.538820.00000,-14.02300
,,,1668224060937201,0,0.13087,1.00934,0.33653,-0.92867,0.08933,0.35998,0.05096,0.99209,-0.11473,-0.36738,-0.08821,-0.92588,1,0.31242,1.09876,0.43188,0.88600,-0.29210,0.36012,-0.42503,-0.82207,0.37889,0.18537,-0.48875,-0.85250,2,0.16381,1.12069,0.47420,0.70230,-0.71007,-0.05077,-0.69723,-0.67170,-0.25038,0.14368,0.21124,-0.96682,0,7,0.54636,-0.76878,0.06097,-0.00003,0.00001,-0.00001,-0.00042,1,7,-0.74451,-0.94478,0.00000,3.00004,0.50336,-0.78760,0.78758,2,4,-0.07801,-0.96572,0.04467,0.70182,3,8,-0.00021,-0.00154,-0.00270,-0.00275,0.01342,0.00345,-0.00004,0.54848,4,8,0.00110,-0.10799,-0.08708,0.53375,1.04682,-0.15736,-0.25464,0.538800.00000,-14.01947
,,,1668224061004201,0,0.13099,1.00930,0.33622,-0.92867,0.08933,0.35998,0.05096,0.99209,-0.11473,-0.36738,-0.08821,-0.92588,1,0.31242,1.09876,0.43188,0.88600,-0.29210,0.36012,-0.42503,-0.82207,0.37889,0.18537,-0.48875,-0.85250,2,0.16381,1.12069,0.47420,0.70230,-0.71007,-0.05077,-0.69723,-0.67170,-0.25038,0.14368,0.21124,-0.96682,0,7,0.54636,-0.76878,0.06130,-0.00003,0.00001,-0.00001,-0.00042,1,7,-0.74451,-0.94478,0.00000,3.00004,0.50336,-0.78760,0.78758,2,4,-0.07801,-0.96572,0.04467,0.70182,3,8,-0.00021,-0.00154,-0.00270,-0.00275,0.01342,0.00345,-0.00004,0.54885,4,8,0.00110,-0.10799,-0.08708,0.53375,1.04682,-0.15736,-0.25464,0.538910.00000,-14.02300
,,,1668224060922201,0,0.13086,1.00934,0.33654,-0.92867,0.08933,0.35998,0.05096,0.99209,-0.11473,-0.36738,-0.08821,-0.92588,1,0.31242,1.09876,0.43188,0.88600,-0.29210,0.36012,-0.42503,-0.82207,0.37889,0.18537,-0.48875,-0.85250,2,0.16381,1.12069,0.47420,0.70230,-0.71007,-0.05077,-0.69723,-0.67170,-0.25038,0.14368,0.21124,-0.96682,0,7,0.54636,-0.76878,0.06096,-0.00003,0.00001,-0.00001,-0.00042,1,7,-0.74451,-0.94478,0.00000,3.00004,0.50336,-0.78760,0.78758,2,4,-0.07801,-0.96572,0.04467,0.70182,3,8,-0.00021,-0.00154,-0.00270,-0.00275,0.01342,0.00345,-0.00004,0.54873,4,8,0.00110,-0.10799,-0.08708,0.53375,1.04682,-0.15736,-0.25464,0.538970.00000,-14.01947
,,,1668224060988201,0,0.13094,1.00931,0.33633,-0.92867,0.08933,0.35998,0.05096,0.99209,-0.11473,-0.36738,-0.08821,-0.92588,1,0.31242,1.09876,0.43188,0.88600,-0.29210,0.36012,-0.42503,-0.82207,0.37889,0.18537,-0.48875,-0.85250,2,0.16381,1.12069,0.47420,0.70230,-0.71007,-0.05077,-0.69723,-0.67170,-0.25038,0.14368,0.21124,-0.96682,0,7,0.54636,-0.76878,0.06118,-0.00003,0.00001,-0.00001,-0.00042,1,7,-0.74451,-0.94478,0.00000,3.00004,0.50336,-0.78760,0.78758,2,4,-0.07801,-0.96572,0.04467,0.70182,3,8,-0.00021,-0.00154,-0.00270,-0.00275,0.01342,0.00345,-0.00004,0.54878,4,8,0.00110,-0.10799,-0.08711,0.53377,1.04682,-0.15736,-0.25464,0.538940.00000,-14.02300
,,,1668224060840201,0,0.13086,1.00934,0.33654,-0.92869,0.08917,0.35998,0.05078,0.99210,-0.11473,-0.36737,-0.08827,-0.92588,1,0.31242,1.09876,0.43188,0.88600,-0.29210,0.36012,-0.42503,-0.82207,0.37889,0.18537,-0.48875,-0.85250,2,0.16381,1.12069,0.47420,0.70230,-0.71007,-0.05077,-0.69723,-0.67170,-0.25038,0.14368,0.21124,-0.96682,0,7,0.54636,-0.76878,0.06095,-0.00021,0.00001,-0.00001,-0.00042,1,7,-0.74451,-0.94478,0.00000,3.00004,0.50336,-0.78760,0.78758,2,4,-0.07801,-0.96572,0.04467,0.70182,3,8,-0.00021,-0.00154,-0.00270,-0.00275,0.01342,0.00345,-0.00004,0.54848,4,8,0.00110,-0.10799,-0.08708,0.53375,1.04682,-0.15736,-0.25464,0.539130.00000,-14.02653
,,,1668224060972201,0,0.13091,1.00932,0.33643,-0.92867,0.08933,0.35998,0.05096,0.99209,-0.11473,-0.36738,-0.08821,-0.92588,1,0.31242,1.09876,0.43188,0.88600,-0.29210,0.36012,-0.42503,-0.82207,0.37889,0.18537,-0.48875,-0.85250,2,0.16381,1.12069,0.47420,0.70230,-0.71007,-0.05077,-0.69723,-0.67170,-0.25038,0.14368,0.21124,-0.96682,0,7,0.54636,-0.76878,0.06108,-0.00003,0.00001,-0.00001,-0.00042,1,7,-0.74451,-0.94478,0.00000,3.00004,0.50336,-0.78760,0.78758,2,4,-0.07801,-0.96572,0.04467,0.70182,3,8,-0.00021,-0.00154,-0.00270,-0.00275,0.01342,0.00345,-0.00004,0.54867,4,8,0.00110,-0.10799,-0.08711,0.53377,1.04682,-0.15736,-0.25464,0.538960.00000,-14.02300
,,,1668224060966201,0,0.13088,1.00933,0.33649,-0.92867,0.08933,0.35998,0.05096,0.99209,-0.11473,-0.36738,-0.08821,-0.92588,1,0.31242,1.09876,0.43188,0.88600,-0.29210,0.36012,-0.42503,-0.82207,0.37889,0.18537,-0.48875,-0.85250,2,0.16381,1.12069,0.47420,0.70230,-0.71007,-0.05077,-0.69723,-0.67170,-0.25038,0.14368,0.21124,-0.96682,0,7,0.54636,-0.76878,0.06100,-0.00003,0.00001,-0.00001,-0.00042,1,7,-0.74451,-0.94478,0.00000,3.00004,0.50336,-0.78760,0.78758,2,4,-0.07801,-0.96572,0.04467,0.70182,3,8,-0.00021,-0.00154,-0.00270,-0.00275,0.01342,0.00345,-0.00004,0.54895,4,8,0.00110,-0.10799,-0.08711,0.53377,1.04682,-0.15736,-0.25464,0.538900.00000,-14.02300
48146,30, 0: 0: 1:  3,
,,,1668224061185201,0,0.13203,1.00896,0.33353,-0.92867,0.08933,0.35998,0.05096,0.99209,-0.11473,-0.36738,-0.08821,-0.92588,1,0.31242,1.09876,0.43188,0.88600,-0.29210,0.36012,-0.42503,-0.82207,0.37889,0.18537,-0.48875,-0.85250,2,0.16381,1.12069,0.47420,0.70230,-0.71007,-0.05077,-0.69723,-0.67170,-0.25038,0.14368,0.21124,-0.96682,0,7,0.54636,-0.76878,0.06421,-0.00003,0.00001,-0.00001,-0.00042,1,7,-0.74451,-0.94478,0.00000,3.00004,0.50336,-0.78760,0.78758,2,4,-0.07801,-0.96572,0.04467,0.70182,3,8,-0.00021,-0.00154,-0.00270,-0.00275,0.01342,0.00345,-0.00004,0.54854,4,8,0.00110,-0.10799,-0.08708,0.53375,1.04682,-0.15736,-0.25464,0.538740.00000,-13.84665
,,,1668224061104201,0,0.13149,1.00914,0.33492,-0.92867,0.08933,0.35998,0.05096,0.99209,-0.11473,-0.36738,-0.08821,-0.92588,1,0.31242,1.09876,0.43188,0.88600,-0.29210,0.36012,-0.42503,-0.82207,0.37889,0.18537,-0.48875,-0.85250,2,0.16381,1.12069,0.47420,0.70230,-0.71007,-0.05077,-0.69723,-0.67170,-0.25038,0.14368,0.21124,-0.96682,0,7,0.54636,-0.76878,0.06270,-0.00003,0.00001,-0.00001,-0.00042,1,7,-0.74451,-0.94478,0.00000,3.00004,0.50336,-0.78760,0.78758,2,4,-0.07801,-0.96572,0.04467,0.70182,3,8,-0.00021,-0.00154,-0.00270,-0.00275,0.01342,0.00345,-0.00004,0.54849,4,8,0.00110,-0.10799,-0.08708,0.53375,1.04682,-0.15736,-0.25464,0.539000.00000,-13.97009
,,,1668224061168201,0,0.13192,1.00900,0.33382,-0.92867,0.08933,0.35998,0.05096,0.99209,-0.11473,-0.36738,-0.08821,-0.92588,1,0.31242,1.09876,0.43188,0.88600,-0.29210,0.36012,-0.42503,-0.82207,0.37889,0.18537,-0.48875,-0.85250,2,0.16381,1.12069,0.47420,0.70230,-0.71007,-0.05077,-0.69723,-0.67170,-0.25038,0.14368,0.21124,-0.96682,0,7,0.54636,-0.76878,0.06389,-0.00003,0.00001,-0.00001,-0.00042,1,7,-0.74451,-0.94478,0.00000,3.00004,0.50336,-0.78760,0.78758,2,4,-0.07801,-0.96572,0.04467,0.70182,3,8,-0.00021,-0.00154,-0.00270,-0.00275,0.01342,0.00345,-0.00004,0.54877,4,8,0.00110,-0.10799,-0.08708,0.53375,1.04682,-0.15736,-0.25464,0.538720.00000,-13.84665
,,,1668224061021201,0,0.13105,1.00928,0.33607,-0.92867,0.08933,0.35998,0.05096,0.99209,-0.11473,-0.36738,-0.08821,-0.92588,1,0.31242,1.09876,0.43188,0.88600,-0.29210,0.36012,-0.42503,-0.82207,0.37889,0.18537,-0.48875,-0.85250,2,0.16381,1.12069,0.47420,0.70230,-0.71007,-0.05077,-0.69723,-0.67170,-0.25038,0.14368,0.21124,-0.96682,0,7,0.54636,-0.76878,0.06147,-0.00003,0.00001,-0.00001,-0.00042,1,7,-0.74451,-0.94478,0.00000,3.00004,0.50336,-0.78760,0.78758,2,4,-0.07801,-0.96572,0.04467,0.70182,3,8,-0.00021,-0.00154,-0.00270,-0.00275,0.01342,0.00345,-0.00004,0.54862,4,8,0.00110,-0.10799,-0.08708,0.53375,1.04682,-0.15736,-0.25464,0.538820.00000,-14.02300
,,,1668224061085201,0,0.13138,1.00917,0.33520,-0.92867,0.08933,0.35998,0.05096,0.99209,-0.11473,-0.36738,-0.08821,-0.92588,1,0.31242,1.09876,0.43188,0.88600,-0.29210,0.36012,-0.42503,-0.82207,0.37889,0.18537,-0.48875,-0.85250,2,0.16381,1.12069,0.47420,0.70230,-0.71007,-0.05077,-0.69723,-0.67170,-0.25038,0.14368,0.21124,-0.96682,0,7,0.54636,-0.76878,0.06240,-0.00003,0.00001,-0.00001,-0.00042,1,7,-0.74451,-0.94478,0.00000,3.00004,0.50336,-0.78760,0.78758,2,4,-0.07801,-0.96572,0.04467,0.70182,3,8,-0.00021,-0.00154,-0.00270,-0.00275,0.01342,0.00345,-0.00004,0.54887,4,8,0.00110,-0.10799,-0.08711,0.53377,1.04682,-0.15736,-0.25464,0.538940.00000,-14.01947
,,,1668224061155201,0,0.13181,1.00904,0.33411,-0.92867,0.08933,0.35998,0.05096,0.99209,-0.11473,-0.36738,-0.08821,-0.92588,1,0.31242,1.09876,0.43188,0.88600,-0.29210,0.36012,-0.42503,-0.82207,0.37889,0.18537,-0.48875,-0.85250,2,0.16381,1.12069,0.47420,0.70230,-0.71007,-0.05077,-0.69723,-0.67170,-0.25038,0.14368,0.21124,-0.96682,0,7,0.54636,-0.76878,0.06358,-0.00003,0.00001,-0.00001,-0.00042,1,7,-0.74451,-0.94478,0.00000,3.00004,0.50336,-0.78760,0.78758,2,4,-0.07801,-0.96572,0.04467,0.70182,3,8,-0.00021,-0.00154,-0.00270,-0.00275,0.01342,0.00345,-0.00004,0.54884,4,8,0.00110,-0.10799,-0.08708,0.53375,1.04682,-0.15736,-0.25464,0.538930.00000,-13.84665
,,,1668224061070201,0,0.13128,1.00920,0.33547,-0.92867,0.08933,0.35998,0.05096,0.99209,-0.11473,-0.36738,-0.08821,-0.92588,1,0.31242,1.09876,0.43188,0.88600,-0.29210,0.36012,-0.42503,-0.82207,0.37889,0.18537,-0.48875,-0.85250,2,0.16381,1.12069,0.47420,0.70230,-0.71007,-0.05077,-0.69723,-0.67170,-0.25038,0.14368,0.21124,-0.96682,0,7,0.54636,-0.76878,0.06211,-0.00003,0.00001,-0.00001,-0.00042,1,7,-0.74451,-0.94478,0.00000,3.00004,0.50336,-0.78760,0.78758,2,4,-0.07801,-0.96572,0.04467,0.70182,3,8,-0.00021,-0.00154,-0.00270,-0.00275,0.01342,0.00345,-0.00004,0.54880,4,8,0.00110,-0.10799,-0.08708,0.53375,1.04682,-0.15736,-0.25464,0.538810.00000,-14.01947
,,,1668224061136201,0,0.13170,1.00907,0.33438,-0.92867,0.08933,0.35998,0.05096,0.99209,-0.11473,-0.36738,-0.08821,-0.92588,1,0.31242,1.09876,0.43188,0.88600,-0.29210,0.36012,-0.42503,-0.82207,0.37889,0.18537,-0.48875,-0.85250,2,0.16381,1.12069,0.47420,0.70230,-0.71007,-0.05077,-0.69723,-0.67170,-0.25038,0.14368,0.21124,-0.96682,0,7,0.54636,-0.76878,0.06329,-0.00003,0.00001,-0.00001,-0.00042,1,7,-0.74451,-0.94478,0.00000,3.00004,0.50336,-0.78760,0.78758,2,4,-0.07801,-0.96572,0.04467,0.70182,3,8,-0.00021,-0.00154,-0.00270,-0.00275,0.01342,0.00345,-0.00004,0.54883,4,8,0.00110,-0.10799,-0.08708,0.53375,1.04682,-0.15736,-0.25464,0.538770.00000,-13.97009
,,,1668224061051201,0,0.13119,1.00923,0.33570,-0.92867,0.08933,0.35998,0.05096,0.99209,-0.11473,-0.36738,-0.08821,-0.92588,1,0.31242,1.09876,0.43188,0.88600,-0.29210,0.36012,-0.42503,-0.82207,0.37889,0.18537,-0.48875,-0.85250,2,0.16381,1.12069,0.47420,0.70230,-0.71007,-0.05077,-0.69723,-0.67170,-0.25038,0.14368,0.21124,-0.96682,0,7,0.54636,-0.76878,0.06186,-0.00003,0.00001,-0.00001,-0.00042,1,7,-0.74451,-0.94478,0.00000,3.00004,0.50336,-0.78760,0.78758,2,4,-0.07801,-0.96572,0.04467,0.70182,3,8,-0.00021,-0.00154,-0.00270,-0.00275,0.01342,0.00345,-0.00004,0.54887,4,8,0.00110,-0.10799,-0.08708,0.53375,1.04682,-0.15736,-0.25464,0.538950.00000,-14.01947
,,,1668224061120201,0,0.13160,1.00910,0.33464,-0.92867,0.08933,0.35998,0.05096,0.99209,-0.11473,-0.36738,-0.08821,-0.92588,1,0.31242,1.09876,0.43188,0.88600,-0.29210,0.36012,-0.42503,-0.82207,0.37889,0.18537,-0.48875,-0.85250,2,0.16381,1.12069,0.47420,0.70230,-0.71007,-0.05077,-0.69723,-0.67170,-0.25038,0.14368,0.21124,-0.96682,0,7,0.54636,-0.76878,0.06300,-0.00003,0.00001,-0.00001,-0.00042,1,7,-0.74451,-0.94478,0.00000,3.00004,0.50336,-0.78760,0.78758,2,4,-0.07801,-0.96572,0.04467,0.70182,3,8,-0.00021,-0.00154,-0.00270,-0.00275,0.01342,0.00345,-0.00004,0.54874,4,8,0.00110,-0.10799,-0.08711,0.53377,1.04682,-0.15736,-0.25464,0.538670.00000,-13.97009
55826,34, 0: 0: 1:163,
,,,1668224061349201,0,0.13302,1.00865,0.33098,-0.92867,0.08933,0.35998,0.05096,0.99209,-0.11473,-0.36738,-0.08821,-0.92588,1,0.31242,1.09876,0.43188,0.88600,-0.29210,0.36012,-0.42503,-0.82207,0.37889,0.18537,-0.48875,-0.85250,2,0.16381,1.12069,0.47420,0.70230,-0.71007,-0.05077,-0.69723,-0.67170,-0.25038,0.14368,0.21124,-0.96682,0,7,0.54636,-0.76878,0.06667,-0.00003,0.00001,-0.00001,-0.00042,1,7,-0.74451,-0.94478,0.00000,3.00004,0.50336,-0.78760,0.78758,2,4,-0.07801,-0.96572,0.04467,0.70182,3,8,-0.00021,-0.00154,-0.00270,-0.00275,0.01342,0.00345,-0.00004,0.54885,4,8,0.00110,-0.10799,-0.08708,0.53375,1.04682,-0.15736,-0.25464,0.538760.00000,-13.49043
,,,1668224061345201,0,0.13292,1.00868,0.33125,-0.92867,0.08933,0.35998,0.05096,0.99209,-0.11473,-0.36738,-0.08821,-0.92588,1,0.31242,1.09876,0.43188,0.88600,-0.29210,0.36012,-0.42503,-0.82207,0.37889,0.18537,-0.48875,-0.85250,2,0.16381,1.12069,0.47420,0.70230,-0.71007,-0.05077,-0.69723,-0.67170,-0.25038,0.14368,0.21124,-0.96682,0,7,0.54636,-0.76878,0.06667,-0.00003,0.00001,-0.00001,-0.00042,1,7,-0.74451,-0.94478,0.00000,3.00004,0.50336,-0.78760,0.78758,2,4,-0.07801,-0.96572,0.04467,0.70182,3,8,-0.00021,-0.00154,-0.00270,-0.00275,0.01342,0.00345,-0.00004,0.54885,4,8,0.00110,-0.10799,-0.08708,0.53375,1.04682,-0.15736,-0.25464,0.538760.00000,-13.49043
,,,1668224061268201,0,0.13254,1.00880,0.33223,-0.92867,0.08933,0.35998,0.05096,0.99209,-0.11473,-0.36738,-0.08821,-0.92588,1,0.31242,1.09876,0.43188,0.88600,-0.29210,0.36012,-0.42503,-0.82207,0.37889,0.18537,-0.48875,-0.85250,2,0.16381,1.12069,0.47420,0.70230,-0.71007,-0.05077,-0.69723,-0.67170,-0.25038,0.14368,0.21124,-0.96682,0,7,0.54636,-0.76878,0.06561,-0.00003,0.00001,-0.00001,-0.00042,1,7,-0.74451,-0.94478,0.00000,3.00004,0.50336,-0.78760,0.78758,2,4,-0.07801,-0.96572,0.04467,0.70182,3,8,-0.00021,-0.00154,-0.00270,-0.00275,0.01342,0.00345,-0.00004,0.54819,4,8,0.00110,-0.10799,-0.08708,0.53375,1.04682,-0.15736,-0.25464,0.539020.00000,-13.74790
,,,1668224061333201,0,0.13292,1.00868,0.33125,-0.92867,0.08933,0.35998,0.05096,0.99209,-0.11473,-0.36738,-0.08821,-0.92588,1,0.31242,1.09876,0.43188,0.88600,-0.29210,0.36012,-0.42503,-0.82207,0.37889,0.18537,-0.48875,-0.85250,2,0.16381,1.12069,0.47420,0.70230,-0.71007,-0.05077,-0.69723,-0.67170,-0.25038,0.14368,0.21124,-0.96682,0,7,0.54636,-0.76878,0.06667,-0.00003,0.00001,-0.00001,-0.00042,1,7,-0.74451,-0.94478,0.00000,3.00004,0.50336,-0.78760,0.78758,2,4,-0.07801,-0.96572,0.04467,0.70182,3,8,-0.00021,-0.00154,-0.00270,-0.00275,0.01342,0.00345,-0.00004,0.54885,4,8,0.00110,-0.10799,-0.08708,0.53375,1.04682,-0.15736,-0.25464,0.538760.00000,-13.58919
,,,1668224061252201,0,0.13245,1.00883,0.33247,-0.92867,0.08933,0.35998,0.05096,0.99209,-0.11473,-0.36738,-0.08821,-0.92588,1,0.31242,1.09876,0.43188,0.88600,-0.29210,0.36012,-0.42503,-0.82207,0.37889,0.18537,-0.48875,-0.85250,2,0.16381,1.12069,0.47420,0.70230,-0.71007,-0.05077,-0.69723,-0.67170,-0.25038,0.14368,0.21124,-0.96682,0,7,0.54636,-0.76878,0.06535,-0.00003,0.00001,-0.00001,-0.00042,1,7,-0.74451,-0.94478,0.00000,3.00004,0.50336,-0.78760,0.78758,2,4,-0.07801,-0.96572,0.04467,0.70182,3,8,-0.00021,-0.00154,-0.00270,-0.00275,0.01342,0.00345,-0.00004,0.54878,4,8,0.00110,-0.10799,-0.08711,0.53377,1.04682,-0.15736,-0.25464,0.539040.00000,-13.74790
,,,1668224061316201,0,0.13282,1.00871,0.33149,-0.92867,0.08933,0.35998,0.05096,0.99209,-0.11473,-0.36738,-0.08821,-0.92588,1,0.31242,1.09876,0.43188,0.88600,-0.29210,0.36012,-0.42503,-0.82207,0.37889,0.18537,-0.48875,-0.85250,2,0.16381,1.12069,0.47420,0.70230,-0.71007,-0.05077,-0.69723,-0.67170,-0.25038,0.14368,0.21124,-0.96682,0,7,0.54636,-0.76878,0.06641,-0.00003,0.00001,-0.00001,-0.00042,1,7,-0.74451,-0.94478,0.00000,3.00004,0.50336,-0.78760,0.78758,2,4,-0.07801,-0.96572,0.04467,0.70182,3,8,-0.00021,-0.00154,-0.00270,-0.00275,0.01342,0.00345,-0.00004,0.54861,4,8,0.00110,-0.10799,-0.08708,0.53375,1.04682,-0.15736,-0.25464,0.538850.00000,-13.58919
,,,1668224061236201,0,0.13235,1.00886,0.33270,-0.92867,0.08933,0.35998,0.05096,0.99209,-0.11473,-0.36738,-0.08821,-0.92588,1,0.31242,1.09876,0.43188,0.88600,-0.29210,0.36012,-0.42503,-0.82207,0.37889,0.18537,-0.48875,-0.85250,2,0.16381,1.12069,0.47420,0.70230,-0.71007,-0.05077,-0.69723,-0.67170,-0.25038,0.14368,0.21124,-0.96682,0,7,0.54636,-0.76878,0.06510,-0.00003,0.00001,-0.00001,-0.00042,1,7,-0.74451,-0.94478,0.00000,3.00004,0.50336,-0.78760,0.78758,2,4,-0.07801,-0.96572,0.04467,0.70182,3,8,-0.00021,-0.00154,-0.00270,-0.00275,0.01342,0.00345,-0.00004,0.54884,4,8,0.00110,-0.10799,-0.08711,0.53377,1.04682,-0.15736,-0.25464,0.538720.00000,-13.74790
,,,1668224061300201,0,0.13273,1.00874,0.33174,-0.92867,0.08933,0.35998,0.05096,0.99209,-0.11473,-0.36738,-0.08821,-0.92588,1,0.31242,1.09876,0.43188,0.88600,-0.29210,0.36012,-0.42503,-0.82207,0.37889,0.18537,-0.48875,-0.85250,2,0.16381,1.12069,0.47420,0.70230,-0.71007,-0.05077,-0.69723,-0.67170,-0.25038,0.14368,0.21124,-0.96682,0,7,0.54636,-0.76878,0.06614,-0.00003,0.00001,-0.00001,-0.00042,1,7,-0.74451,-0.94478,0.00000,3.00004,0.50336,-0.78760,0.78758,2,4,-0.07801,-0.96572,0.04467,0.70182,3,8,-0.00021,-0.00154,-0.00270,-0.00275,0.01342,0.00345,-0.00004,0.54839,4,8,0.00110,-0.10799,-0.08708,0.53375,1.04682,-0.15736,-0.25464,0.539130.00000,-13.58919
,,,1668224061155201,0,0.13181,1.00904,0.33411,-0.92867,0.08933,0.35998,0.05096,0.99209,-0.11473,-0.36738,-0.08821,-0.92588,1,0.31242,1.09876,0.43188,0.88600,-0.29210,0.36012,-0.42503,-0.82207,0.37889,0.18537,-0.48875,-0.85250,2,0.16381,1.12069,0.47420,0.70230,-0.71007,-0.05077,-0.69723,-0.67170,-0.25038,0.14368,0.21124,-0.96682,0,7,0.54636,-0.76878,0.06358,-0.00003,0.00001,-0.00001,-0.00042,1,7,-0.74451,-0.94478,0.00000,3.00004,0.50336,-0.78760,0.78758,2,4,-0.07801,-0.96572,0.04467,0.70182,3,8,-0.00021,-0.00154,-0.00270,-0.00275,0.01342,0.00345,-0.00004,0.54884,4,8,0.00110,-0.10799,-0.08708,0.53375,1.04682,-0.15736,-0.25464,0.538930.00000,-13.84665
,,,1668224061218201,0,0.13226,1.00889,0.33295,-0.92867,0.08933,0.35998,0.05096,0.99209,-0.11473,-0.36738,-0.08821,-0.92588,1,0.31242,1.09876,0.43188,0.88600,-0.29210,0.36012,-0.42503,-0.82207,0.37889,0.18537,-0.48875,-0.85250,2,0.16381,1.12069,0.47420,0.70230,-0.71007,-0.05077,-0.69723,-0.67170,-0.25038,0.14368,0.21124,-0.96682,0,7,0.54636,-0.76878,0.06483,-0.00003,0.00001,-0.00001,-0.00042,1,7,-0.74451,-0.94478,0.00000,3.00004,0.50336,-0.78760,0.78758,2,4,-0.07801,-0.96572,0.04467,0.70182,3,8,-0.00021,-0.00154,-0.00270,-0.00275,0.01342,0.00345,-0.00004,0.54831,4,8,0.00110,-0.10799,-0.08708,0.53375,1.04682,-0.15736,-0.25464,0.538950.00000,-13.74790
63506,39, 0: 0: 1:323,
,,,1668224061499201,0,0.13406,1.00832,0.32831,-0.92867,0.08933,0.35998,0.05096,0.99209,-0.11473,-0.36738,-0.08821,-0.92588,1,0.31242,1.09876,0.43188,0.88600,-0.29210,0.36012,-0.42503,-0.82207,0.37889,0.18537,-0.48875,-0.85250,2,0.16381,1.12069,0.47420,0.70230,-0.71007,-0.05077,-0.69723,-0.67170,-0.25038,0.14368,0.21124,-0.96682,0,7,0.54636,-0.76878,0.06985,-0.00003,0.00001,-0.00001,-0.00042,1,7,-0.74451,-0.94478,0.00000,3.00004,0.50336,-0.78760,0.78758,2,4,-0.07801,-0.96572,0.04467,0.70182,3,8,-0.00021,-0.00154,-0.00270,-0.00275,0.01342,0.00345,-0.00004,0.54843,4,8,0.00110,-0.10799,-0.08711,0.53377,1.04682,-0.15736,-0.25464,0.538870.00000,-13.18712
,,,1668224061496201,0,0.13406,1.00832,0.32831,-0.92867,0.08933,0.35998,0.05096,0.99209,-0.11473,-0.36738,-0.08821,-0.92588,1,0.31242,1.09876,0.43188,0.88600,-0.29210,0.36012,-0.42503,-0.82207,0.37889,0.18537,-0.48875,-0.85250,2,0.16381,1.12069,0.47420,0.70230,-0.71007,-0.05077,-0.69723,-0.67170,-0.25038,0.14368,0.21124,-0.96682,0,7,0.54636,-0.76878,0.06953,-0.00003,0.00001,-0.00001,-0.00042,1,7,-0.74451,-0.94478,0.00000,3.00004,0.50336,-0.78760,0.78758,2,4,-0.07801,-0.96572,0.04467,0.70182,3,8,-0.00021,-0.00154,-0.00270,-0.00275,0.01342,0.00345,-0.00004,0.54855,4,8,0.00110,-0.10799,-0.08711,0.53377,1.04682,-0.15736,-0.25464,0.538570.00000,-13.18712
,,,1668224061493201,0,0.13395,1.00835,0.32860,-0.92867,0.08933,0.35998,0.05096,0.99209,-0.11473,-0.36738,-0.08821,-0.92588,1,0.31242,1.09876,0.43188,0.88600,-0.29210,0.36012,-0.42503,-0.82207,0.37889,0.18537,-0.48875,-0.85250,2,0.16381,1.12069,0.47420,0.70230,-0.71007,-0.05077,-0.69723,-0.67170,-0.25038,0.14368,0.21124,-0.96682,0,7,0.54636,-0.76878,0.06953,-0.00003,0.00001,-0.00001,-0.00042,1,7,-0.74451,-0.94478,0.00000,3.00004,0.50336,-0.78760,0.78758,2,4,-0.07801,-0.96572,0.04467,0.70182,3,8,-0.00021,-0.00154,-0.00270,-0.00275,0.01342,0.00345,-0.00004,0.54855,4,8,0.00110,-0.10799,-0.08711,0.53377,1.04682,-0.15736,-0.25464,0.538570.00000,-13.18712
,,,1668224061333201,0,0.13292,1.00868,0.33125,-0.92867,0.08933,0.35998,0.05096,0.99209,-0.11473,-0.36738,-0.08821,-0.92588,1,0.31242,1.09876,0.43188,0.88600,-0.29210,0.36012,-0.42503,-0.82207,0.37889,0.18537,-0.48875,-0.85250,2,0.16381,1.12069,0.47420,0.70230,-0.71007,-0.05077,-0.69723,-0.67170,-0.25038,0.14368,0.21124,-0.96682,0,7,0.54636,-0.76878,0.06667,-0.00003,0.00001,-0.00001,-0.00042,1,7,-0.74451,-0.94478,0.00000,3.00004,0.50336,-0.78760,0.78758,2,4,-0.07801,-0.96572,0.04467,0.70182,3,8,-0.00021,-0.00154,-0.00270,-0.00275,0.01342,0.00345,-0.00004,0.54885,4,8,0.00110,-0.10799,-0.08708,0.53375,1.04682,-0.15736,-0.25464,0.538760.00000,-13.58919
,,,1668224061400201,0,0.13335,1.00854,0.33014,-0.92867,0.08933,0.35998,0.05096,0.99209,-0.11473,-0.36738,-0.08821,-0.92588,1,0.31242,1.09876,0.43188,0.88600,-0.29210,0.36012,-0.42503,-0.82207,0.37889,0.18537,-0.48875,-0.85250,2,0.16381,1.12069,0.47420,0.70230,-0.71007,-0.05077,-0.69723,-0.67170,-0.25038,0.14368,0.21124,-0.96682,0,7,0.54636,-0.76878,0.06787,-0.00003,0.00001,-0.00001,-0.00042,1,7,-0.74451,-0.94478,0.00000,3.00004,0.50336,-0.78760,0.78758,2,4,-0.07801,-0.96572,0.04467,0.70182,3,8,-0.00021,-0.00154,-0.00270,-0.00275,0.01342,0.00345,-0.00004,0.54851,4,8,0.00110,-0.10799,-0.08708,0.53375,1.04682,-0.15736,-0.25464,0.538940.00000,-13.49043
,,,1668224061476201,0,0.13383,1.00839,0.32892,-0.92867,0.08933,0.35998,0.05096,0.99209,-0.11473,-0.36738,-0.08821,-0.92588,1,0.31242,1.09876,0.43188,0.88600,-0.29210,0.36012,-0.42503,-0.82207,0.37889,0.18537,-0.48875,-0.85250,2,0.16381,1.12069,0.47420,0.70230,-0.71007,-0.05077,-0.69723,-0.67170,-0.25038,0.14368,0.21124,-0.96682,0,7,0.54636,-0.76878,0.06919,-0.00003,0.00001,-0.00001,-0.00042,1,7,-0.74451,-0.94478,0.00000,3.00004,0.50336,-0.78760,0.78758,2,4,-0.07801,-0.96572,0.04467,0.70182,3,8,-0.00021,-0.00154,-0.00270,-0.00275,0.01342,0.00345,-0.00004,0.54870,4,8,0.00110,-0.10799,-0.08711,0.53377,1.04682,-0.15736,-0.25464,0.539160.00000,-13.18712
,,,1668224061384201,0,0.13324,1.00858,0.33042,-0.92867,0.08933,0.35998,0.05096,0.99209,-0.11473,-0.36738,-0.08821,-0.92588,1,0.31242,1.09876,0.43188,0.88600,-0.29210,0.36012,-0.42503,-0.82207,0.37889,0.18537,-0.48875,-0.85250,2,0.16381,1.12069,0.47420,0.70230,-0.71007,-0.05077,-0.69723,-0.67170,-0.25038,0.14368,0.21124,-0.96682,0,7,0.54636,-0.76878,0.06756,-0.00003,0.00001,-0.00001,-0.00042,1,7,-0.74451,-0.94478,0.00000,3.00004,0.50336,-0.78760,0.78758,2,4,-0.07801,-0.96572,0.04467,0.70182,3,8,-0.00021,-0.00154,-0.00270,-0.00275,0.01342,0.00345,-0.00004,0.54865,4,8,0.00110,-0.10799,-0.08711,0.53377,1.04682,-0.15736,-0.25464,0.539020.00000,-13.49043
,,,1668224061448201,0,0.13370,1.00843,0.32924,-0.92867,0.08933,0.35998,0.05096,0.99209,-0.11473,-0.36738,-0.08821,-0.92588,1,0.31242,1.09876,0.43188,0.88600,-0.29210,0.36012,-0.42503,-0.82207,0.37889,0.18537,-0.48875,-0.85250,2,0.16381,1.12069,0.47420,0.70230,-0.71007,-0.05077,-0.69723,-0.67170,-0.25038,0.14368,0.21124,-0.96682,0,7,0.54636,-0.76878,0.06884,-0.00003,0.00001,-0.00001,-0.00042,1,7,-0.74451,-0.94478,0.00000,3.00004,0.50336,-0.78760,0.78758,2,4,-0.07801,-0.96572,0.04467,0.70182,3,8,-0.00021,-0.00154,-0.00270,-0.00275,0.01342,0.00345,-0.00004,0.54873,4,8,0.00110,-0.10799,-0.08708,0.53375,1.04682,-0.15736,-0.25464,0.538980.00000,-13.35289
,,,1668224061367201,0,0.13313,1.00861,0.33070,-0.92867,0.08933,0.35998,0.05096,0.99209,-0.11473,-0.36738,-0.08821,-0.92588,1,0.31242,1.09876,0.43188,0.88600,-0.29210,0.36012,-0.42503,-0.82207,0.37889,0.18537,-0.48875,-0.85250,2,0.16381,1.12069,0.47420,0.70230,-0.71007,-0.05077,-0.69723,-0.67170,-0.25038,0.14368,0.21124,-0.96682,0,7,0.54636,-0.76878,0.06726,-0.00003,0.00001,-0.00001,-0.00042,1,7,-0.74451,-0.94478,0.00000,3.00004,0.50336,-0.78760,0.78758,2,4,-0.07801,-0.96572,0.04467,0.70182,3,8,-0.00021,-0.00154,-0.00270,-0.00275,0.01342,0.00345,-0.00004,0.54898,4,8,0.00110,-0.10799,-0.08711,0.53377,1.04682,-0.15736,-0.25464,0.538820.00000,-13.49043
,,,1668224061432201,0,0.13358,1.00847,0.32954,-0.92867,0.08933,0.35998,0.05096,0.99209,-0.11473,-0.36738,-0.08821,-0.92588,1,0.31242,1.09876,0.43188,0.88600,-0.29210,0.36012,-0.42503,-0.82207,0.37889,0.18537,-0.48875,-0.85250,2,0.16381,1.12069,0.47420,0.70230,-0.71007,-0.05077,-0.69723,-0.67170,-0.25038,0.14368,0.21124,-0.96682,0,7,0.54636,-0.76878,0.06851,-0.00003,0.00001,-0.00001,-0.00042,1,7,-0.74451,-0.94478,0.00000,3.00004,0.50336,-0.78760,0.78758,2,4,-0.07801,-0.96572,0.04467,0.70182,3,8,-0.00021,-0.00154,-0.00270,-0.00275,0.01342,0.00345,-0.00004,0.54878,4,8,0.00110,-0.10799,-0.08708,0.53375,1.04682,-0.15736,-0.25464,0.538650.00000,-13.35289
71186,44, 0: 0: 1:483,
,,,1668224061668201,0,0.13506,1.00800,0.32574,-0.92867,0.08933,0.35998,0.05096,0.99209,-0.11473,-0.36738,-0.08821,-0.92588,1,0.31242,1.09876,0.43188,0.88600,-0.29210,0.36012,-0.42503,-0.82207,0.37889,0.18537,-0.48875,-0.85250,2,0.16381,1.12069,0.47420,0.70230,-0.71007,-0.05077,-0.69723,-0.67170,-0.25038,0.14368,0.21124,-0.96682,0,7,0.54636,-0.76878,0.07262,-0.00003,0.00001,-0.00001,-0.00042,1,7,-0.74451,-0.94478,0.00000,3.00004,0.50336,-0.78760,0.78758,2,4,-0.07801,-0.96572,0.04467,0.70182,3,8,-0.00021,-0.00154,-0.00270,-0.00275,0.01342,0.00345,-0.00004,0.54840,4,8,0.00110,-0.10799,-0.08708,0.53375,1.04682,-0.15736,-0.25464,0.538920.00000,-12.66161
,,,1668224061664201,0,0.13506,1.00800,0.32574,-0.92867,0.08933,0.35998,0.05096,0.99209,-0.11473,-0.36738,-0.08821,-0.92588,1,0.31242,1.09876,0.43188,0.88600,-0.29210,0.36012,-0.42503,-0.82207,0.37889,0.18537,-0.48875,-0.85250,2,0.16381,1.12069,0.47420,0.70230,-0.71007,-0.05077,-0.69723,-0.67170,-0.25038,0.14368,0.21124,-0.96682,0,7,0.54636,-0.76878,0.07262,-0.00003,0.00001,-0.00001,-0.00042,1,7,-0.74451,-0.94478,0.00000,3.00004,0.50336,-0.78760,0.78758,2,4,-0.07801,-0.96572,0.04467,0.70182,3,8,-0.00021,-0.00154,-0.00270,-0.00275,0.01342,0.00345,-0.00004,0.54840,4,8,0.00110,-0.10799,-0.08708,0.53375,1.04682,-0.15736,-0.25464,0.538920.00000,-12.82385
,,,1668224061582201,0,0.13453,1.00817,0.32712,-0.92867,0.08933,0.35998,0.05096,0.99209,-0.11473,-0.36738,-0.08821,-0.92588,1,0.31242,1.09876,0.43188,0.88600,-0.29210,0.36012,-0.42503,-0.82207,0.37889,0.18537,-0.48875,-0.85250,2,0.16381,1.12069,0.47420,0.70230,-0.71007,-0.05077,-0.69723,-0.67170,-0.25038,0.14368,0.21124,-0.96682,0,7,0.54636,-0.76878,0.07113,-0.00003,0.00001,-0.00001,-0.00042,1,7,-0.74451,-0.94478,0.00000,3.00004,0.50336,-0.78760,0.78758,2,4,-0.07801,-0.96572,0.04467,0.70182,3,8,-0.00021,-0.00154,-0.00270,-0.00275,0.01342,0.00345,-0.00004,0.54859,4,8,0.00110,-0.10799,-0.08708,0.53375,1.04682,-0.15736,-0.25464,0.538820.00000,-13.00725
,,,1668224061646201,0,0.13494,1.00804,0.32605,-0.92867,0.08933,0.35998,0.05096,0.99209,-0.11473,-0.36738,-0.08821,-0.92588,1,0.31242,1.09876,0.43188,0.88600,-0.29210,0.36012,-0.42503,-0.82207,0.37889,0.18537,-0.48875,-0.85250,2,0.16381,1.12069,0.47420,0.70230,-0.71007,-0.05077,-0.69723,-0.67170,-0.25038,0.14368,0.21124,-0.96682,0,7,0.54636,-0.76878,0.07228,-0.00003,0.00001,-0.00001,-0.00042,1,7,-0.74451,-0.94478,0.00000,3.00004,0.50336,-0.78760,0.78758,2,4,-0.07801,-0.96572,0.04467,0.70182,3,8,-0.00021,-0.00154,-0.00270,-0.00275,0.01342,0.00345,-0.00004,0.54823,4,8,0.00110,-0.10799,-0.08711,0.53377,1.04682,-0.15736,-0.25464,0.538730.00000,-12.82385
,,,1668224061565201,0,0.13444,1.00820,0.32734,-0.92867,0.08933,0.35998,0.05096,0.99209,-0.11473,-0.36738,-0.08821,-0.92588,1,0.31242,1.09876,0.43188,0.88600,-0.29210,0.36012,-0.42503,-0.82207,0.37889,0.18537,-0.48875,-0.85250,2,0.16381,1.12069,0.47420,0.70230,-0.71007,-0.05077,-0.69723,-0.67170,-0.25038,0.14368,0.21124,-0.96682,0,7,0.54636,-0.76878,0.07090,-0.00003,0.00001,-0.00001,-0.00042,1,7,-0.74451,-0.94478,0.00000,3.00004,0.50336,-0.78760,0.78758,2,4,-0.07801,-0.96572,0.04467,0.70182,3,8,-0.00021,-0.00154,-0.00270,-0.00275,0.01342,0.00345,-0.00004,0.54817,4,8,0.00110,-0.10799,-0.08708,0.53375,1.04682,-0.15736,-0.25464,0.538850.00000,-13.00725
,,,1668224061631201,0,0.13482,1.00807,0.32635,-0.92867,0.08933,0.35998,0.05096,0.99209,-0.11473,-0.36738,-0.08821,-0.92588,1,0.31242,1.09876,0.43188,0.88600,-0.29210,0.36012,-0.42503,-0.82207,0.37889,0.18537,-0.48875,-0.85250,2,0.16381,1.12069,0.47420,0.70230,-0.71007,-0.05077,-0.69723,-0.67170,-0.25038,0.14368,0.21124,-0.96682,0,7,0.54636,-0.76878,0.07196,-0.00003,0.00001,-0.00001,-0.00042,1,7,-0.74451,-0.94478,0.00000,3.00004,0.50336,-0.78760,0.78758,2,4,-0.07801,-0.96572,0.04467,0.70182,3,8,-0.00021,-0.00154,-0.00270,-0.00275,0.01342,0.00345,-0.00004,0.54873,4,8,0.00110,-0.10799,-0.08711,0.53377,1.04682,-0.15736,-0.25464,0.538920.00000,-12.82385
,,,1668224061548201,0,0.13435,1.00822,0.32756,-0.92867,0.08933,0.35998,0.05096,0.99209,-0.11473,-0.36738,-0.08821,-0.92588,1,0.31242,1.09876,0.43188,0.88600,-0.29210,0.36012,-0.42503,-0.82207,0.37889,0.18537,-0.48875,-0.85250,2,0.16381,1.12069,0.47420,0.70230,-0.71007,-0.05077,-0.69723,-0.67170,-0.25038,0.14368,0.21124,-0.96682,0,7,0.54636,-0.76878,0.07065,-0.00003,0.00001,-0.00001,-0.00042,1,7,-0.74451,-0.94478,0.00000,3.00004,0.50336,-0.78760,0.78758,2,4,-0.07801,-0.96572,0.04467,0.70182,3,8,-0.00021,-0.00154,-0.00270,-0.00275,0.01342,0.00345,-0.00004,0.54826,4,8,0.00110,-0.10799,-0.08708,0.53375,1.04682,-0.15736,-0.25464,0.538660.00000,-13.00725
,,,1668224061614201,0,0.13472,1.00811,0.32663,-0.92867,0.08933,0.35998,0.05096,0.99209,-0.11473,-0.36738,-0.08821,-0.92588,1,0.31242,1.09876,0.43188,0.88600,-0.29210,0.36012,-0.42503,-0.82207,0.37889,0.18537,-0.48875,-0.85250,2,0.16381,1.12069,0.47420,0.70230,-0.71007,-0.05077,-0.69723,-0.67170,-0.25038,0.14368,0.21124,-0.96682,0,7,0.54636,-0.76878,0.07166,-0.00003,0.00001,-0.00001,-0.00042,1,7,-0.74451,-0.94478,0.00000,3.00004,0.50336,-0.78760,0.78758,2,4,-0.07801,-0.96572,0.04467,0.70182,3,8,-0.00021,-0.00154,-0.00270,-0.00275,0.01342,0.00345,-0.00004,0.54857,4,8,0.00110,-0.10799,-0.08711,0.53377,1.04682,-0.15736,-0.25464,0.538870.00000,-12.82385
,,,1668224061476201,0,0.13383,1.00839,0.32892,-0.92867,0.08933,0.35998,0.05096,0.99209,-0.11473,-0.36738,-0.08821,-0.92588,1,0.31242,1.09876,0.43188,0.88600,-0.29210,0.36012,-0.42503,-0.82207,0.37889,0.18537,-0.48875,-0.85250,2,0.16381,1.12069,0.47420,0.70230,-0.71007,-0.05077,-0.69723,-0.67170,-0.25038,0.14368,0.21124,-0.96682,0,7,0.54636,-0.76878,0.06919,-0.00003,0.00001,-0.00001,-0.00042,1,7,-0.74451,-0.94478,0.00000,3.00004,0.50336,-0.78760,0.78758,2,4,-0.07801,-0.96572,0.04467,0.70182,3,8,-0.00021,-0.00154,-0.00270,-0.00275,0.01342,0.00345,-0.00004,0.54870,4,8,0.00110,-0.10799,-0.08711,0.53377,1.04682,-0.15736,-0.25464,0.539160.00000,-13.18712
,,,1668224061602201,0,0.13462,1.00814,0.32688,-0.92867,0.08933,0.35998,0.05096,0.99209,-0.11473,-0.36738,-0.08821,-0.92588,1,0.31242,1.09876,0.43188,0.88600,-0.29210,0.36012,-0.42503,-0.82207,0.37889,0.18537,-0.48875,-0.85250,2,0.16381,1.12069,0.47420,0.70230,-0.71007,-0.05077,-0.69723,-0.67170,-0.25038,0.14368,0.21124,-0.96682,0,7,0.54636,-0.76878,0.07139,-0.00003,0.00001,-0.00001,-0.00042,1,7,-0.74451,-0.94478,0.00000,3.00004,0.50336,-0.78760,0.78758,2,4,-0.07801,-0.96572,0.04467,0.70182,3,8,-0.00021,-0.00154,-0.00270,-0.00275,0.01342,0.00345,-0.00004,0.54872,4,8,0.00110,-0.10799,-0.08711,0.53377,1.04682,-0.15736,-0.25464,0.538720.00000,-12.82385
78866,49, 0: 0: 1:643,
,,,1668224061827201,0,0.13609,1.00767,0.32309,-0.92867,0.08933,0.35998,0.05096,0.99209,-0.11473,-0.36738,-0.08821,-0.92588,1,0.31242,1.09876,0.43188,0.88600,-0.29210,0.36012,-0.42503,-0.82207,0.37889,0.18537,-0.48875,-0.85250,2,0.16381,1.12069,0.47420,0.70230,-0.71007,-0.05077,-0.69723,-0.67170,-0.25038,0.14368,0.21124,-0.96682,0,7,0.54636,-0.76878,0.07548,-0.00003,0.00001,-0.00001,-0.00042,1,7,-0.74451,-0.94478,0.00000,3.00004,0.50336,-0.78760,0.78758,2,4,-0.07801,-0.96572,0.04467,0.70182,3,8,-0.00021,-0.00154,-0.00270,-0.00275,0.01342,0.00345,-0.00004,0.54893,4,8,0.00110,-0.10799,-0.08708,0.53375,1.04682,-0.15736,-0.25464,0.539020.00000,-12.22780
,,,1668224061745201,0,0.13566,1.00781,0.32421,-0.92867,0.08933,0.35998,0.05096,0.99209,-0.11473,-0.36738,-0.08821,-0.92588,1,0.31242,1.09876,0.43188,0.88600,-0.29210,0.36012,-0.42503,-0.82207,0.37889,0.18537,-0.48875,-0.85250,2,0.16381,1.12069,0.47420,0.70230,-0.71007,-0.05077,-0.69723,-0.67170,-0.25038,0.14368,0.21124,-0.96682,0,7,0.54636,-0.76878,0.07427,-0.00003,0.00001,-0.00001,-0.00042,1,7,-0.74451,-0.94478,0.00000,3.00004,0.50336,-0.78760,0.78758,2,4,-0.07801,-0.96572,0.04467,0.70182,3,8,-0.00021,-0.00154,-0.00270,-0.00275,0.01342,0.00345,-0.00004,0.54859,4,8,0.00110,-0.10799,-0.08711,0.53377,1.04682,-0.15736,-0.25464,0.538940.00000,-12.46058
,,,1668224061811201,0,0.13602,1.00769,0.32326,-0.92867,0.08933,0.35998,0.05096,0.99209,-0.11473,-0.36738,-0.08821,-0.92588,1,0.31242,1.09876,0.43188,0.88600,-0.29210,0.36012,-0.42503,-0.82207,0.37889,0.18537,-0.48875,-0.85250,2,0.16381,1.12069,0.47420,0.70230,-0.71007,-0.05077,-0.69723,-0.67170,-0.25038,0.14368,0.21124,-0.96682,0,7,0.54636,-0.76878,0.07529,-0.00003,0.00001,-0.00001,-0.00042,1,7,-0.74451,-0.94478,0.00000,3.00004,0.50336,-0.78760,0.78758,2,4,-0.07801,-0.96572,0.04467,0.70182,3,8,-0.00021,-0.00154,-0.00270,-0.00275,0.01342,0.00345,-0.00004,0.54897,4,8,0.00110,-0.10799,-0.08708,0.53375,1.04682,-0.15736,-0.25464,0.539020.00000,-12.22780
,,,1668224061664201,0,0.13506,1.00800,0.32574,-0.92867,0.08933,0.35998,0.05096,0.99209,-0.11473,-0.36738,-0.08821,-0.92588,1,0.31242,1.09876,0.43188,0.88600,-0.29210,0.36012,-0.42503,-0.82207,0.37889,0.18537,-0.48875,-0.85250,2,0.16381,1.12069,0.47420,0.70230,-0.71007,-0.05077,-0.69723,-0.67170,-0.25038,0.14368,0.21124,-0.96682,0,7,0.54636,-0.76878,0.07262,-0.00003,0.00001,-0.00001,-0.00042,1,7,-0.74451,-0.94478,0.00000,3.00004,0.50336,-0.78760,0.78758,2,4,-0.07801,-0.96572,0.04467,0.70182,3,8,-0.00021,-0.00154,-0.00270,-0.00275,0.01342,0.00345,-0.00004,0.54840,4,8,0.00110,-0.10799,-0.08708,0.53375,1.04682,-0.15736,-0.25464,0.538920.00000,-12.82385
,,,1668224061731201,0,0.13554,1.00784,0.32450,-0.92867,0.08933,0.35998,0.05096,0.99209,-0.11473,-0.36738,-0.08821,-0.92588,1,0.31242,1.09876,0.43188,0.88600,-0.29210,0.36012,-0.42503,-0.82207,0.37889,0.18537,-0.48875,-0.85250,2,0.16381,1.12069,0.47420,0.70230,-0.71007,-0.05077,-0.69723,-0.67170,-0.25038,0.14368,0.21124,-0.96682,0,7,0.54636,-0.76878,0.07396,-0.00003,0.00001,-0.00001,-0.00042,1,7,-0.74451,-0.94478,0.00000,3.00004,0.50336,-0.78760,0.78758,2,4,-0.07801,-0.96572,0.04467,0.70182,3,8,-0.00021,-0.00154,-0.00270,-0.00275,0.01342,0.00345,-0.00004,0.54839,4,8,0.00110,-0.10799,-0.08711,0.53377,1.04682,-0.15736,-0.25464,0.538850.00000,-12.46058
,,,1668224061795201,0,0.13595,1.00772,0.32346,-0.92867,0.08933,0.35998,0.05096,0.99209,-0.11473,-0.36738,-0.08821,-0.92588,1,0.31242,1.09876,0.43188,0.88600,-0.29210,0.36012,-0.42503,-0.82207,0.37889,0.18537,-0.48875,-0.85250,2,0.16381,1.12069,0.47420,0.70230,-0.71007,-0.05077,-0.69723,-0.67170,-0.25038,0.14368,0.21124,-0.96682,0,7,0.54636,-0.76878,0.07508,-0.00003,0.00001,-0.00001,-0.00042,1,7,-0.74451,-0.94478,0.00000,3.00004,0.50336,-0.78760,0.78758,2,4,-0.07801,-0.96572,0.04467,0.70182,3,8,-0.00021,-0.00154,-0.00270,-0.00275,0.01342,0.00345,-0.00004,0.54849,4,8,0.00110,-0.10799,-0.08711,0.53377,1.04682,-0.15736,-0.25464,0.538830.00000,-12.22780
,,,1668224061713201,0,0.13543,1.00788,0.32480,-0.92867,0.08933,0.35998,0.05096,0.99209,-0.11473,-0.36738,-0.08821,-0.92588,1,0.31242,1.09876,0.43188,0.88600,-0.29210,0.36012,-0.42503,-0.82207,0.37889,0.18537,-0.48875,-0.85250,2,0.16381,1.12069,0.47420,0.70230,-0.71007,-0.05077,-0.69723,-0.67170,-0.25038,0.14368,0.21124,-0.96682,0,7,0.54636,-0.76878,0.07364,-0.00003,0.00001,-0.00001,-0.00042,1,7,-0.74451,-0.94478,0.00000,3.00004,0.50336,-0.78760,0.78758,2,4,-0.07801,-0.96572,0.04467,0.70182,3,8,-0.00021,-0.00154,-0.00270,-0.00275,0.01342,0.00345,-0.00004,0.54856,4,8,0.00110,-0.10799,-0.08708,0.53375,1.04682,-0.15736,-0.25464,0.539050.00000,-12.66161
,,,1668224061780201,0,0.13586,1.00774,0.32368,-0.92867,0.08933,0.35998,0.05096,0.99209,-0.11473,-0.36738,-0.08821,-0.92588,1,0.31242,1.09876,0.43188,0.88600,-0.29210,0.36012,-0.42503,-0.82207,0.37889,0.18537,-0.48875,-0.85250,2,0.16381,1.12069,0.47420,0.70230,-0.71007,-0.05077,-0.69723,-0.67170,-0.25038,0.14368,0.21124,-0.96682,0,7,0.54636,-0.76878,0.07484,-0.00003,0.00001,-0.00001,-0.00042,1,7,-0.74451,-0.94478,0.00000,3.00004,0.50336,-0.78760,0.78758,2,4,-0.07801,-0.96572,0.04467,0.70182,3,8,-0.00021,-0.00154,-0.00270,-0.00275,0.01342,0.00345,-0.00004,0.54874,4,8,0.00110,-0.10799,-0.08711,0.53377,1.04682,-0.15736,-0.25464,0.538900.00000,-12.46058
,,,1668224061696201,0,0.13531,1.00792,0.32510,-0.92867,0.08933,0.35998,0.05096,0.99209,-0.11473,-0.36738,-0.08821,-0.92588,1,0.31242,1.09876,0.43188,0.88600,-0.29210,0.36012,-0.42503,-0.82207,0.37889,0.18537,-0.48875,-0.85250,2,0.16381,1.12069,0.47420,0.70230,-0.71007,-0.05077,-0.69723,-0.67170,-0.25038,0.14368,0.21124,-0.96682,0,7,0.54636,-0.76878,0.07331,-0.00003,0.00001,-0.00001,-0.00042,1,7,-0.74451,-0.94478,0.00000,3.00004,0.50336,-0.78760,0.78758,2,4,-0.07801,-0.96572,0.04467,0.70182,3,8,-0.00021,-0.00154,-0.00270,-0.00275,0.01342,0.00345,-0.00004,0.54824,4,8,0.00110,-0.10799,-0.08708,0.53375,1.04682,-0.15736,-0.25464,0.539010.00000,-12.66161
,,,1668224061764201,0,0.13576,1.00778,0.32394,-0.92867,0.08933,0.35998,0.05096,0.99209,-0.11473,-0.36738,-0.08821,-0.92588,1,0.31242,1.09876,0.43188,0.88600,-0.29210,0.36012,-0.42503,-0.82207,0.37889,0.18537,-0.48875,-0.85250,2,0.16381,1.12069,0.47420,0.70230,-0.71007,-0.05077,-0.69723,-0.67170,-0.25038,0.14368,0.21124,-0.96682,0,7,0.54636,-0.76878,0.07456,-0.00003,0.00001,-0.00001,-0.00042,1,7,-0.74451,-0.94478,0.00000,3.00004,0.50336,-0.78760,0.78758,2,4,-0.07801,-0.96572,0.04467,0.70182,3,8,-0.00021,-0.00154,-0.00270,-0.00275,0.01342,0.00345,-0.00004,0.54843,4,8,0.00110,-0.10799,-0.08711,0.53377,1.04682,-0.15736,-0.25464,0.539010.00000,-12.46058
86546,54, 0: 0: 1:803,
,,,1668224061988201,0,0.13664,1.00750,0.32168,-0.92867,0.08933,0.35998,0.05096,0.99209,-0.11473,-0.36738,-0.08821,-0.92588,1,0.31242,1.09876,0.43188,0.88600,-0.29210,0.36012,-0.42503,-0.82207,0.37889,0.18537,-0.48875,-0.85250,2,0.16381,1.12069,0.47420,0.70230,-0.71007,-0.05077,-0.69723,-0.67170,-0.25038,0.14368,0.21124,-0.96682,0,7,0.54636,-0.76878,0.07700,-0.00003,0.00001,-0.00001,-0.00042,1,7,-0.74451,-0.94478,0.00000,3.00004,0.50336,-0.78760,0.78758,2,4,-0.07801,-0.96572,0.04467,0.70182,3,8,-0.00021,-0.00154,-0.00270,-0.00275,0.01342,0.00345,-0.00004,0.54861,4,8,0.00110,-0.10799,-0.08711,0.53377,1.04682,-0.15736,-0.25464,0.538800.00000,-11.77636
,,,1668224061912201,0,0.13637,1.00758,0.32237,-0.92867,0.08933,0.35998,0.05096,0.99209,-0.11473,-0.36738,-0.08821,-0.92588,1,0.31242,1.09876,0.43188,0.88600,-0.29210,0.36012,-0.42503,-0.82207,0.37889,0.18537,-0.48875,-0.85250,2,0.16381,1.12069,0.47420,0.70230,-0.71007,-0.05077,-0.69723,-0.67170,-0.25038,0.14368,0.21124,-0.96682,0,7,0.54636,-0.76878,0.07626,-0.00003,0.00001,-0.00001,-0.00042,1,7,-0.74451,-0.94478,0.00000,3.00004,0.50336,-0.78760,0.78758,2,4,-0.07801,-0.96572,0.04467,0.70182,3,8,-0.00021,-0.00154,-0.00270,-0.00275,0.01342,0.00345,-0.00004,0.54846,4,8,0.00110,-0.10799,-0.08711,0.53377,1.04682,-0.15736,-0.25464,0.538840.00000,-12.05498
,,,1668224061977201,0,0.13664,1.00750,0.32168,-0.92867,0.08933,0.35998,0.05096,0.99209,-0.11473,-0.36738,-0.08821,-0.92588,1,0.31242,1.09876,0.43188,0.88600,-0.29210,0.36012,-0.42503,-0.82207,0.37889,0.18537,-0.48875,-0.85250,2,0.16381,1.12069,0.47420,0.70230,-0.71007,-0.05077,-0.69723,-0.67170,-0.25038,0.14368,0.21124,-0.96682,0,7,0.54636,-0.76878,0.07700,-0.00003,0.00001,-0.00001,-0.00042,1,7,-0.74451,-0.94478,0.00000,3.00004,0.50336,-0.78760,0.78758,2,4,-0.07801,-0.96572,0.04467,0.70182,3,8,-0.00021,-0.00154,-0.00270,-0.00275,0.01342,0.00345,-0.00004,0.54861,4,8,0.00110,-0.10799,-0.08711,0.53377,1.04682,-0.15736,-0.25464,0.538800.00000,-11.89627
,,,1668224061898201,0,0.13632,1.00760,0.32250,-0.92867,0.08933,0.35998,0.05096,0.99209,-0.11473,-0.36738,-0.08821,-0.92588,1,0.31242,1.09876,0.43188,0.88600,-0.29210,0.36012,-0.42503,-0.82207,0.37889,0.18537,-0.48875,-0.85250,2,0.16381,1.12069,0.47420,0.70230,-0.71007,-0.05077,-0.69723,-0.67170,-0.25038,0.14368,0.21124,-0.96682,0,7,0.54636,-0.76878,0.07612,-0.00003,0.00001,-0.00001,-0.00042,1,7,-0.74451,-0.94478,0.00000,3.00004,0.50336,-0.78760,0.78758,2,4,-0.07801,-0.96572,0.04467,0.70182,3,8,-0.00021,-0.00154,-0.00270,-0.00275,0.01342,0.00345,-0.00004,0.54859,4,8,0.00110,-0.10799,-0.08711,0.53377,1.04682,-0.15736,-0.25464,0.538950.00000,-12.05498
,,,1668224061960201,0,0.13656,1.00752,0.32189,-0.92867,0.08933,0.35998,0.05096,0.99209,-0.11473,-0.36738,-0.08821,-0.92588,1,0.31242,1.09876,0.43188,0.88600,-0.29210,0.36012,-0.42503,-0.82207,0.37889,0.18537,-0.48875,-0.85250,2,0.16381,1.12069,0.47420,0.70230,-0.71007,-0.05077,-0.69723,-0.67170,-0.25038,0.14368,0.21124,-0.96682,0,7,0.54636,-0.76878,0.07678,-0.00003,0.00001,-0.00001,-0.00042,1,7,-0.74451,-0.94478,0.00000,3.00004,0.50336,-0.78760,0.78758,2,4,-0.07801,-0.96572,0.04467,0.70182,3,8,-0.00021,-0.00154,-0.00270,-0.00275,0.01342,0.00345,-0.00004,0.54866,4,8,0.00110,-0.10799,-0.08708,0.53375,1.04682,-0.15736,-0.25464,0.538820.00000,-11.89627
,,,1668224061877201,0,0.13627,1.00761,0.32263,-0.92867,0.08933,0.35998,0.05096,0.99209,-0.11473,-0.36738,-0.08821,-0.92588,1,0.31242,1.09876,0.43188,0.88600,-0.29210,0.36012,-0.42503,-0.82207,0.37889,0.18537,-0.48875,-0.85250,2,0.16381,1.12069,0.47420,0.70230,-0.71007,-0.05077,-0.69723,-0.67170,-0.25038,0.14368,0.21124,-0.96682,0,7,0.54636,-0.76878,0.07597,-0.00003,0.00001,-0.00001,-0.00042,1,7,-0.74451,-0.94478,0.00000,3.00004,0.50336,-0.78760,0.78758,2,4,-0.07801,-0.96572,0.04467,0.70182,3,8,-0.00021,-0.00154,-0.00270,-0.00275,0.01342,0.00345,-0.00004,0.54869,4,8,0.00110,-0.10799,-0.08711,0.53377,1.04682,-0.15736,-0.25464,0.538780.00000,-12.05498
,,,1668224061946201,0,0.13649,1.00754,0.32205,-0.92867,0.08933,0.35998,0.05096,0.99209,-0.11473,-0.36738,-0.08821,-0.92588,1,0.31242,1.09876,0.43188,0.88600,-0.29210,0.36012,-0.42503,-0.82207,0.37889,0.18537,-0.48875,-0.85250,2,0.16381,1.12069,0.47420,0.70230,-0.71007,-0.05077,-0.69723,-0.67170,-0.25038,0.14368,0.21124,-0.96682,0,7,0.54636,-0.76878,0.07660,-0.00003,0.00001,-0.00001,-0.00042,1,7,-0.74451,-0.94478,0.00000,3.00004,0.50336,-0.78760,0.78758,2,4,-0.07801,-0.96572,0.04467,0.70182,3,8,-0.00021,-0.00154,-0.00270,-0.00275,0.01342,0.00345,-0.00004,0.54846,4,8,0.00110,-0.10799,-0.08708,0.53375,1.04682,-0.15736,-0.25464,0.538780.00000,-11.89627
,,,1668224061862201,0,0.13621,1.00763,0.32278,-0.92867,0.08933,0.35998,0.05096,0.99209,-0.11473,-0.36738,-0.08821,-0.92588,1,0.31242,1.09876,0.43188,0.88600,-0.29210,0.36012,-0.42503,-0.82207,0.37889,0.18537,-0.48875,-0.85250,2,0.16381,1.12069,0.47420,0.70230,-0.71007,-0.05077,-0.69723,-0.67170,-0.25038,0.14368,0.21124,-0.96682,0,7,0.54636,-0.76878,0.07582,-0.00003,0.00001,-0.00001,-0.00042,1,7,-0.74451,-0.94478,0.00000,3.00004,0.50336,-0.78760,0.78758,2,4,-0.07801,-0.96572,0.04467,0.70182,3,8,-0.00021,-0.00154,-0.00270,-0.00275,0.01342,0.00345,-0.00004,0.54865,4,8,0.00110,-0.10799,-0.08711,0.53377,1.04682,-0.15736,-0.25464,0.538880.00000,-12.05498
,,,1668224061859201,0,0.13616,1.00765,0.32292,-0.92867,0.08933,0.35998,0.05096,0.99209,-0.11473,-0.36738,-0.08821,-0.92588,1,0.31242,1.09876,0.43188,0.88600,-0.29210,0.36012,-0.42503,-0.82207,0.37889,0.18537,-0.48875,-0.85250,2,0.16381,1.12069,0.47420,0.70230,-0.71007,-0.05077,-0.69723,-0.67170,-0.25038,0.14368,0.21124,-0.96682,0,7,0.54636,-0.76878,0.07567,-0.00003,0.00001,-0.00001,-0.00042,1,7,-0.74451,-0.94478,0.00000,3.00004,0.50336,-0.78760,0.78758,2,4,-0.07801,-0.96572,0.04467,0.70182,3,8,-0.00021,-0.00154,-0.00270,-0.00275,0.01342,0.00345,-0.00004,0.54865,4,8,0.00110,-0.10799,-0.08708,0.53375,1.04682,-0.15736,-0.25464,0.539050.00000,-12.05498
,,,1668224061927201,0,0.13643,1.00756,0.32222,-0.92867,0.08933,0.35998,0.05096,0.99209,-0.11473,-0.36738,-0.08821,-0.92588,1,0.31242,1.09876,0.43188,0.88600,-0.29210,0.36012,-0.42503,-0.82207,0.37889,0.18537,-0.48875,-0.85250,2,0.16381,1.12069,0.47420,0.70230,-0.71007,-0.05077,-0.69723,-0.67170,-0.25038,0.14368,0.21124,-0.96682,0,7,0.54636,-0.76878,0.07642,-0.00003,0.00001,-0.00001,-0.00042,1,7,-0.74451,-0.94478,0.00000,3.00004,0.50336,-0.78760,0.78758,2,4,-0.07801,-0.96572,0.04467,0.70182,3,8,-0.00021,-0.00154,-0.00270,-0.00275,0.01342,0.00345,-0.00004,0.54886,4,8,0.00110,-0.10799,-0.08708,0.53375,1.04682,-0.15736,-0.25464,0.539010.00000,-11.89627
94226,58, 0: 0: 1:963,
,,,1668224062145201,0,0.13794,1.00708,0.31833,-0.92867,0.08933,0.35998,0.05096,0.99209,-0.11473,-0.36738,-0.08821,-0.92588,1,0.31242,1.09876,0.43188,0.88600,-0.29210,0.36012,-0.42503,-0.82207,0.37889,0.18537,-0.48875,-0.85250,2,0.16381,1.12069,0.47420,0.70230,-0.71007,-0.05077,-0.69723,-0.67170,-0.25038,0.14368,0.21124,-0.96682,0,7,0.54636,-0.76878,0.08062,-0.00003,0.00001,-0.00001,-0.00042,1,7,-0.74451,-0.94478,0.00000,3.00004,0.50336,-0.78760,0.78758,2,4,-0.07801,-0.96572,0.04467,0.70182,3,8,-0.00021,-0.00154,-0.00270,-0.00275,0.01342,0.00345,-0.00004,0.54863,4,8,0.00110,-0.10799,-0.08711,0.53377,1.04682,-0.15736,-0.25464,0.538960.00000,-11.33902
,,,1668224062061201,0,0.13728,1.00729,0.32002,-0.92867,0.08933,0.35998,0.05096,0.99209,-0.11473,-0.36738,-0.08821,-0.92588,1,0.31242,1.09876,0.43188,0.88600,-0.29210,0.36012,-0.42503,-0.82207,0.37889,0.18537,-0.48875,-0.85250,2,0.16381,1.12069,0.47420,0.70230,-0.71007,-0.05077,-0.69723,-0.67170,-0.25038,0.14368,0.21124,-0.96682,0,7,0.54636,-0.76878,0.07879,-0.00003,0.00001,-0.00001,-0.00042,1,7,-0.74451,-0.94478,0.00000,3.00004,0.50336,-0.78760,0.78758,2,4,-0.07801,-0.96572,0.04467,0.70182,3,8,-0.00021,-0.00154,-0.00270,-0.00275,0.01342,0.00345,-0.00004,0.54848,4,8,0.00110,-0.10799,-0.08708,0.53375,1.04682,-0.15736,-0.25464,0.538910.00000,-11.62470
,,,1668224062126201,0,0.13784,1.00711,0.31860,-0.92867,0.08933,0.35998,0.05096,0.99209,-0.11473,-0.36738,-0.08821,-0.92588,1,0.31242,1.09876,0.43188,0.88600,-0.29210,0.36012,-0.42503,-0.82207,0.37889,0.18537,-0.48875,-0.85250,2,0.16381,1.12069,0.47420,0.70230,-0.71007,-0.05077,-0.69723,-0.67170,-0.25038,0.14368,0.21124,-0.96682,0,7,0.54636,-0.76878,0.08033,-0.00003,0.00001,-0.00001,-0.00042,1,7,-0.74451,-0.94478,0.00000,3.00004,0.50336,-0.78760,0.78758,2,4,-0.07801,-0.96572,0.04467,0.70182,3,8,-0.00021,-0.00154,-0.00270,-0.00275,0.01342,0.00345,-0.00004,0.54840,4,8,0.00110,-0.10799,-0.08711,0.53377,1.04682,-0.15736,-0.25464,0.538800.00000,-11.33902
,,,1668224062116201,0,0.13772,1.00715,0.31890,-0.92867,0.08933,0.35998,0.05096,0.99209,-0.11473,-0.36738,-0.08821,-0.92588,1,0.31242,1.09876,0.43188,0.88600,-0.29210,0.36012,-0.42503,-0.82207,0.37889,0.18537,-0.48875,-0.85250,2,0.16381,1.12069,0.47420,0.70230,-0.71007,-0.05077,-0.69723,-0.67170,-0.25038,0.14368,0.21124,-0.96682,0,7,0.54636,-0.76878,0.08001,-0.00003,0.00001,-0.00001,-0.00042,1,7,-0.74451,-0.94478,0.00000,3.00004,0.50336,-0.78760,0.78758,2,4,-0.07801,-0.96572,0.04467,0.70182,3,8,-0.00021,-0.00154,-0.00270,-0.00275,0.01342,0.00345,-0.00004,0.54879,4,8,0.00110,-0.10799,-0.08708,0.53375,1.04682,-0.15736,-0.25464,0.538940.00000,-11.33902
,,,1668224062046201,0,0.13713,1.00734,0.32043,-0.92867,0.08933,0.35998,0.05096,0.99209,-0.11473,-0.36738,-0.08821,-0.92588,1,0.31242,1.09876,0.43188,0.88600,-0.29210,0.36012,-0.42503,-0.82207,0.37889,0.18537,-0.48875,-0.85250,2,0.16381,1.12069,0.47420,0.70230,-0.71007,-0.05077,-0.69723,-0.67170,-0.25038,0.14368,0.21124,-0.96682,0,7,0.54636,-0.76878,0.07836,-0.00003,0.00001,-0.00001,-0.00042,1,7,-0.74451,-0.94478,0.00000,3.00004,0.50336,-0.78760,0.78758,2,4,-0.07801,-0.96572,0.04467,0.70182,3,8,-0.00021,-0.00154,-0.00270,-0.00275,0.01342,0.00345,-0.00004,0.54828,4,8,0.00110,-0.10799,-0.08711,0.53377,1.04682,-0.15736,-0.25464,0.538690.00000,-11.77636
,,,1668224062109201,0,0.13772,1.00715,0.31890,-0.92867,0.08933,0.35998,0.05096,0.99209,-0.11473,-0.36738,-0.08821,-0.92588,1,0.31242,1.09876,0.43188,0.88600,-0.29210,0.36012,-0.42503,-0.82207,0.37889,0.18537,-0.48875,-0.85250,2,0.16381,1.12069,0.47420,0.70230,-0.71007,-0.05077,-0.69723,-0.67170,-0.25038,0.14368,0.21124,-0.96682,0,7,0.54636,-0.76878,0.08001,-0.00003,0.00001,-0.00001,-0.00042,1,7,-0.74451,-0.94478,0.00000,3.00004,0.50336,-0.78760,0.78758,2,4,-0.07801,-0.96572,0.04467,0.70182,3,8,-0.00021,-0.00154,-0.00270,-0.00275,0.01342,0.00345,-0.00004,0.54879,4,8,0.00110,-0.10799,-0.08708,0.53375,1.04682,-0.15736,-0.25464,0.538940.00000,-11.62470
,,,1668224062027201,0,0.13698,1.00739,0.32081,-0.92867,0.08933,0.35998,0.05096,0.99209,-0.11473,-0.36738,-0.08821,-0.92588,1,0.31242,1.09876,0.43188,0.88600,-0.29210,0.36012,-0.42503,-0.82207,0.37889,0.18537,-0.48875,-0.85250,2,0.16381,1.12069,0.47420,0.70230,-0.71007,-0.05077,-0.69723,-0.67170,-0.25038,0.14368,0.21124,-0.96682,0,7,0.54636,-0.76878,0.07794,-0.00003,0.00001,-0.00001,-0.00042,1,7,-0.74451,-0.94478,0.00000,3.00004,0.50336,-0.78760,0.78758,2,4,-0.07801,-0.96572,0.04467,0.70182,3,8,-0.00021,-0.00154,-0.00270,-0.00275,0.01342,0.00345,-0.00004,0.54838,4,8,0.00110,-0.10799,-0.08711,0.53377,1.04682,-0.15736,-0.25464,0.539050.00000,-11.77636
,,,1668224062094201,0,0.13759,1.00719,0.31924,-0.92867,0.08933,0.35998,0.05096,0.99209,-0.11473,-0.36738,-0.08821,-0.92588,1,0.31242,1.09876,0.43188,0.88600,-0.29210,0.36012,-0.42503,-0.82207,0.37889,0.18537,-0.48875,-0.85250,2,0.16381,1.12069,0.47420,0.70230,-0.71007,-0.05077,-0.69723,-0.67170,-0.25038,0.14368,0.21124,-0.96682,0,7,0.54636,-0.76878,0.07964,-0.00003,0.00001,-0.00001,-0.00042,1,7,-0.74451,-0.94478,0.00000,3.00004,0.50336,-0.78760,0.78758,2,4,-0.07801,-0.96572,0.04467,0.70182,3,8,-0.00021,-0.00154,-0.00270,-0.00275,0.01342,0.00345,-0.00004,0.54889,4,8,0.00110,-0.10799,-0.08711,0.53377,1.04682,-0.15736,-0.25464,0.538910.00000,-11.62470
,,,1668224062010201,0,0.13685,1.00743,0.32114,-0.92867,0.08933,0.35998,0.05096,0.99209,-0.11473,-0.36738,-0.08821,-0.92588,1,0.31242,1.09876,0.43188,0.88600,-0.29210,0.36012,-0.42503,-0.82207,0.37889,0.18537,-0.48875,-0.85250,2,0.16381,1.12069,0.47420,0.70230,-0.71007,-0.05077,-0.69723,-0.67170,-0.25038,0.14368,0.21124,-0.96682,0,7,0.54636,-0.76878,0.07758,-0.00003,0.00001,-0.00001,-0.00042,1,7,-0.74451,-0.94478,0.00000,3.00004,0.50336,-0.78760,0.78758,2,4,-0.07801,-0.96572,0.04467,0.70182,3,8,-0.00021,-0.00154,-0.00270,-0.00275,0.01342,0.00345,-0.00004,0.54863,4,8,0.00110,-0.10799,-0.08711,0.53377,1.04682,-0.15736,-0.25464,0.538910.00000,-11.77636
,,,1668224062076201,0,0.13744,1.00724,0.31963,-0.92867,0.08933,0.35998,0.05096,0.99209,-0.11473,-0.36738,-0.08821,-0.92588,1,0.31242,1.09876,0.43188,0.88600,-0.29210,0.36012,-0.42503,-0.82207,0.37889,0.18537,-0.48875,-0.85250,2,0.16381,1.12069,0.47420,0.70230,-0.71007,-0.05077,-0.69723,-0.67170,-0.25038,0.14368,0.21124,-0.96682,0,7,0.54636,-0.76878,0.07922,-0.00003,0.00001,-0.00001,-0.00042,1,7,-0.74451,-0.94478,0.00000,3.00004,0.50336,-0.78760,0.78758,2,4,-0.07801,-0.96572,0.04467,0.70182,3,8,-0.00021,-0.00154,-0.00270,-0.00275,0.01342,0.00345,-0.00004,0.54869,4,8,0.00110,-0.10799,-0.08708,0.53375,1.04682,-0.15736,-0.25464,0.538660.00000,-11.62470
101906,63, 0: 0: 2:123,
,,,1668224062308201,0,0.13849,1.00691,0.31693,-0.92867,0.08933,0.35998,0.05096,0.99209,-0.11473,-0.36738,-0.08821,-0.92588,1,0.31242,1.09876,0.43188,0.88600,-0.29210,0.36012,-0.42503,-0.82207,0.37889,0.18537,-0.48875,-0.85250,2,0.16381,1.12069,0.47420,0.70230,-0.71007,-0.05077,-0.69723,-0.67170,-0.25038,0.14368,0.21124,-0.96682,0,7,0.54636,-0.76878,0.08214,-0.00003,0.00001,-0.00001,-0.00042,1,7,-0.74451,-0.94478,0.00000,3.00004,0.50336,-0.78760,0.78758,2,4,-0.07801,-0.96572,0.04467,0.70182,3,8,-0.00021,-0.00154,-0.00270,-0.00275,0.01342,0.00345,-0.00004,0.54859,4,8,0.00110,-0.10799,-0.08711,0.53377,1.04682,-0.15736,-0.25464,0.539180.00000,-10.55957
,,,1668224062308201,0,0.13849,1.00691,0.31693,-0.92867,0.08933,0.35998,0.05096,0.99209,-0.11473,-0.36738,-0.08821,-0.92588,1,0.31242,1.09876,0.43188,0.88600,-0.29210,0.36012,-0.42503,-0.82207,0.37889,0.18537,-0.48875,-0.85250,2,0.16381,1.12069,0.47420,0.70230,-0.71007,-0.05077,-0.69723,-0.67170,-0.25038,0.14368,0.21124,-0.96682,0,7,0.54636,-0.76878,0.08194,-0.00003,0.00001,-0.00001,-0.00042,1,7,-0.74451,-0.94478,0.00000,3.00004,0.50336,-0.78760,0.78758,2,4,-0.07801,-0.96572,0.04467,0.70182,3,8,-0.00021,-0.00154,-0.00270,-0.00275,0.01342,0.00345,-0.00004,0.54882,4,8,0.00110,-0.10799,-0.08711,0.53377,1.04682,-0.15736,-0.25464,0.539190.00000,-10.55957
,,,1668224062224201,0,0.13822,1.00699,0.31761,-0.92867,0.08933,0.35998,0.05096,0.99209,-0.11473,-0.36738,-0.08821,-0.92588,1,0.31242,1.09876,0.43188,0.88600,-0.29210,0.36012,-0.42503,-0.82207,0.37889,0.18537,-0.48875,-0.85250,2,0.16381,1.12069,0.47420,0.70230,-0.71007,-0.05077,-0.69723,-0.67170,-0.25038,0.14368,0.21124,-0.96682,0,7,0.54636,-0.76878,0.08140,-0.00003,0.00001,-0.00001,-0.00042,1,7,-0.74451,-0.94478,0.00000,3.00004,0.50336,-0.78760,0.78758,2,4,-0.07801,-0.96572,0.04467,0.70182,3,8,-0.00021,-0.00154,-0.00270,-0.00275,0.01342,0.00345,-0.00004,0.54861,4,8,0.00110,-0.10799,-0.08708,0.53375,1.04682,-0.15736,-0.25464,0.538920.00000,-10.95459
,,,1668224062292201,0,0.13842,1.00693,0.31711,-0.92867,0.08933,0.35998,0.05096,0.99209,-0.11473,-0.36738,-0.08821,-0.92588,1,0.31242,1.09876,0.43188,0.88600,-0.29210,0.36012,-0.42503,-0.82207,0.37889,0.18537,-0.48875,-0.85250,2,0.16381,1.12069,0.47420,0.70230,-0.71007,-0.05077,-0.69723,-0.67170,-0.25038,0.14368,0.21124,-0.96682,0,7,0.54636,-0.76878,0.08194,-0.00003,0.00001,-0.00001,-0.00042,1,7,-0.74451,-0.94478,0.00000,3.00004,0.50336,-0.78760,0.78758,2,4,-0.07801,-0.96572,0.04467,0.70182,3,8,-0.00021,-0.00154,-0.00270,-0.00275,0.01342,0.00345,-0.00004,0.54882,4,8,0.00110,-0.10799,-0.08711,0.53377,1.04682,-0.15736,-0.25464,0.539190.00000,-10.68301
,,,1668224062208201,0,0.13819,1.00700,0.31769,-0.92867,0.08933,0.35998,0.05096,0.99209,-0.11473,-0.36738,-0.08821,-0.92588,1,0.31242,1.09876,0.43188,0.88600,-0.29210,0.36012,-0.42503,-0.82207,0.37889,0.18537,-0.48875,-0.85250,2,0.16381,1.12069,0.47420,0.70230,-0.71007,-0.05077,-0.69723,-0.67170,-0.25038,0.14368,0.21124,-0.96682,0,7,0.54636,-0.76878,0.08132,-0.00003,0.00001,-0.00001,-0.00042,1,7,-0.74451,-0.94478,0.00000,3.00004,0.50336,-0.78760,0.78758,2,4,-0.07801,-0.96572,0.04467,0.70182,3,8,-0.00021,-0.00154,-0.00270,-0.00275,0.01342,0.00345,-0.00004,0.54847,4,8,0.00110,-0.10799,-0.08708,0.53375,1.04682,-0.15736,-0.25464,0.538680.00000,-10.95459
,,,1668224062273201,0,0.13835,1.00695,0.31728,-0.92867,0.08933,0.35998,0.05096,0.99209,-0.11473,-0.36738,-0.08821,-0.92588,1,0.31242,1.09876,0.43188,0.88600,-0.29210,0.36012,-0.42503,-0.82207,0.37889,0.18537,-0.48875,-0.85250,2,0.16381,1.12069,0.47420,0.70230,-0.71007,-0.05077,-0.69723,-0.67170,-0.25038,0.14368,0.21124,-0.96682,0,7,0.54636,-0.76878,0.08175,-0.00003,0.00001,-0.00001,-0.00042,1,7,-0.74451,-0.94478,0.00000,3.00004,0.50336,-0.78760,0.78758,2,4,-0.07801,-0.96572,0.04467,0.70182,3,8,-0.00021,-0.00154,-0.00270,-0.00275,0.01342,0.00345,-0.00004,0.54873,4,8,0.00110,-0.10799,-0.08711,0.53377,1.04682,-0.15736,-0.25464,0.538830.00000,-10.68301
,,,1668224062193201,0,0.13815,1.00701,0.31780,-0.92867,0.08933,0.35998,0.05096,0.99209,-0.11473,-0.36738,-0.08821,-0.92588,1,0.31242,1.09876,0.43188,0.88600,-0.29210,0.36012,-0.42503,-0.82207,0.37889,0.18537,-0.48875,-0.85250,2,0.16381,1.12069,0.47420,0.70230,-0.71007,-0.05077,-0.69723,-0.67170,-0.25038,0.14368,0.21124,-0.96682,0,7,0.54636,-0.76878,0.08120,-0.00003,0.00001,-0.00001,-0.00042,1,7,-0.74451,-0.94478,0.00000,3.00004,0.50336,-0.78760,0.78758,2,4,-0.07801,-0.96572,0.04467,0.70182,3,8,-0.00021,-0.00154,-0.00270,-0.00275,0.01342,0.00345,-0.00004,0.54874,4,8,0.00110,-0.10799,-0.08711,0.53377,1.04682,-0.15736,-0.25464,0.538940.00000,-10.95459
,,,1668224062257201,0,0.13829,1.00697,0.31743,-0.92867,0.08933,0.35998,0.05096,0.99209,-0.11473,-0.36738,-0.08821,-0.92588,1,0.31242,1.09876,0.43188,0.88600,-0.29210,0.36012,-0.42503,-0.82207,0.37889,0.18537,-0.48875,-0.85250,2,0.16381,1.12069,0.47420,0.70230,-0.71007,-0.05077,-0.69723,-0.67170,-0.25038,0.14368,0.21124,-0.96682,0,7,0.54636,-0.76878,0.08159,-0.00003,0.00001,-0.00001,-0.00042,1,7,-0.74451,-0.94478,0.00000,3.00004,0.50336,-0.78760,0.78758,2,4,-0.07801,-0.96572,0.04467,0.70182,3,8,-0.00021,-0.00154,-0.00270,-0.00275,0.01342,0.00345,-0.00004,0.54852,4,8,0.00110,-0.10799,-0.08708,0.53375,1.04682,-0.15736,-0.25464,0.538760.00000,-10.68301
,,,1668224062109201,0,0.13772,1.00715,0.31890,-0.92867,0.08933,0.35998,0.05096,0.99209,-0.11473,-0.36738,-0.08821,-0.92588,1,0.31242,1.09876,0.43188,0.88600,-0.29210,0.36012,-0.42503,-0.82207,0.37889,0.18537,-0.48875,-0.85250,2,0.16381,1.12069,0.47420,0.70230,-0.71007,-0.05077,-0.69723,-0.67170,-0.25038,0.14368,0.21124,-0.96682,0,7,0.54636,-0.76878,0.08001,-0.00003,0.00001,-0.00001,-0.00042,1,7,-0.74451,-0.94478,0.00000,3.00004,0.50336,-0.78760,0.78758,2,4,-0.07801,-0.96572,0.04467,0.70182,3,8,-0.00021,-0.00154,-0.00270,-0.00275,0.01342,0.00345,-0.00004,0.54879,4,8,0.00110,-0.10799,-0.08708,0.53375,1.04682,-0.15736,-0.25464,0.538940.00000,-11.62470
,,,1668224062179201,0,0.13810,1.00703,0.31794,-0.92867,0.08933,0.35998,0.05096,0.99209,-0.11473,-0.36738,-0.08821,-0.92588,1,0.31242,1.09876,0.43188,0.88600,-0.29210,0.36012,-0.42503,-0.82207,0.37889,0.18537,-0.48875,-0.85250,2,0.16381,1.12069,0.47420,0.70230,-0.71007,-0.05077,-0.69723,-0.67170,-0.25038,0.14368,0.21124,-0.96682,0,7,0.54636,-0.76878,0.08105,-0.00003,0.00001,-0.00001,-0.00042,1,7,-0.74451,-0.94478,0.00000,3.00004,0.50336,-0.78760,0.78758,2,4,-0.07801,-0.96572,0.04467,0.70182,3,8,-0.00021,-0.00154,-0.00270,-0.00275,0.01342,0.00345,-0.00004,0.54843,4,8,0.00110,-0.10799,-0.08711,0.53377,1.04682,-0.15736,-0.25464,0.538830.00000,-10.95459
109586,68, 0: 0: 2:283,
,,,1668224062467201,0,0.13855,1.00689,0.31676,-0.92867,0.08933,0.35998,0.05096,0.99209,-0.11473,-0.36738,-0.08821,-0.92588,1,0.31242,1.09876,0.43188,0.88600,-0.29210,0.36012,-0.42503,-0.82207,0.37889,0.18537,-0.48875,-0.85250,2,0.16381,1.12069,0.47420,0.70230,-0.71007,-0.05077,-0.69723,-0.67170,-0.25038,0.14368,0.21124,-0.96682,0,7,0.54636,-0.76878,0.08232,-0.00003,0.00001,-0.00001,-0.00042,1,7,-0.74451,-0.94478,0.00000,3.00004,0.50336,-0.78760,0.78758,2,4,-0.07801,-0.96572,0.04467,0.70182,3,8,-0.00021,-0.00154,-0.00270,-0.00275,0.01342,0.00345,-0.00004,0.54867,4,8,0.00110,-0.10799,-0.08708,0.53375,1.04682,-0.15736,-0.25464,0.538940.00000,-10.30563
,,,1668224062390201,0,0.13859,1.00688,0.31667,-0.92867,0.08933,0.35998,0.05096,0.99209,-0.11473,-0.36738,-0.08821,-0.92588,1,0.31242,1.09876,0.43188,0.88600,-0.29210,0.36012,-0.42503,-0.82207,0.37889,0.18537,-0.48875,-0.85250,2,0.16381,1.12069,0.47420,0.70230,-0.71007,-0.05077,-0.69723,-0.67170,-0.25038,0.14368,0.21124,-0.96682,0,7,0.54636,-0.76878,0.08241,-0.00003,0.00001,-0.00001,-0.00042,1,7,-0.74451,-0.94478,0.00000,3.00004,0.50336,-0.78760,0.78758,2,4,-0.07801,-0.96572,0.04467,0.70182,3,8,-0.00021,-0.00154,-0.00270,-0.00275,0.01342,0.00345,-0.00004,0.54873,4,8,0.00110,-0.10799,-0.08711,0.53377,1.04682,-0.15736,-0.25464,0.539000.00000,-10.43613
,,,1668224062454201,0,0.13858,1.00688,0.31670,-0.92867,0.08933,0.35998,0.05096,0.99209,-0.11473,-0.36738,-0.08821,-0.92588,1,0.31242,1.09876,0.43188,0.88600,-0.29210,0.36012,-0.42503,-0.82207,0.37889,0.18537,-0.48875,-0.85250,2,0.16381,1.12069,0.47420,0.70230,-0.71007,-0.05077,-0.69723,-0.67170,-0.25038,0.14368,0.21124,-0.96682,0,7,0.54636,-0.76878,0.08239,-0.00003,0.00001,-0.00001,-0.00042,1,7,-0.74451,-0.94478,0.00000,3.00004,0.50336,-0.78760,0.78758,2,4,-0.07801,-0.96572,0.04467,0.70182,3,8,-0.00021,-0.00154,-0.00270,-0.00275,0.01342,0.00345,-0.00004,0.54862,4,8,0.00110,-0.10799,-0.08711,0.53377,1.04682,-0.15736,-0.25464,0.538810.00000,-10.30563
,,,1668224062373201,0,0.13859,1.00688,0.31667,-0.92867,0.08933,0.35998,0.05096,0.99209,-0.11473,-0.36738,-0.08821,-0.92588,1,0.31242,1.09876,0.43188,0.88600,-0.29210,0.36012,-0.42503,-0.82207,0.37889,0.18537,-0.48875,-0.85250,2,0.16381,1.12069,0.47420,0.70230,-0.71007,-0.05077,-0.69723,-0.67170,-0.25038,0.14368,0.21124,-0.96682,0,7,0.54636,-0.76878,0.08241,-0.00003,0.00001,-0.00001,-0.00042,1,7,-0.74451,-0.94478,0.00000,3.00004,0.50336,-0.78760,0.78758,2,4,-0.07801,-0.96572,0.04467,0.70182,3,8,-0.00021,-0.00154,-0.00270,-0.00275,0.01342,0.00345,-0.00004,0.54869,4,8,0.00110,-0.10799,-0.08711,0.53377,1.04682,-0.15736,-0.25464,0.539110.00000,-10.43613
,,,1668224062447201,0,0.13859,1.00688,0.31668,-0.92867,0.08933,0.35998,0.05096,0.99209,-0.11473,-0.36738,-0.08821,-0.92588,1,0.31242,1.09876,0.43188,0.88600,-0.29210,0.36012,-0.42503,-0.82207,0.37889,0.18537,-0.48875,-0.85250,2,0.16381,1.12069,0.47420,0.70230,-0.71007,-0.05077,-0.69723,-0.67170,-0.25038,0.14368,0.21124,-0.96682,0,7,0.54636,-0.76878,0.08241,-0.00003,0.00001,-0.00001,-0.00042,1,7,-0.74451,-0.94478,0.00000,3.00004,0.50336,-0.78760,0.78758,2,4,-0.07801,-0.96572,0.04467,0.70182,3,8,-0.00021,-0.00154,-0.00270,-0.00275,0.01342,0.00345,-0.00004,0.54887,4,8,0.00110,-0.10799,-0.08708,0.53375,1.04682,-0.15736,-0.25464,0.538530.00000,-10.30563
,,,1668224062433201,0,0.13859,1.00688,0.31667,-0.92867,0.08933,0.35998,0.05096,0.99209,-0.11473,-0.36738,-0.08821,-0.92588,1,0.31242,1.09876,0.43188,0.88600,-0.29210,0.36012,-0.42503,-0.82207,0.37889,0.18537,-0.48875,-0.85250,2,0.16381,1.12069,0.47420,0.70230,-0.71007,-0.05077,-0.69723,-0.67170,-0.25038,0.14368,0.21124,-0.96682,0,7,0.54636,-0.76878,0.08241,-0.00003,0.00001,-0.00001,-0.00042,1,7,-0.74451,-0.94478,0.00000,3.00004,0.50336,-0.78760,0.78758,2,4,-0.07801,-0.96572,0.04467,0.70182,3,8,-0.00021,-0.00154,-0.00270,-0.00275,0.01342,0.00345,-0.00004,0.54893,4,8,0.00110,-0.10799,-0.08711,0.53377,1.04682,-0.15736,-0.25464,0.538950.00000,-10.30563
,,,1668224062356201,0,0.13859,1.00688,0.31667,-0.92867,0.08933,0.35998,0.05096,0.99209,-0.11473,-0.36738,-0.08821,-0.92588,1,0.31242,1.09876,0.43188,0.88600,-0.29210,0.36012,-0.42503,-0.82207,0.37889,0.18537,-0.48875,-0.85250,2,0.16381,1.12069,0.47420,0.70230,-0.71007,-0.05077,-0.69723,-0.67170,-0.25038,0.14368,0.21124,-0.96682,0,7,0.54636,-0.76878,0.08241,-0.00003,0.00001,-0.00001,-0.00042,1,7,-0.74451,-0.94478,0.00000,3.00004,0.50336,-0.78760,0.78758,2,4,-0.07801,-0.96572,0.04467,0.70182,3,8,-0.00021,-0.00154,-0.00270,-0.00275,0.01342,0.00345,-0.00004,0.54818,4,8,0.00110,-0.10799,-0.08708,0.53375,1.04682,-0.15736,-0.25464,0.539030.00000,-10.55957
,,,1668224062425201,0,0.13859,1.00688,0.31667,-0.92867,0.08933,0.35998,0.05096,0.99209,-0.11473,-0.36738,-0.08821,-0.92588,1,0.31242,1.09876,0.43188,0.88600,-0.29210,0.36012,-0.42503,-0.82207,0.37889,0.18537,-0.48875,-0.85250,2,0.16381,1.12069,0.47420,0.70230,-0.71007,-0.05077,-0.69723,-0.67170,-0.25038,0.14368,0.21124,-0.96682,0,7,0.54636,-0.76878,0.08241,-0.00003,0.00001,-0.00001,-0.00042,1,7,-0.74451,-0.94478,0.00000,3.00004,0.50336,-0.78760,0.78758,2,4,-0.07801,-0.96572,0.04467,0.70182,3,8,-0.00021,-0.00154,-0.00270,-0.00275,0.01342,0.00345,-0.00004,0.54893,4,8,0.00110,-0.10799,-0.08711,0.53377,1.04682,-0.15736,-0.25464,0.538950.00000,-10.43613
,,,1668224062340201,0,0.13858,1.00688,0.31669,-0.92867,0.08933,0.35998,0.05096,0.99209,-0.11473,-0.36738,-0.08821,-0.92588,1,0.31242,1.09876,0.43188,0.88600,-0.29210,0.36012,-0.42503,-0.82207,0.37889,0.18537,-0.48875,-0.85250,2,0.16381,1.12069,0.47420,0.70230,-0.71007,-0.05077,-0.69723,-0.67170,-0.25038,0.14368,0.21124,-0.96682,0,7,0.54636,-0.76878,0.08239,-0.00003,0.00001,-0.00001,-0.00042,1,7,-0.74451,-0.94478,0.00000,3.00004,0.50336,-0.78760,0.78758,2,4,-0.07801,-0.96572,0.04467,0.70182,3,8,-0.00021,-0.00154,-0.00270,-0.00275,0.01342,0.00345,-0.00004,0.54870,4,8,0.00110,-0.10799,-0.08708,0.53375,1.04682,-0.15736,-0.25464,0.538830.00000,-10.55957
,,,1668224062407201,0,0.13859,1.00688,0.31667,-0.92867,0.08933,0.35998,0.05096,0.99209,-0.11473,-0.36738,-0.08821,-0.92588,1,0.31242,1.09876,0.43188,0.88600,-0.29210,0.36012,-0.42503,-0.82207,0.37889,0.18537,-0.48875,-0.85250,2,0.16381,1.12069,0.47420,0.70230,-0.71007,-0.05077,-0.69723,-0.67170,-0.25038,0.14368,0.21124,-0.96682,0,7,0.54636,-0.76878,0.08241,-0.00003,0.00001,-0.00001,-0.00042,1,7,-0.74451,-0.94478,0.00000,3.00004,0.50336,-0.78760,0.78758,2,4,-0.07801,-0.96572,0.04467,0.70182,3,8,-0.00021,-0.00154,-0.00270,-0.00275,0.01342,0.00345,-0.00004,0.54863,4,8,0.00110,-0.10799,-0.08711,0.53377,1.04682,-0.15736,-0.25464,0.538970.00000,-10.43613
117266,73, 0: 0: 2:443,
,,,1668224062620201,0,0.13822,1.00699,0.31761,-0.92867,0.08933,0.35998,0.05096,0.99209,-0.11473,-0.36738,-0.08821,-0.92588,1,0.31242,1.09876,0.43188,0.88600,-0.29210,0.36012,-0.42503,-0.82207,0.37889,0.18537,-0.48875,-0.85250,2,0.16381,1.12069,0.47420,0.70230,-0.71007,-0.05077,-0.69723,-0.67170,-0.25038,0.14368,0.21124,-0.96682,0,7,0.54636,-0.76878,0.08140,-0.00003,0.00001,-0.00001,-0.00042,1,7,-0.74451,-0.94478,0.00000,3.00004,0.50336,-0.78760,0.78758,2,4,-0.07801,-0.96572,0.04467,0.70182,3,8,-0.00021,-0.00154,-0.00270,-0.00275,0.01342,0.00345,-0.00004,0.54865,4,8,0.00110,-0.10799,-0.08708,0.53375,1.04682,-0.15736,-0.25464,0.538970.00000,-10.34090
,,,1668224062540201,0,0.13841,1.00693,0.31712,-0.92867,0.08933,0.35998,0.05096,0.99209,-0.11473,-0.36738,-0.08821,-0.92588,1,0.31242,1.09876,0.43188,0.88600,-0.29210,0.36012,-0.42503,-0.82207,0.37889,0.18537,-0.48875,-0.85250,2,0.16381,1.12069,0.47420,0.70230,-0.71007,-0.05077,-0.69723,-0.67170,-0.25038,0.14368,0.21124,-0.96682,0,7,0.54636,-0.76878,0.08193,-0.00003,0.00001,-0.00001,-0.00042,1,7,-0.74451,-0.94478,0.00000,3.00004,0.50336,-0.78760,0.78758,2,4,-0.07801,-0.96572,0.04467,0.70182,3,8,-0.00021,-0.00154,-0.00270,-0.00275,0.01342,0.00345,-0.00004,0.54852,4,8,0.00110,-0.10799,-0.08711,0.53377,1.04682,-0.15736,-0.25464,0.538750.00000,-10.29153
,,,1668224062604201,0,0.13828,1.00697,0.31745,-0.92867,0.08933,0.35998,0.05096,0.99209,-0.11473,-0.36738,-0.08821,-0.92588,1,0.31242,1.09876,0.43188,0.88600,-0.29210,0.36012,-0.42503,-0.82207,0.37889,0.18537,-0.48875,-0.85250,2,0.16381,1.12069,0.47420,0.70230,-0.71007,-0.05077,-0.69723,-0.67170,-0.25038,0.14368,0.21124,-0.96682,0,7,0.54636,-0.76878,0.08157,-0.00003,0.00001,-0.00001,-0.00042,1,7,-0.74451,-0.94478,0.00000,3.00004,0.50336,-0.78760,0.78758,2,4,-0.07801,-0.96572,0.04467,0.70182,3,8,-0.00021,-0.00154,-0.00270,-0.00275,0.01342,0.00345,-0.00004,0.54885,4,8,0.00110,-0.10799,-0.08708,0.53375,1.04682,-0.15736,-0.25464,0.539000.00000,-10.34090
,,,1668224062521201,0,0.13844,1.00692,0.31704,-0.92867,0.08933,0.35998,0.05096,0.99209,-0.11473,-0.36738,-0.08821,-0.92588,1,0.31242,1.09876,0.43188,0.88600,-0.29210,0.36012,-0.42503,-0.82207,0.37889,0.18537,-0.48875,-0.85250,2,0.16381,1.12069,0.47420,0.70230,-0.71007,-0.05077,-0.69723,-0.67170,-0.25038,0.14368,0.21124,-0.96682,0,7,0.54636,-0.76878,0.08202,-0.00003,0.00001,-0.00001,-0.00042,1,7,-0.74451,-0.94478,0.00000,3.00004,0.50336,-0.78760,0.78758,2,4,-0.07801,-0.96572,0.04467,0.70182,3,8,-0.00021,-0.00154,-0.00270,-0.00275,0.01342,0.00345,-0.00004,0.54849,4,8,0.00110,-0.10799,-0.08711,0.53377,1.04682,-0.15736,-0.25464,0.538910.00000,-10.29153
,,,1668224062590201,0,0.13833,1.00696,0.31733,-0.92867,0.08933,0.35998,0.05096,0.99209,-0.11473,-0.36738,-0.08821,-0.92588,1,0.31242,1.09876,0.43188,0.88600,-0.29210,0.36012,-0.42503,-0.82207,0.37889,0.18537,-0.48875,-0.85250,2,0.16381,1.12069,0.47420,0.70230,-0.71007,-0.05077,-0.69723,-0.67170,-0.25038,0.14368,0.21124,-0.96682,0,7,0.54636,-0.76878,0.08170,-0.00003,0.00001,-0.00001,-0.00042,1,7,-0.74451,-0.94478,0.00000,3.00004,0.50336,-0.78760,0.78758,2,4,-0.07801,-0.96572,0.04467,0.70182,3,8,-0.00021,-0.00154,-0.00270,-0.00275,0.01342,0.00345,-0.00004,0.54895,4,8,0.00110,-0.10799,-0.08708,0.53375,1.04682,-0.15736,-0.25464,0.538780.00000,-10.34090
,,,1668224062505201,0,0.13848,1.00691,0.31695,-0.92867,0.08933,0.35998,0.05096,0.99209,-0.11473,-0.36738,-0.08821,-0.92588,1,0.31242,1.09876,0.43188,0.88600,-0.29210,0.36012,-0.42503,-0.82207,0.37889,0.18537,-0.48875,-0.85250,2,0.16381,1.12069,0.47420,0.70230,-0.71007,-0.05077,-0.69723,-0.67170,-0.25038,0.14368,0.21124,-0.96682,0,7,0.54636,-0.76878,0.08211,-0.00003,0.00001,-0.00001,-0.00042,1,7,-0.74451,-0.94478,0.00000,3.00004,0.50336,-0.78760,0.78758,2,4,-0.07801,-0.96572,0.04467,0.70182,3,8,-0.00021,-0.00154,-0.00270,-0.00275,0.01342,0.00345,-0.00004,0.54840,4,8,0.00110,-0.10799,-0.08711,0.53377,1.04682,-0.15736,-0.25464,0.538740.00000,-10.29153
,,,1668224062572201,0,0.13836,1.00695,0.31724,-0.92867,0.08933,0.35998,0.05096,0.99209,-0.11473,-0.36738,-0.08821,-0.92588,1,0.31242,1.09876,0.43188,0.88600,-0.29210,0.36012,-0.42503,-0.82207,0.37889,0.18537,-0.48875,-0.85250,2,0.16381,1.12069,0.47420,0.70230,-0.71007,-0.05077,-0.69723,-0.67170,-0.25038,0.14368,0.21124,-0.96682,0,7,0.54636,-0.76878,0.08179,-0.00003,0.00001,-0.00001,-0.00042,1,7,-0.74451,-0.94478,0.00000,3.00004,0.50336,-0.78760,0.78758,2,4,-0.07801,-0.96572,0.04467,0.70182,3,8,-0.00021,-0.00154,-0.00270,-0.00275,0.01342,0.00345,-0.00004,0.54847,4,8,0.00110,-0.10799,-0.08711,0.53377,1.04682,-0.15736,-0.25464,0.539000.00000,-10.34090
,,,1668224062425201,0,0.13859,1.00688,0.31667,-0.92867,0.08933,0.35998,0.05096,0.99209,-0.11473,-0.36738,-0.08821,-0.92588,1,0.31242,1.09876,0.43188,0.88600,-0.29210,0.36012,-0.42503,-0.82207,0.37889,0.18537,-0.48875,-0.85250,2,0.16381,1.12069,0.47420,0.70230,-0.71007,-0.05077,-0.69723,-0.67170,-0.25038,0.14368,0.21124,-0.96682,0,7,0.54636,-0.76878,0.08241,-0.00003,0.00001,-0.00001,-0.00042,1,7,-0.74451,-0.94478,0.00000,3.00004,0.50336,-0.78760,0.78758,2,4,-0.07801,-0.96572,0.04467,0.70182,3,8,-0.00021,-0.00154,-0.00270,-0.00275,0.01342,0.00345,-0.00004,0.54893,4,8,0.00110,-0.10799,-0.08711,0.53377,1.04682,-0.15736,-0.25464,0.538950.00000,-10.43613
,,,1668224062559201,0,0.13839,1.00694,0.31719,-0.92867,0.08933,0.35998,0.05096,0.99209,-0.11473,-0.36738,-0.08821,-0.92588,1,0.31242,1.09876,0.43188,0.88600,-0.29210,0.36012,-0.42503,-0.82207,0.37889,0.18537,-0.48875,-0.85250,2,0.16381,1.12069,0.47420,0.70230,-0.71007,-0.05077,-0.69723,-0.67170,-0.25038,0.14368,0.21124,-0.96682,0,7,0.54636,-0.76878,0.08186,-0.00003,0.00001,-0.00001,-0.00042,1,7,-0.74451,-0.94478,0.00000,3.00004,0.50336,-0.78760,0.78758,2,4,-0.07801,-0.96572,0.04467,0.70182,3,8,-0.00021,-0.00154,-0.00270,-0.00275,0.01342,0.00345,-0.00004,0.54830,4,8,0.00110,-0.10799,-0.08711,0.53377,1.04682,-0.15736,-0.25464,0.538840.00000,-10.34090
,,,1668224062556201,0,0.13839,1.00694,0.31719,-0.92867,0.08933,0.35998,0.05096,0.99209,-0.11473,-0.36738,-0.08821,-0.92588,1,0.31242,1.09876,0.43188,0.88600,-0.29210,0.36012,-0.42503,-0.82207,0.37889,0.18537,-0.48875,-0.85250,2,0.16381,1.12069,0.47420,0.70230,-0.71007,-0.05077,-0.69723,-0.67170,-0.25038,0.14368,0.21124,-0.96682,0,7,0.54636,-0.76878,0.08186,-0.00003,0.00001,-0.00001,-0.00042,1,7,-0.74451,-0.94478,0.00000,3.00004,0.50336,-0.78760,0.78758,2,4,-0.07801,-0.96572,0.04467,0.70182,3,8,-0.00021,-0.00154,-0.00270,-0.00275,0.01342,0.00345,-0.00004,0.54830,4,8,0.00110,-0.10799,-0.08711,0.53377,1.04682,-0.15736,-0.25464,0.538840.00000,-10.29153
124946,78, 0: 0: 2:603,
